P3
240 240
255
11 11 11 9 9 9 11 11 11 11 11 11 10 10 10 11 11 11 11 11 11 11 11 11 
10 10 10 7 7 7 11 11 11 11 11 11 9 9 9 13 13 13 11 11 11 11 11 11 
11 11 11 11 11 11 10 10 10 13 13 13 10 10 10 11 11 11 11 11 11 9 9 9 
11 11 11 11 11 11 11 11 11 10 10 10 11 11 11 11 11 11 11 11 11 11 11 11 
11 11 11 13 13 13 11 11 11 10 10 10 13 13 13 10 10 10 13 13 13 13 13 13 
10 10 10 11 11 11 11 11 11 10 10 10 11 11 11 11 11 11 10 10 10 9 9 9 
11 11 11 11 11 11 9 9 9 11 11 11 10 10 10 11 11 11 14 14 14 11 11 11 
11 11 11 11 11 11 11 11 11 10 10 10 10 10 10 11 11 11 10 10 10 11 11 11 
10 10 10 11 11 11 10 10 10 7 7 7 11 11 11 10 10 10 7 7 7 10 10 10 
13 13 13 9 9 9 11 11 11 13 13 13 13 13 13 11 11 11 13 13 13 11 11 11 
11 11 11 10 10 10 11 11 11 11 11 11 10 10 10 10 10 10 10 10 10 13 13 13 
10 10 10 10 10 10 11 11 11 9 9 9 7 7 7 11 11 11 10 10 10 10 10 10 
9 9 9 11 11 11 7 7 7 13 13 13 10 10 10 10 10 10 10 10 10 7 7 7 
11 11 11 11 11 11 11 11 11 11 11 11 13 13 13 10 10 10 11 11 11 10 10 10 
11 11 11 11 11 11 11 11 11 11 11 11 11 11 11 11 11 11 11 11 11 11 11 11 
11 11 11 11 11 11 10 10 10 11 11 11 11 11 11 11 11 11 9 9 9 10 10 10 
7 7 7 11 11 11 13 13 13 10 10 10 11 11 11 11 11 11 11 11 11 10 10 10 
10 10 10 11 11 11 10 10 10 9 9 9 11 11 11 10 10 10 11 11 11 10 10 10 
11 11 11 11 11 11 13 13 13 10 10 10 10 10 10 10 10 10 10 10 10 13 13 13 
10 10 10 10 10 10 11 11 11 11 11 11 7 7 7 9 9 9 10 10 10 11 11 11 
11 11 11 11 11 11 7 7 7 9 9 9 10 10 10 9 9 9 7 7 7 13 13 13 
9 9 9 10 10 10 9 9 9 11 11 11 10 10 10 11 11 11 9 9 9 9 9 9 
10 10 10 10 10 10 11 11 11 11 11 11 9 9 9 10 10 10 11 11 11 10 10 10 
10 10 10 7 7 7 11 11 11 11 11 11 11 11 11 9 9 9 14 14 14 11 11 11 
10 10 10 10 10 10 11 11 11 10 10 10 13 13 13 9 9 9 10 10 10 10 10 10 
11 11 11 11 11 11 10 10 10 10 10 10 11 11 11 10 10 10 9 9 9 13 13 13 
7 7 7 11 11 11 11 11 11 11 11 11 11 11 11 11 11 11 10 10 10 11 11 11 
11 11 11 11 11 11 10 10 10 13 13 13 13 13 13 11 11 11 10 10 10 9 9 9 
11 11 11 11 11 11 13 13 13 11 11 11 11 11 11 10 10 10 11 11 11 7 7 7 
10 10 10 11 11 11 10 10 10 9 9 9 10 10 10 10 10 10 11 11 11 14 14 14 

9 9 9 9 9 9 11 11 11 11 11 11 13 13 13 11 11 11 13 13 13 11 11 11 
11 11 11 10 10 10 11 11 11 7 7 7 11 11 11 11 11 11 10 10 10 13 13 13 
9 9 9 11 11 11 7 7 7 11 11 11 11 11 11 13 13 13 11 11 11 13 13 13 
11 11 11 10 10 10 11 11 11 10 10 10 11 11 11 11 11 11 13 13 13 11 11 11 
10 10 10 10 10 10 11 11 11 11 11 11 11 11 11 11 11 11 11 11 11 10 10 10 
11 11 11 10 10 10 11 11 11 10 10 10 14 14 14 10 10 10 10 10 10 10 10 10 
11 11 11 10 10 10 10 10 10 10 10 10 11 11 11 10 10 10 11 11 11 9 9 9 
11 11 11 9 9 9 11 11 11 7 7 7 11 11 11 11 11 11 11 11 11 11 11 11 
11 11 11 10 10 10 11 11 11 10 10 10 11 11 11 10 10 10 13 13 13 10 10 10 
11 11 11 11 11 11 11 11 11 9 9 9 9 9 9 9 9 9 10 10 10 10 10 10 
11 11 11 10 10 10 11 11 11 11 11 11 9 9 9 7 7 7 11 11 11 11 11 11 
9 9 9 10 10 10 11 11 11 11 11 11 10 10 10 10 10 10 11 11 11 11 11 11 
11 11 11 11 11 11 14 14 14 11 11 11 11 11 11 11 11 11 11 11 11 13 13 13 
11 11 11 11 11 11 10 10 10 9 9 9 11 11 11 10 10 10 11 11 11 11 11 11 
10 10 10 11 11 11 7 7 7 10 10 10 11 11 11 11 11 11 11 11 11 11 11 11 
11 11 11 7 7 7 7 7 7 13 13 13 9 9 9 10 10 10 11 11 11 11 11 11 
11 11 11 9 9 9 9 9 9 11 11 11 10 10 10 13 13 13 11 11 11 11 11 11 
11 11 11 10 10 10 11 11 11 10 10 10 9 9 9 11 11 11 11 11 11 10 10 10 
13 13 13 10 10 10 10 10 10 11 11 11 11 11 11 11 11 11 11 11 11 11 11 11 
11 11 11 11 11 11 10 10 10 9 9 9 11 11 11 10 10 10 10 10 10 10 10 10 
11 11 11 10 10 10 10 10 10 10 10 10 11 11 11 11 11 11 9 9 9 9 9 9 
11 11 11 10 10 10 10 10 10 10 10 10 11 11 11 11 11 11 9 9 9 11 11 11 
11 11 11 11 11 11 10 10 10 11 11 11 10 10 10 9 9 9 10 10 10 11 11 11 
10 10 10 13 13 13 11 11 11 11 11 11 9 9 9 11 11 11 11 11 11 11 11 11 
13 13 13 9 9 9 11 11 11 11 11 11 11 11 11 11 11 11 11 11 11 10 10 10 
10 10 10 10 10 10 7 7 7 10 10 10 11 11 11 11 11 11 11 11 11 9 9 9 
10 10 10 10 10 10 10 10 10 11 11 11 11 11 11 13 13 13 11 11 11 13 13 13 
11 11 11 10 10 10 10 10 10 10 10 10 9 9 9 10 10 10 11 11 11 10 10 10 
10 10 10 10 10 10 10 10 10 11 11 11 11 11 11 11 11 11 10 10 10 10 10 10 
11 11 11 11 11 11 9 9 9 11 11 11 9 9 9 13 13 13 11 11 11 13 13 13 

11 11 11 11 11 11 11 11 11 11 11 11 11 11 11 10 10 10 10 10 10 13 13 13 
10 10 10 10 10 10 10 10 10 10 10 10 13 13 13 9 9 9 9 9 9 10 10 10 
11 11 11 10 10 10 14 14 14 11 11 11 9 9 9 11 11 11 10 10 10 11 11 11 
11 11 11 11 11 11 14 14 14 13 13 13 11 11 11 10 10 10 11 11 11 10 10 10 
11 11 11 10 10 10 9 9 9 11 11 11 11 11 11 11 11 11 11 11 11 9 9 9 
7 7 7 9 9 9 11 11 11 10 10 10 9 9 9 10 10 10 11 11 11 9 9 9 
11 11 11 11 11 11 13 13 13 13 13 13 11 11 11 11 11 11 11 11 11 11 11 11 
11 11 11 11 11 11 11 11 11 9 9 9 11 11 11 11 11 11 11 11 11 9 9 9 
13 13 13 9 9 9 11 11 11 10 10 10 11 11 11 10 10 10 11 11 11 11 11 11 
11 11 11 11 11 11 9 9 9 11 11 11 10 10 10 11 11 11 11 11 11 10 10 10 
11 11 11 11 11 11 11 11 11 10 10 10 10 10 10 13 13 13 9 9 9 10 10 10 
11 11 11 13 13 13 10 10 10 11 11 11 11 11 11 11 11 11 11 11 11 11 11 11 
11 11 11 13 13 13 11 11 11 11 11 11 11 11 11 9 9 9 10 10 10 11 11 11 
11 11 11 10 10 10 11 11 11 11 11 11 9 9 9 11 11 11 11 11 11 11 11 11 
10 10 10 11 11 11 11 11 11 11 11 11 9 9 9 10 10 10 9 9 9 11 11 11 
9 9 9 11 11 11 11 11 11 11 11 11 10 10 10 11 11 11 10 10 10 13 13 13 
13 13 13 11 11 11 11 11 11 11 11 11 11 11 11 11 11 11 13 13 13 11 11 11 
10 10 10 9 9 9 9 9 9 9 9 9 11 11 11 13 13 13 11 11 11 10 10 10 
10 10 10 10 10 10 10 10 10 13 13 13 11 11 11 11 11 11 11 11 11 11 11 11 
11 11 11 10 10 10 9 9 9 7 7 7 9 9 9 11 11 11 10 10 10 10 10 10 
11 11 11 11 11 11 11 11 11 10 10 10 11 11 11 7 7 7 11 11 11 11 11 11 
10 10 10 9 9 9 11 11 11 13 13 13 9 9 9 11 11 11 11 11 11 11 11 11 
11 11 11 11 11 11 10 10 10 10 10 10 9 9 9 10 10 10 11 11 11 13 13 13 
10 10 10 11 11 11 9 9 9 10 10 10 9 9 9 10 10 10 11 11 11 9 9 9 
11 11 11 10 10 10 11 11 11 13 13 13 9 9 9 11 11 11 9 9 9 10 10 10 
9 9 9 11 11 11 11 11 11 11 11 11 13 13 13 10 10 10 13 13 13 11 11 11 
10 10 10 7 7 7 9 9 9 11 11 11 13 13 13 11 11 11 13 13 13 11 11 11 
11 11 11 11 11 11 11 11 11 10 10 10 14 14 14 10 10 10 11 11 11 7 7 7 
10 10 10 11 11 11 11 11 11 11 11 11 9 9 9 11 11 11 9 9 9 9 9 9 
11 11 11 11 11 11 11 11 11 11 11 11 14 14 14 11 11 11 10 10 10 7 7 7 

11 11 11 9 9 9 11 11 11 11 11 11 11 11 11 10 10 10 11 11 11 7 7 7 
10 10 10 11 11 11 7 7 7 11 11 11 11 11 11 9 9 9 9 9 9 9 9 9 
11 11 11 10 10 10 10 10 10 11 11 11 10 10 10 10 10 10 9 9 9 13 13 13 
11 11 11 11 11 11 11 11 11 11 11 11 11 11 11 10 10 10 13 13 13 11 11 11 
9 9 9 10 10 10 11 11 11 7 7 7 10 10 10 11 11 11 11 11 11 10 10 10 
9 9 9 10 10 10 14 14 14 11 11 11 10 10 10 11 11 11 10 10 10 11 11 11 
11 11 11 11 11 11 11 11 11 11 11 11 11 11 11 13 13 13 11 11 11 11 11 11 
11 11 11 13 13 13 9 9 9 10 10 10 11 11 11 10 10 10 9 9 9 10 10 10 
9 9 9 10 10 10 13 13 13 11 11 11 11 11 11 13 13 13 11 11 11 11 11 11 
11 11 11 11 11 11 11 11 11 11 11 11 11 11 11 11 11 11 10 10 10 9 9 9 
10 10 10 10 10 10 11 11 11 11 11 11 11 11 11 11 11 11 11 11 11 9 9 9 
11 11 11 10 10 10 11 11 11 11 11 11 9 9 9 11 11 11 11 11 11 9 9 9 
11 11 11 9 9 9 11 11 11 7 7 7 9 9 9 9 9 9 10 10 10 7 7 7 
11 11 11 11 11 11 11 11 11 11 11 11 7 7 7 11 11 11 10 10 10 9 9 9 
10 10 10 10 10 10 10 10 10 11 11 11 11 11 11 11 11 11 11 11 11 10 10 10 
10 10 10 10 10 10 11 11 11 11 11 11 10 10 10 11 11 11 10 10 10 11 11 11 
13 13 13 9 9 9 11 11 11 10 10 10 10 10 10 11 11 11 9 9 9 10 10 10 
10 10 10 11 11 11 10 10 10 13 13 13 11 11 11 10 10 10 11 11 11 11 11 11 
11 11 11 11 11 11 9 9 9 11 11 11 11 11 11 10 10 10 10 10 10 9 9 9 
9 9 9 9 9 9 11 11 11 11 11 11 11 11 11 11 11 11 10 10 10 11 11 11 
11 11 11 11 11 11 11 11 11 11 11 11 11 11 11 11 11 11 11 11 11 11 11 11 
11 11 11 11 11 11 11 11 11 11 11 11 9 9 9 11 11 11 10 10 10 11 11 11 
11 11 11 7 7 7 7 7 7 14 14 14 10 10 10 11 11 11 9 9 9 10 10 10 
10 10 10 10 10 10 11 11 11 10 10 10 10 10 10 10 10 10 10 10 10 11 11 11 
9 9 9 11 11 11 11 11 11 10 10 10 11 11 11 10 10 10 9 9 9 11 11 11 
11 11 11 10 10 10 11 11 11 10 10 10 11 11 11 11 11 11 13 13 13 9 9 9 
10 10 10 10 10 10 10 10 10 11 11 11 9 9 9 9 9 9 13 13 13 11 11 11 
10 10 10 13 13 13 11 11 11 13 13 13 10 10 10 10 10 10 11 11 11 10 10 10 
11 11 11 10 10 10 14 14 14 13 13 13 10 10 10 11 11 11 10 10 10 13 13 13 
11 11 11 9 9 9 9 9 9 10 10 10 11 11 11 11 11 11 11 11 11 10 10 10 

11 11 11 11 11 11 10 10 10 11 11 11 11 11 11 11 11 11 11 11 11 13 13 13 
9 9 9 11 11 11 11 11 11 9 9 9 7 7 7 10 10 10 7 7 7 10 10 10 
11 11 11 11 11 11 10 10 10 10 10 10 11 11 11 11 11 11 11 11 11 11 11 11 
11 11 11 11 11 11 11 11 11 11 11 11 11 11 11 10 10 10 11 11 11 9 9 9 
11 11 11 9 9 9 9 9 9 11 11 11 10 10 10 11 11 11 9 9 9 9 9 9 
11 11 11 9 9 9 11 11 11 10 10 10 11 11 11 10 10 10 11 11 11 11 11 11 
11 11 11 11 11 11 11 11 11 10 10 10 11 11 11 10 10 10 11 11 11 11 11 11 
11 11 11 11 11 11 10 10 10 13 13 13 9 9 9 9 9 9 14 14 14 10 10 10 
11 11 11 11 11 11 11 11 11 11 11 11 11 11 11 13 13 13 10 10 10 11 11 11 
14 14 14 13 13 13 10 10 10 11 11 11 10 10 10 7 7 7 10 10 10 9 9 9 
11 11 11 10 10 10 11 11 11 10 10 10 10 10 10 11 11 11 11 11 11 10 10 10 
11 11 11 11 11 11 11 11 11 11 11 11 7 7 7 13 13 13 11 11 11 11 11 11 
10 10 10 9 9 9 11 11 11 7 7 7 10 10 10 10 10 10 11 11 11 10 10 10 
10 10 10 10 10 10 9 9 9 9 9 9 11 11 11 10 10 10 11 11 11 10 10 10 
11 11 11 11 11 11 10 10 10 13 13 13 11 11 11 11 11 11 11 11 11 10 10 10 
11 11 11 11 11 11 13 13 13 11 11 11 9 9 9 11 11 11 9 9 9 10 10 10 
10 10 10 13 13 13 10 10 10 13 13 13 11 11 11 10 10 10 9 9 9 11 11 11 
10 10 10 11 11 11 14 14 14 11 11 11 11 11 11 11 11 11 10 10 10 9 9 9 
11 11 11 9 9 9 11 11 11 11 11 11 10 10 10 11 11 11 10 10 10 11 11 11 
10 10 10 11 11 11 11 11 11 13 13 13 11 11 11 11 11 11 10 10 10 13 13 13 
11 11 11 11 11 11 11 11 11 9 9 9 13 13 13 11 11 11 11 11 11 11 11 11 
11 11 11 11 11 11 13 13 13 9 9 9 11 11 11 9 9 9 11 11 11 10 10 10 
13 13 13 10 10 10 11 11 11 11 11 11 10 10 10 13 13 13 11 11 11 7 7 7 
9 9 9 11 11 11 11 11 11 13 13 13 10 10 10 9 9 9 9 9 9 10 10 10 
10 10 10 11 11 11 11 11 11 11 11 11 10 10 10 11 11 11 10 10 10 11 11 11 
10 10 10 11 11 11 11 11 11 11 11 11 11 11 11 11 11 11 11 11 11 9 9 9 
9 9 9 9 9 9 9 9 9 9 9 9 11 11 11 11 11 11 11 11 11 10 10 10 
13 13 13 10 10 10 11 11 11 11 11 11 11 11 11 11 11 11 11 11 11 11 11 11 
9 9 9 11 11 11 11 11 11 13 13 13 11 11 11 10 10 10 13 13 13 11 11 11 
9 9 9 13 13 13 11 11 11 11 11 11 11 11 11 11 11 11 11 11 11 9 9 9 

13 13 13 11 11 11 9 9 9 13 13 13 7 7 7 11 11 11 11 11 11 11 11 11 
10 10 10 11 11 11 13 13 13 11 11 11 10 10 10 7 7 7 7 7 7 11 11 11 
9 9 9 11 11 11 9 9 9 11 11 11 10 10 10 11 11 11 11 11 11 11 11 11 
11 11 11 11 11 11 11 11 11 11 11 11 11 11 11 11 11 11 13 13 13 11 11 11 
11 11 11 11 11 11 11 11 11 11 11 11 9 9 9 10 10 10 13 13 13 11 11 11 
11 11 11 11 11 11 10 10 10 7 7 7 11 11 11 11 11 11 11 11 11 11 11 11 
11 11 11 11 11 11 11 11 11 9 9 9 11 11 11 11 11 11 11 11 11 11 11 11 
11 11 11 13 13 13 11 11 11 10 10 10 11 11 11 11 11 11 10 10 10 11 11 11 
13 13 13 10 10 10 11 11 11 10 10 10 11 11 11 10 10 10 11 11 11 10 10 10 
10 10 10 11 11 11 11 11 11 10 10 10 10 10 10 10 10 10 11 11 11 11 11 11 
9 9 9 10 10 10 10 10 10 13 13 13 10 10 10 13 13 13 11 11 11 10 10 10 
11 11 11 10 10 10 11 11 11 13 13 13 13 13 13 11 11 11 11 11 11 10 10 10 
13 13 13 11 11 11 11 11 11 9 9 9 11 11 11 13 13 13 13 13 13 9 9 9 
13 13 13 10 10 10 14 14 14 11 11 11 11 11 11 10 10 10 10 10 10 11 11 11 
11 11 11 11 11 11 11 11 11 10 10 10 10 10 10 9 9 9 9 9 9 7 7 7 
7 7 7 11 11 11 11 11 11 11 11 11 11 11 11 11 11 11 9 9 9 7 7 7 
11 11 11 9 9 9 11 11 11 14 14 14 11 11 11 9 9 9 10 10 10 11 11 11 
10 10 10 11 11 11 11 11 11 11 11 11 11 11 11 7 7 7 11 11 11 11 11 11 
11 11 11 10 10 10 10 10 10 11 11 11 10 10 10 7 7 7 10 10 10 11 11 11 
13 13 13 11 11 11 11 11 11 10 10 10 11 11 11 10 10 10 7 7 7 10 10 10 
13 13 13 10 10 10 11 11 11 10 10 10 13 13 13 11 11 11 10 10 10 10 10 10 
11 11 11 11 11 11 13 13 13 11 11 11 10 10 10 13 13 13 11 11 11 13 13 13 
11 11 11 10 10 10 11 11 11 11 11 11 11 11 11 11 11 11 10 10 10 9 9 9 
10 10 10 7 7 7 11 11 11 10 10 10 10 10 10 10 10 10 10 10 10 11 11 11 
10 10 10 11 11 11 11 11 11 11 11 11 11 11 11 14 14 14 14 14 14 10 10 10 
11 11 11 10 10 10 11 11 11 14 14 14 10 10 10 11 11 11 11 11 11 10 10 10 
11 11 11 11 11 11 11 11 11 13 13 13 9 9 9 11 11 11 11 11 11 10 10 10 
14 14 14 11 11 11 11 11 11 9 9 9 9 9 9 11 11 11 10 10 10 9 9 9 
11 11 11 9 9 9 9 9 9 10 10 10 10 10 10 11 11 11 11 11 11 10 10 10 
10 10 10 11 11 11 10 10 10 11 11 11 11 11 11 9 9 9 11 11 11 11 11 11 

10 10 10 10 10 10 10 10 10 9 9 9 11 11 11 11 11 11 10 10 10 10 10 10 
10 10 10 11 11 11 11 11 11 11 11 11 10 10 10 10 10 10 14 14 14 11 11 11 
11 11 11 10 10 10 10 10 10 11 11 11 11 11 11 13 13 13 11 11 11 11 11 11 
10 10 10 9 9 9 10 10 10 11 11 11 11 11 11 11 11 11 11 11 11 11 11 11 
11 11 11 13 13 13 10 10 10 11 11 11 11 11 11 13 13 13 11 11 11 11 11 11 
7 7 7 10 10 10 11 11 11 11 11 11 11 11 11 10 10 10 10 10 10 11 11 11 
11 11 11 10 10 10 10 10 10 10 10 10 11 11 11 10 10 10 10 10 10 11 11 11 
13 13 13 13 13 13 11 11 11 11 11 11 11 11 11 11 11 11 11 11 11 10 10 10 
10 10 10 10 10 10 10 10 10 10 10 10 9 9 9 10 10 10 11 11 11 11 11 11 
9 9 9 11 11 11 9 9 9 11 11 11 11 11 11 10 10 10 11 11 11 11 11 11 
13 13 13 11 11 11 11 11 11 13 13 13 11 11 11 13 13 13 11 11 11 11 11 11 
11 11 11 7 7 7 10 10 10 10 10 10 11 11 11 13 13 13 11 11 11 10 10 10 
9 9 9 9 9 9 11 11 11 11 11 11 11 11 11 11 11 11 9 9 9 10 10 10 
11 11 11 10 10 10 11 11 11 11 11 11 7 7 7 10 10 10 7 7 7 11 11 11 
13 13 13 10 10 10 9 9 9 10 10 10 10 10 10 7 7 7 7 7 7 10 10 10 
11 11 11 11 11 11 11 11 11 11 11 11 11 11 11 9 9 9 11 11 11 10 10 10 
13 13 13 14 14 14 13 13 13 11 11 11 7 7 7 11 11 11 11 11 11 11 11 11 
9 9 9 10 10 10 9 9 9 13 13 13 11 11 11 10 10 10 10 10 10 7 7 7 
10 10 10 7 7 7 11 11 11 10 10 10 10 10 10 11 11 11 11 11 11 11 11 11 
10 10 10 7 7 7 10 10 10 9 9 9 11 11 11 9 9 9 10 10 10 9 9 9 
10 10 10 10 10 10 9 9 9 10 10 10 11 11 11 11 11 11 13 13 13 9 9 9 
9 9 9 11 11 11 11 11 11 11 11 11 10 10 10 10 10 10 9 9 9 11 11 11 
9 9 9 10 10 10 10 10 10 10 10 10 11 11 11 11 11 11 10 10 10 13 13 13 
11 11 11 13 13 13 13 13 13 10 10 10 11 11 11 11 11 11 10 10 10 11 11 11 
10 10 10 11 11 11 11 11 11 11 11 11 11 11 11 11 11 11 13 13 13 10 10 10 
11 11 11 10 10 10 11 11 11 11 11 11 11 11 11 11 11 11 10 10 10 11 11 11 
13 13 13 11 11 11 10 10 10 11 11 11 9 9 9 11 11 11 11 11 11 11 11 11 
11 11 11 11 11 11 10 10 10 10 10 10 9 9 9 11 11 11 10 10 10 9 9 9 
10 10 10 11 11 11 11 11 11 11 11 11 11 11 11 11 11 11 11 11 11 13 13 13 
10 10 10 10 10 10 9 9 9 11 11 11 11 11 11 13 13 13 9 9 9 11 11 11 

11 11 11 11 11 11 11 11 11 10 10 10 13 13 13 10 10 10 13 13 13 10 10 10 
11 11 11 11 11 11 11 11 11 10 10 10 11 11 11 10 10 10 13 13 13 11 11 11 
11 11 11 7 7 7 11 11 11 11 11 11 14 14 14 11 11 11 11 11 11 11 11 11 
11 11 11 7 7 7 11 11 11 9 9 9 10 10 10 13 13 13 10 10 10 11 11 11 
11 11 11 13 13 13 11 11 11 11 11 11 11 11 11 9 9 9 11 11 11 10 10 10 
10 10 10 9 9 9 10 10 10 10 10 10 11 11 11 11 11 11 10 10 10 11 11 11 
14 14 14 11 11 11 11 11 11 11 11 11 10 10 10 11 11 11 11 11 11 11 11 11 
10 10 10 11 11 11 9 9 9 11 11 11 11 11 11 11 11 11 11 11 11 9 9 9 
11 11 11 10 10 10 9 9 9 11 11 11 11 11 11 11 11 11 11 11 11 10 10 10 
13 13 13 7 7 7 9 9 9 9 9 9 11 11 11 13 13 13 10 10 10 11 11 11 
10 10 10 11 11 11 11 11 11 10 10 10 11 11 11 11 11 11 11 11 11 10 10 10 
10 10 10 10 10 10 9 9 9 9 9 9 10 10 10 10 10 10 10 10 10 10 10 10 
9 9 9 11 11 11 10 10 10 11 11 11 11 11 11 11 11 11 11 11 11 11 11 11 
11 11 11 10 10 10 14 14 14 11 11 11 11 11 11 10 10 10 7 7 7 11 11 11 
9 9 9 11 11 11 9 9 9 9 9 9 11 11 11 11 11 11 11 11 11 9 9 9 
11 11 11 11 11 11 11 11 11 11 11 11 11 11 11 10 10 10 13 13 13 10 10 10 
13 13 13 10 10 10 11 11 11 7 7 7 11 11 11 9 9 9 11 11 11 10 10 10 
9 9 9 9 9 9 10 10 10 10 10 10 11 11 11 11 11 11 11 11 11 13 13 13 
10 10 10 10 10 10 7 7 7 9 9 9 11 11 11 11 11 11 11 11 11 11 11 11 
7 7 7 9 9 9 11 11 11 9 9 9 9 9 9 11 11 11 10 10 10 11 11 11 
11 11 11 11 11 11 13 13 13 11 11 11 10 10 10 10 10 10 10 10 10 13 13 13 
11 11 11 11 11 11 10 10 10 9 9 9 11 11 11 11 11 11 11 11 11 11 11 11 
11 11 11 11 11 11 11 11 11 7 7 7 11 11 11 11 11 11 11 11 11 11 11 11 
11 11 11 10 10 10 10 10 10 7 7 7 11 11 11 11 11 11 10 10 10 10 10 10 
10 10 10 11 11 11 11 11 11 11 11 11 7 7 7 11 11 11 11 11 11 11 11 11 
11 11 11 11 11 11 11 11 11 10 10 10 10 10 10 11 11 11 10 10 10 13 13 13 
11 11 11 11 11 11 13 13 13 11 11 11 11 11 11 10 10 10 11 11 11 10 10 10 
13 13 13 10 10 10 10 10 10 13 13 13 14 14 14 9 9 9 9 9 9 11 11 11 
9 9 9 10 10 10 10 10 10 11 11 11 11 11 11 13 13 13 13 13 13 11 11 11 
7 7 7 11 11 11 9 9 9 10 10 10 11 11 11 10 10 10 11 11 11 10 10 10 

11 11 11 13 13 13 11 11 11 11 11 11 11 11 11 9 9 9 10 10 10 9 9 9 
10 10 10 11 11 11 9 9 9 11 11 11 11 11 11 11 11 11 13 13 13 11 11 11 
13 13 13 9 9 9 11 11 11 11 11 11 11 11 11 11 11 11 11 11 11 13 13 13 
10 10 10 11 11 11 13 13 13 13 13 13 10 10 10 11 11 11 9 9 9 9 9 9 
10 10 10 11 11 11 11 11 11 10 10 10 11 11 11 11 11 11 11 11 11 10 10 10 
10 10 10 10 10 10 11 11 11 11 11 11 11 11 11 10 10 10 11 11 11 10 10 10 
11 11 11 9 9 9 7 7 7 11 11 11 9 9 9 11 11 11 10 10 10 9 9 9 
9 9 9 13 13 13 10 10 10 9 9 9 9 9 9 10 10 10 10 10 10 11 11 11 
10 10 10 9 9 9 11 11 11 11 11 11 9 9 9 13 13 13 10 10 10 11 11 11 
11 11 11 10 10 10 11 11 11 11 11 11 11 11 11 11 11 11 9 9 9 11 11 11 
9 9 9 11 11 11 11 11 11 11 11 11 11 11 11 10 10 10 10 10 10 10 10 10 
11 11 11 11 11 11 11 11 11 11 11 11 11 11 11 11 11 11 9 9 9 11 11 11 
10 10 10 7 7 7 13 13 13 11 11 11 11 11 11 10 10 10 11 11 11 11 11 11 
10 10 10 11 11 11 11 11 11 10 10 10 10 10 10 11 11 11 10 10 10 11 11 11 
11 11 11 13 13 13 11 11 11 10 10 10 10 10 10 10 10 10 11 11 11 11 11 11 
11 11 11 10 10 10 11 11 11 11 11 11 11 11 11 10 10 10 10 10 10 10 10 10 
13 13 13 10 10 10 13 13 13 11 11 11 9 9 9 11 11 11 10 10 10 11 11 11 
10 10 10 10 10 10 9 9 9 11 11 11 11 11 11 13 13 13 7 7 7 10 10 10 
11 11 11 10 10 10 11 11 11 9 9 9 9 9 9 14 14 14 10 10 10 11 11 11 
10 10 10 10 10 10 10 10 10 13 13 13 10 10 10 11 11 11 11 11 11 9 9 9 
9 9 9 11 11 11 11 11 11 11 11 11 11 11 11 10 10 10 11 11 11 9 9 9 
11 11 11 10 10 10 11 11 11 11 11 11 11 11 11 11 11 11 9 9 9 11 11 11 
13 13 13 11 11 11 11 11 11 11 11 11 10 10 10 11 11 11 11 11 11 11 11 11 
11 11 11 10 10 10 9 9 9 11 11 11 10 10 10 13 13 13 10 10 10 11 11 11 
13 13 13 11 11 11 11 11 11 9 9 9 11 11 11 11 11 11 11 11 11 11 11 11 
10 10 10 10 10 10 11 11 11 9 9 9 10 10 10 11 11 11 9 9 9 11 11 11 
11 11 11 11 11 11 10 10 10 9 9 9 11 11 11 11 11 11 11 11 11 11 11 11 
10 10 10 11 11 11 10 10 10 11 11 11 11 11 11 10 10 10 9 9 9 11 11 11 
10 10 10 10 10 10 11 11 11 11 11 11 11 11 11 10 10 10 11 11 11 11 11 11 
7 7 7 11 11 11 11 11 11 9 9 9 11 11 11 9 9 9 13 13 13 11 11 11 

9 9 9 11 11 11 11 11 11 11 11 11 11 11 11 11 11 11 10 10 10 11 11 11 
10 10 10 11 11 11 11 11 11 9 9 9 11 11 11 11 11 11 10 10 10 10 10 10 
11 11 11 11 11 11 10 10 10 10 10 10 11 11 11 11 11 11 10 10 10 7 7 7 
9 9 9 9 9 9 11 11 11 9 9 9 10 10 10 10 10 10 11 11 11 9 9 9 
11 11 11 11 11 11 11 11 11 11 11 11 11 11 11 11 11 11 11 11 11 11 11 11 
11 11 11 10 10 10 10 10 10 10 10 10 11 11 11 11 11 11 10 10 10 11 11 11 
11 11 11 10 10 10 11 11 11 11 11 11 11 11 11 11 11 11 11 11 11 11 11 11 
9 9 9 11 11 11 7 7 7 11 11 11 9 9 9 11 11 11 11 11 11 11 11 11 
11 11 11 10 10 10 11 11 11 10 10 10 9 9 9 11 11 11 11 11 11 13 13 13 
11 11 11 11 11 11 11 11 11 11 11 11 14 14 14 10 10 10 9 9 9 11 11 11 
7 7 7 11 11 11 11 11 11 11 11 11 9 9 9 13 13 13 10 10 10 10 10 10 
10 10 10 11 11 11 11 11 11 13 13 13 11 11 11 9 9 9 11 11 11 11 11 11 
11 11 11 11 11 11 11 11 11 10 10 10 13 13 13 10 10 10 13 13 13 9 9 9 
11 11 11 10 10 10 9 9 9 11 11 11 9 9 9 11 11 11 10 10 10 11 11 11 
11 11 11 11 11 11 10 10 10 10 10 10 11 11 11 10 10 10 11 11 11 11 11 11 
11 11 11 9 9 9 11 11 11 11 11 11 7 7 7 10 10 10 10 10 10 11 11 11 
11 11 11 10 10 10 11 11 11 13 13 13 9 9 9 9 9 9 9 9 9 10 10 10 
13 13 13 11 11 11 11 11 11 7 7 7 9 9 9 11 11 11 10 10 10 9 9 9 
11 11 11 11 11 11 13 10 11 10 10 10 11 11 13 13 10 11 13 10 11 18 10 13 
18 10 13 13 10 11 15 15 15 13 10 11 13 10 11 11 11 11 14 14 14 11 11 11 
11 11 11 10 10 10 11 11 11 11 11 11 9 9 9 7 7 7 11 11 11 11 11 11 
13 13 13 11 11 11 10 10 10 7 7 7 9 9 9 10 10 10 10 10 10 13 13 13 
11 11 11 11 11 11 13 13 13 11 11 11 10 10 10 11 11 11 10 10 10 11 11 11 
15 15 15 9 9 9 10 10 10 11 11 11 11 11 11 10 10 10 11 11 11 9 9 9 
10 10 10 9 9 9 7 7 7 11 11 11 11 11 11 11 11 11 11 11 11 11 11 11 
10 10 10 10 10 10 11 11 11 11 11 11 13 13 13 11 11 11 10 10 10 9 9 9 
10 10 10 11 11 11 11 11 11 11 11 11 10 10 10 11 11 11 11 11 11 10 10 10 
13 13 13 11 11 11 11 11 11 13 13 13 10 10 10 10 10 10 11 11 11 9 9 9 
13 13 13 11 11 11 11 11 11 11 11 11 11 11 11 9 9 9 10 10 10 11 11 11 
11 11 11 13 13 13 7 7 7 10 10 10 10 10 10 10 10 10 11 11 11 11 11 11 

11 11 11 7 7 7 10 10 10 10 10 10 11 11 11 7 7 7 10 10 10 11 11 11 
10 10 10 10 10 10 9 9 9 11 11 11 11 11 11 9 9 9 11 11 11 7 7 7 
11 11 11 9 9 9 13 13 13 11 11 11 13 13 13 11 11 11 13 13 13 11 11 11 
9 9 9 11 11 11 11 11 11 11 11 11 11 11 11 10 10 10 13 13 13 10 10 10 
11 11 11 11 11 11 11 11 11 10 10 10 11 11 11 11 11 11 11 11 11 9 9 9 
11 11 11 11 11 11 11 11 11 11 11 11 11 11 11 10 10 10 10 10 10 9 9 9 
11 11 11 11 11 11 11 11 11 11 11 11 10 10 10 10 10 10 7 7 7 10 10 10 
11 11 11 11 11 11 7 7 7 11 11 11 11 11 11 11 11 11 10 10 10 11 11 11 
11 11 11 11 11 11 10 10 10 11 11 11 9 9 9 11 11 11 7 7 7 11 11 11 
11 11 11 10 10 10 9 9 9 11 11 11 11 11 11 9 9 9 11 11 11 10 10 10 
11 11 11 11 11 11 11 11 11 10 10 10 11 11 11 10 10 10 9 9 9 11 11 11 
10 10 10 11 11 11 11 11 11 10 10 10 10 10 10 11 11 11 11 11 11 11 11 11 
11 11 11 13 13 13 9 9 9 10 10 10 10 10 10 11 11 11 14 14 14 11 11 11 
10 10 10 13 13 13 11 11 11 11 11 11 11 11 11 10 10 10 11 11 11 11 11 11 
11 11 11 10 10 10 11 11 11 10 10 10 9 9 9 11 11 11 11 11 11 10 10 10 
10 10 10 11 11 11 11 11 11 11 11 11 11 11 11 9 9 9 11 11 11 10 10 10 
10 10 10 11 11 11 11 11 11 9 9 9 10 10 10 11 11 11 11 11 11 10 10 10 
11 11 11 10 10 10 10 10 10 11 11 11 10 10 10 9 9 9 11 11 11 13 10 11 
13 10 11 11 11 13 11 9 10 11 9 10 18 10 13 22 10 14 25 11 17 34 14 15 
41 13 23 41 13 23 38 13 15 31 12 13 22 10 14 18 10 13 11 9 10 11 9 10 
11 11 11 10 10 10 13 10 11 11 9 10 11 11 11 11 11 11 10 10 10 10 10 10 
10 10 10 11 11 11 9 9 9 11 11 11 10 10 10 10 10 10 10 10 10 13 13 13 
11 11 11 10 10 10 11 11 11 11 11 11 10 10 10 11 11 11 11 11 11 10 10 10 
13 13 13 13 13 13 11 11 11 11 11 11 11 11 11 11 11 11 9 9 9 10 10 10 
11 11 11 9 9 9 10 10 10 10 10 10 9 9 9 10 10 10 11 11 11 11 11 11 
10 10 10 11 11 11 10 10 10 9 9 9 9 9 9 10 10 10 11 11 11 11 11 11 
11 11 11 13 13 13 10 10 10 10 10 10 11 11 11 11 11 11 11 11 11 10 10 10 
11 11 11 11 11 11 10 10 10 11 11 11 11 11 11 11 11 11 10 10 10 10 10 10 
11 11 11 11 11 11 11 11 11 11 11 11 9 9 9 11 11 11 11 11 11 10 10 10 
11 11 11 11 11 11 11 11 11 10 10 10 10 10 10 7 7 7 10 10 10 10 10 10 

7 7 7 9 9 9 11 11 11 10 10 10 11 11 11 11 11 11 11 11 11 10 10 10 
11 11 11 11 11 11 11 11 11 10 10 10 14 14 14 11 11 11 10 10 10 10 10 10 
11 11 11 13 13 13 10 10 10 11 11 11 11 11 11 11 11 11 11 11 11 11 11 11 
9 9 9 11 11 11 11 11 11 11 11 11 11 11 11 9 9 9 9 9 9 11 11 11 
13 13 13 11 11 11 10 10 10 9 9 9 13 13 13 11 11 11 11 11 11 10 10 10 
15 15 15 11 11 11 11 11 11 10 10 10 10 10 10 11 11 11 13 13 13 10 10 10 
11 11 11 7 7 7 11 11 11 11 11 11 10 10 10 10 10 10 10 10 10 11 11 11 
10 10 10 10 10 10 10 10 10 11 11 11 11 11 11 10 10 10 10 10 10 10 10 10 
11 11 11 7 7 7 11 11 11 9 9 9 11 11 11 10 10 10 11 11 11 10 10 10 
11 11 11 11 11 11 11 11 11 10 10 10 11 11 11 11 11 11 10 10 10 7 7 7 
9 9 9 11 11 11 11 11 11 11 11 11 11 11 11 11 11 11 11 11 11 9 9 9 
10 10 10 11 11 11 10 10 10 11 11 11 9 9 9 9 9 9 11 11 11 10 10 10 
11 11 11 10 10 10 9 9 9 10 10 10 11 11 11 11 11 11 10 10 10 11 11 11 
10 10 10 11 11 11 11 11 11 10 10 10 10 10 10 10 10 10 11 11 11 11 11 11 
11 11 11 11 11 11 10 10 10 11 11 11 7 7 7 11 11 11 11 11 11 10 10 10 
10 10 10 10 10 10 11 11 11 11 11 11 10 10 10 9 9 9 10 10 10 11 11 11 
10 10 10 7 7 7 10 10 10 7 7 7 11 11 11 11 11 11 9 9 9 11 11 11 
11 11 11 11 11 11 10 10 10 13 13 13 9 9 9 10 10 10 11 11 11 10 10 10 
13 13 13 18 10 13 22 10 14 34 14 15 53 14 27 64 16 32 92 19 37 107 21 41 
125 21 41 125 21 41 107 21 41 92 19 37 75 18 34 41 13 23 25 11 17 18 10 13 
11 11 11 9 9 9 11 11 11 10 10 10 11 11 11 10 10 10 10 10 10 10 10 10 
7 7 7 9 9 9 10 10 10 11 11 11 11 11 11 14 14 14 11 11 11 11 11 11 
10 10 10 11 11 11 11 11 11 11 11 11 11 11 11 11 11 11 11 11 11 11 11 11 
11 11 11 13 13 13 11 11 11 13 13 13 9 9 9 9 9 9 11 11 11 10 10 10 
11 11 11 11 11 11 13 13 13 10 10 10 11 11 11 11 11 11 13 13 13 7 7 7 
11 11 11 11 11 11 11 11 11 11 11 11 11 11 11 11 11 11 11 11 11 11 11 11 
11 11 11 9 9 9 11 11 11 11 11 11 9 9 9 11 11 11 9 9 9 11 11 11 
11 11 11 11 11 11 11 11 11 11 11 11 9 9 9 9 9 9 7 7 7 9 9 9 
13 13 13 11 11 11 10 10 10 11 11 11 11 11 11 11 11 11 9 9 9 11 11 11 
11 11 11 10 10 10 10 10 10 11 11 11 10 10 10 10 10 10 9 9 9 11 11 11 

13 13 13 11 11 11 11 11 11 14 14 14 11 11 11 10 10 10 11 11 11 11 11 11 
11 11 11 11 11 11 11 11 11 10 10 10 11 11 11 11 11 11 11 11 11 11 11 11 
11 11 11 11 11 11 10 10 10 14 14 14 11 11 11 11 11 11 11 11 11 11 11 11 
10 10 10 13 13 13 10 10 10 11 11 11 11 11 11 11 11 11 11 11 11 11 11 11 
9 9 9 9 9 9 9 9 9 10 10 10 11 11 11 10 10 10 10 10 10 9 9 9 
11 11 11 11 11 11 10 10 10 11 11 11 10 10 10 9 9 9 11 11 11 11 11 11 
9 9 9 11 11 11 11 11 11 11 11 11 11 11 11 9 9 9 10 10 10 7 7 7 
11 11 11 10 10 10 10 10 10 7 7 7 13 13 13 10 10 10 13 13 13 11 11 11 
10 10 10 11 11 11 11 11 11 9 9 9 9 9 9 11 11 11 10 10 10 11 11 11 
9 9 9 11 11 11 11 11 11 10 10 10 10 10 10 11 11 11 7 7 7 10 10 10 
10 10 10 11 11 11 10 10 10 11 11 11 10 10 10 11 11 11 11 11 11 9 9 9 
10 10 10 11 11 11 11 11 11 11 11 11 11 11 11 11 11 11 11 11 11 14 14 14 
11 11 11 10 10 10 11 11 11 11 11 11 11 11 11 9 9 9 9 9 9 10 10 10 
11 11 11 11 11 11 10 10 10 11 11 11 7 7 7 11 11 11 10 10 10 11 11 11 
11 11 11 10 10 10 11 11 11 11 11 11 11 11 11 11 11 11 10 10 10 11 11 11 
11 11 11 11 11 11 11 11 11 11 11 11 11 11 11 10 10 10 10 10 10 10 10 10 
11 11 11 10 10 10 11 11 11 11 11 11 11 11 11 10 10 10 11 11 11 11 11 11 
11 11 11 10 10 10 9 9 9 11 11 11 11 11 11 13 10 11 13 13 13 18 10 13 
22 10 14 41 13 23 64 16 32 92 19 37 143 21 40 181 22 29 193 22 30 224 12 60 
224 12 60 219 14 86 219 14 86 202 20 87 164 29 78 115 31 63 64 16 32 31 12 13 
11 9 10 11 11 11 11 11 11 11 11 11 10 10 10 13 13 13 14 14 14 10 10 10 
9 9 9 11 11 11 11 11 11 11 11 11 10 10 10 10 10 10 11 11 11 11 11 11 
11 11 11 7 7 7 11 11 11 9 9 9 9 9 9 11 11 11 10 10 10 11 11 11 
13 13 13 10 10 10 11 11 11 11 11 11 11 11 11 9 9 9 13 13 13 11 11 11 
11 11 11 7 7 7 10 10 10 11 11 11 7 7 7 9 9 9 7 7 7 7 7 7 
10 10 10 10 10 10 10 10 10 11 11 11 10 10 10 9 9 9 10 10 10 10 10 10 
10 10 10 10 10 10 7 7 7 10 10 10 11 11 11 10 10 10 10 10 10 10 10 10 
13 13 13 11 11 11 10 10 10 11 11 11 7 7 7 11 11 11 11 11 11 10 10 10 
11 11 11 11 11 11 11 11 11 10 10 10 11 11 11 10 10 10 10 10 10 7 7 7 
11 11 11 11 11 11 10 10 10 9 9 9 11 11 11 11 11 11 13 13 13 11 11 11 

11 11 11 11 11 11 11 11 11 10 10 10 13 13 13 11 11 11 13 13 13 10 10 10 
11 11 11 9 9 9 11 11 11 11 11 11 10 10 10 9 9 9 11 11 11 10 10 10 
11 11 11 9 9 9 11 11 11 11 11 11 11 11 11 13 13 13 11 11 11 9 9 9 
9 9 9 11 11 11 11 11 11 10 10 10 11 11 11 10 10 10 10 10 10 10 10 10 
10 10 10 7 7 7 10 10 10 10 10 10 10 10 10 9 9 9 9 9 9 11 11 11 
11 11 11 11 11 11 10 10 10 10 10 10 11 11 11 11 11 11 11 11 11 10 10 10 
10 10 10 11 11 11 11 11 11 11 11 11 11 11 11 13 13 13 11 11 11 11 11 11 
11 11 11 13 13 13 10 10 10 11 11 11 10 10 10 10 10 10 11 11 11 11 11 11 
9 9 9 10 10 10 11 11 11 11 11 11 11 11 11 10 10 10 11 11 11 11 11 11 
10 10 10 9 9 9 11 11 11 10 10 10 11 11 11 11 11 11 11 11 11 7 7 7 
9 9 9 10 10 10 11 11 11 11 11 11 11 11 11 11 11 11 11 11 11 11 11 11 
10 10 10 11 11 11 11 11 11 11 11 11 9 9 9 11 11 11 9 9 9 11 11 11 
13 13 13 9 9 9 11 11 11 10 10 10 7 7 7 9 9 9 7 7 7 11 11 11 
11 11 11 11 11 11 10 10 10 10 10 10 10 10 10 11 11 11 10 10 10 10 10 10 
11 11 11 13 13 13 10 10 10 9 9 9 9 9 9 11 11 11 11 11 11 10 10 10 
10 10 10 11 11 11 11 11 11 11 11 11 11 11 11 10 10 10 11 11 11 10 10 10 
10 10 10 9 9 9 11 11 11 9 9 9 13 13 13 9 9 9 11 11 11 10 10 10 
11 11 13 10 10 10 9 9 9 11 11 11 11 11 11 13 10 11 18 10 13 38 13 15 
64 16 32 107 21 41 143 21 40 193 22 30 224 12 60 247 4 93 250 4 110 251 3 134 
251 3 134 251 3 134 252 2 141 252 2 141 229 31 132 207 62 126 131 32 68 64 16 32 
22 10 14 13 10 11 11 9 10 14 14 14 11 11 11 10 10 10 11 11 11 11 11 11 
11 11 11 11 11 11 13 13 13 11 11 11 11 11 11 10 10 10 9 9 9 11 11 11 
11 11 11 11 11 11 11 11 11 10 10 10 9 9 9 10 10 10 10 10 10 11 11 11 
11 11 11 11 11 11 11 11 11 11 11 11 11 11 11 11 11 11 10 10 10 11 11 11 
9 9 9 11 11 11 10 10 10 13 13 13 9 9 9 11 11 11 11 11 11 11 11 11 
9 9 9 11 11 11 10 10 10 11 11 11 11 11 11 11 11 11 11 11 11 9 9 9 
11 11 11 11 11 11 11 11 11 10 10 10 9 9 9 11 11 11 11 11 11 11 11 11 
11 11 11 11 11 11 11 11 11 11 11 11 10 10 10 11 11 11 10 10 10 11 11 11 
9 9 9 11 11 11 11 11 11 9 9 9 11 11 11 10 10 10 11 11 11 11 11 11 
11 11 11 11 11 11 11 11 11 10 10 10 11 11 11 11 11 11 7 7 7 9 9 9 

11 11 11 11 11 11 11 11 11 11 11 11 9 9 9 11 11 11 11 11 11 11 11 11 
9 9 9 11 11 11 9 9 9 11 11 11 10 10 10 11 11 11 11 11 11 11 11 11 
11 11 11 10 10 10 11 11 11 10 10 10 10 10 10 13 13 13 10 10 10 10 10 10 
9 9 9 11 11 11 13 13 13 11 11 11 10 10 10 11 11 11 11 11 11 11 11 11 
11 11 11 10 10 10 11 11 11 11 11 11 9 9 9 11 11 11 11 11 11 11 11 11 
10 10 10 11 11 11 11 11 11 9 9 9 11 11 11 11 11 11 11 11 11 11 11 11 
11 11 11 14 14 14 11 11 11 10 10 10 14 14 14 11 11 11 14 14 14 11 11 11 
11 11 11 13 13 13 7 7 7 11 11 11 9 9 9 11 11 11 14 14 14 9 9 9 
10 10 10 10 10 10 13 13 13 11 11 11 9 9 9 11 11 11 11 11 11 10 10 10 
13 13 13 11 11 11 10 10 10 11 11 11 9 9 9 9 9 9 11 11 11 11 11 11 
10 10 10 13 13 13 11 11 11 10 10 10 10 10 10 11 9 10 9 9 9 11 11 11 
11 11 11 10 10 10 10 13 10 11 11 11 10 10 10 9 9 9 10 10 10 9 9 9 
9 9 9 10 10 10 11 11 11 11 11 11 10 10 10 10 10 10 10 10 10 13 13 13 
9 9 9 10 10 10 9 9 9 10 10 10 11 11 11 13 13 13 9 9 9 9 9 9 
11 11 11 11 11 11 10 10 10 11 11 11 10 10 10 10 10 10 13 13 13 11 11 11 
13 13 13 9 9 9 11 11 11 10 10 10 11 11 11 11 11 11 10 10 10 11 11 11 
11 11 11 9 9 9 7 7 7 11 11 11 9 9 9 9 9 9 10 10 10 11 11 11 
11 11 13 10 10 10 11 9 10 10 10 10 18 10 13 31 12 13 53 14 27 92 19 37 
143 21 40 208 10 32 243 3 57 250 4 110 251 3 134 252 2 141 252 2 141 251 3 134 
250 4 124 238 11 117 238 11 117 250 4 110 250 4 124 244 10 135 207 62 126 115 31 63 
41 13 23 15 15 15 13 13 13 11 11 11 10 10 10 11 11 11 11 11 11 13 13 13 
11 11 11 9 9 9 11 11 11 11 11 11 11 11 11 11 11 11 11 11 11 10 10 10 
11 11 11 14 14 14 13 13 13 13 13 13 11 11 11 11 11 11 11 11 11 11 11 11 
10 10 10 11 11 11 11 11 11 9 9 9 10 10 10 9 9 9 11 11 11 10 10 10 
10 10 10 9 9 9 11 11 11 11 11 11 13 13 13 7 7 7 11 11 11 11 11 11 
10 10 10 13 13 13 11 11 11 11 11 11 13 13 13 11 11 11 9 9 9 11 11 11 
9 9 9 10 10 10 14 14 14 11 11 11 10 10 10 13 13 13 11 11 11 9 9 9 
13 13 13 10 10 10 11 11 11 13 13 13 10 10 10 11 11 11 9 9 9 10 10 10 
11 11 11 11 11 11 10 10 10 11 11 11 11 11 11 9 9 9 7 7 7 11 11 11 
11 11 11 11 11 11 7 7 7 9 9 9 7 7 7 9 9 9 11 11 11 11 11 11 

10 10 10 11 11 11 9 9 9 11 11 11 10 10 10 10 10 10 10 10 10 10 10 10 
10 10 10 11 11 11 11 11 11 10 10 10 13 13 13 11 11 11 11 11 11 11 11 11 
11 11 11 10 10 10 11 11 11 11 11 11 11 11 11 9 9 9 11 11 11 9 9 9 
11 11 11 11 11 11 11 11 11 9 9 9 10 10 10 11 11 11 11 11 11 11 11 11 
10 10 10 10 10 10 7 7 7 11 11 11 10 10 10 11 11 11 11 11 11 11 11 11 
7 7 7 10 10 10 10 10 10 10 10 10 11 11 11 14 14 14 10 10 10 11 11 11 
9 9 9 10 10 10 11 11 11 11 11 11 11 11 11 11 11 11 11 11 11 7 7 7 
9 9 9 11 11 11 11 11 11 11 11 11 11 11 11 11 11 11 13 13 13 11 11 11 
9 9 9 10 10 10 13 13 13 11 11 11 9 9 9 9 9 9 11 11 11 11 11 11 
11 11 11 11 11 11 7 7 7 11 11 11 11 11 11 10 10 10 11 11 11 13 13 13 
11 11 11 11 11 11 13 13 13 11 11 11 11 11 11 11 11 11 13 13 13 10 10 10 
11 11 11 11 11 11 11 11 11 11 11 11 11 11 11 11 11 11 10 10 10 10 10 10 
11 11 11 10 10 10 11 11 11 11 11 11 10 10 10 7 7 7 11 11 11 10 10 10 
9 9 9 7 7 7 9 9 9 10 10 10 9 9 9 11 11 11 11 11 11 10 10 10 
10 10 10 13 13 13 11 11 11 11 11 11 11 11 11 10 10 10 13 13 13 10 10 10 
11 11 11 11 11 11 11 11 11 11 11 11 10 10 10 10 10 10 10 10 10 10 10 10 
14 14 14 13 13 13 9 9 9 11 11 11 11 11 11 10 10 10 11 11 11 11 11 11 
13 10 11 10 10 10 10 10 10 22 10 14 41 13 23 75 18 34 125 21 41 193 22 30 
224 12 60 250 4 110 251 3 134 252 2 141 252 2 141 250 4 124 230 13 105 202 20 87 
183 18 75 147 26 71 147 26 71 183 18 75 243 3 57 250 4 124 229 31 132 158 50 100 
53 14 27 18 10 13 11 11 11 11 11 11 11 11 11 13 13 13 11 11 11 10 10 10 
11 11 11 11 11 11 9 9 9 11 11 11 11 11 11 9 9 9 11 11 11 10 10 10 
11 11 11 10 10 10 9 9 9 10 10 10 11 11 11 10 10 10 11 11 11 10 10 10 
11 11 11 10 10 10 10 10 10 7 7 7 9 9 9 10 10 10 11 11 11 9 9 9 
9 9 9 11 11 11 9 9 9 9 9 9 9 9 9 10 10 10 7 7 7 11 11 11 
10 10 10 11 11 11 9 9 9 10 10 10 10 10 10 11 11 11 11 11 11 9 9 9 
11 11 11 10 10 10 9 9 9 11 11 11 11 11 11 10 10 10 11 11 11 11 11 11 
9 9 9 9 9 9 10 10 10 11 11 11 11 11 11 10 10 10 11 11 11 11 11 11 
11 11 11 9 9 9 11 11 11 10 10 10 10 10 10 10 10 10 11 11 11 11 11 11 
14 14 14 10 10 10 11 11 11 9 9 9 11 11 11 11 11 11 11 11 11 11 11 11 

10 10 10 10 10 10 11 11 11 11 11 11 10 10 10 10 10 10 7 7 7 9 9 9 
11 11 11 11 11 11 10 10 10 11 11 11 11 11 11 11 11 11 10 10 10 10 10 10 
11 11 11 10 10 10 11 11 11 11 11 11 11 11 11 9 9 9 11 11 11 10 10 10 
11 11 11 10 10 10 11 11 11 11 11 11 11 11 11 10 10 10 9 9 9 11 11 11 
10 10 10 11 11 11 7 7 7 11 11 11 10 10 10 11 11 11 11 11 11 10 10 10 
9 9 9 11 11 11 9 9 9 11 11 11 11 11 11 11 11 11 11 11 11 11 11 11 
11 11 11 11 11 11 11 11 11 10 10 10 10 10 10 11 11 11 11 11 11 11 11 11 
10 10 10 10 10 10 11 11 11 13 13 13 10 10 10 11 11 11 10 10 10 11 11 11 
9 9 9 10 10 10 9 9 9 11 11 11 11 11 11 11 11 11 11 11 11 10 10 10 
11 11 11 10 10 10 10 10 10 10 10 10 11 11 11 13 13 13 11 11 11 14 14 14 
9 9 9 11 11 11 10 10 10 13 13 13 10 10 10 10 10 10 13 10 11 11 11 11 
11 11 11 11 9 10 13 13 13 11 11 11 13 13 13 11 11 11 10 10 10 11 11 11 
11 11 11 10 10 10 10 10 10 10 10 10 10 10 10 10 10 10 9 9 9 7 7 7 
11 11 11 10 10 10 9 9 9 10 10 10 9 9 9 11 11 11 11 11 11 11 11 11 
7 7 7 11 11 11 7 7 7 11 11 11 11 11 11 10 10 10 11 11 11 10 10 10 
11 11 11 10 10 10 9 9 9 9 9 9 11 11 11 11 11 11 11 11 11 11 11 11 
14 14 14 11 11 11 7 7 7 11 11 11 10 10 10 11 11 11 7 7 7 7 7 7 
11 11 11 13 10 11 25 11 17 53 14 27 92 19 37 143 21 40 208 10 32 244 4 76 
250 4 124 252 2 141 252 2 141 250 4 124 230 13 105 183 18 75 131 32 68 94 33 58 
75 32 51 75 32 51 94 33 58 147 26 71 222 7 30 250 4 110 244 10 135 158 50 100 
64 16 32 22 10 14 11 11 11 11 11 11 10 10 10 11 11 11 9 9 9 11 11 11 
11 11 11 9 9 9 9 9 9 9 9 9 10 10 10 10 10 10 11 11 11 11 11 11 
10 10 10 10 10 10 10 10 10 11 11 11 10 10 10 11 11 11 10 10 10 11 11 11 
11 11 11 11 11 11 13 13 13 10 10 10 11 11 11 10 10 10 10 10 10 11 11 11 
10 10 10 11 11 11 11 11 11 11 11 11 11 11 11 10 10 10 10 10 10 11 11 11 
13 13 13 11 11 11 11 11 11 10 10 10 10 10 10 9 9 9 14 14 14 10 10 10 
10 10 10 11 11 11 10 10 10 11 11 11 11 11 11 9 9 9 11 11 11 11 11 11 
10 10 10 11 11 11 11 11 11 11 11 11 11 11 11 7 7 7 11 11 11 10 10 10 
11 11 11 11 11 11 10 10 10 11 11 11 13 13 13 10 10 10 13 13 13 11 11 11 
11 11 11 9 9 9 11 11 11 11 11 11 7 7 7 11 11 11 11 11 11 11 11 11 

11 11 11 13 13 13 9 9 9 10 10 10 11 11 11 10 10 10 13 13 13 10 10 10 
11 11 11 11 11 11 13 13 13 13 13 13 10 10 10 11 11 11 11 11 11 11 11 11 
11 11 11 10 10 10 10 10 10 11 11 11 11 11 11 11 11 11 11 11 11 10 10 10 
11 11 11 11 11 11 11 11 11 11 11 11 14 14 14 7 7 7 9 9 9 11 11 11 
11 11 11 11 11 11 11 11 11 10 10 10 11 11 11 11 11 11 7 7 7 9 9 9 
10 10 10 9 9 9 11 11 11 11 11 11 11 11 11 11 11 11 11 11 11 10 10 10 
11 11 11 13 13 13 11 11 11 11 11 11 13 13 13 11 11 11 11 11 11 11 11 11 
11 11 11 11 11 11 13 13 13 10 10 10 14 14 14 10 10 10 9 9 9 13 13 13 
11 11 11 11 11 11 10 10 10 11 11 11 11 11 11 11 11 11 10 10 10 10 10 10 
10 10 10 11 11 11 11 11 11 10 10 10 7 7 7 11 11 11 9 9 9 9 9 9 
9 9 9 11 11 11 9 9 9 13 10 11 11 9 10 13 10 11 18 10 13 18 10 13 
18 10 13 13 10 11 13 10 11 10 10 10 10 10 10 11 11 11 9 9 9 11 11 11 
11 11 11 11 11 11 7 7 7 11 11 11 11 11 11 10 10 10 9 9 9 10 10 10 
11 11 11 11 11 11 11 11 11 10 10 10 11 11 11 10 10 10 11 11 11 10 10 10 
9 9 9 11 11 11 10 10 10 11 11 11 11 11 11 10 10 10 11 11 11 7 7 7 
10 10 10 10 10 10 9 9 9 11 11 11 7 7 7 10 10 10 11 11 11 13 13 13 
10 10 10 11 11 11 10 10 10 11 11 11 11 11 13 10 10 10 11 11 11 11 9 10 
13 10 11 25 11 17 64 16 32 107 21 41 181 22 29 237 5 35 250 4 110 251 3 134 
252 2 141 251 3 134 230 13 105 183 18 75 115 31 63 75 32 51 54 26 46 41 13 23 
22 10 14 25 11 17 64 16 32 143 21 40 222 7 30 250 4 110 244 10 135 158 50 100 
64 16 32 18 10 13 13 13 13 9 9 9 11 11 11 9 9 9 11 11 11 11 11 11 
9 9 9 9 9 9 11 11 11 9 9 9 10 10 10 11 11 11 9 9 9 13 13 13 
11 11 11 10 10 10 10 10 10 11 11 11 11 11 11 11 11 11 11 11 11 10 10 10 
9 9 9 11 11 11 9 9 9 11 11 11 9 9 9 11 11 11 10 10 10 10 10 10 
7 7 7 9 9 9 11 11 11 10 10 10 7 7 7 10 10 10 11 11 11 10 10 10 
11 11 11 10 10 10 11 11 11 10 10 10 11 11 11 11 11 11 13 13 13 11 11 11 
10 10 10 11 11 11 11 11 11 11 11 11 11 11 11 10 10 10 10 10 10 10 10 10 
11 11 11 11 11 11 7 7 7 10 10 10 10 10 10 11 11 11 11 11 11 11 11 11 
11 11 11 13 13 13 7 7 7 10 10 10 11 11 11 9 9 9 11 11 11 10 10 10 
9 9 9 9 9 9 11 11 11 11 11 11 11 11 11 9 9 9 11 11 11 10 10 10 

10 10 10 9 9 9 14 14 14 10 10 10 10 10 10 11 11 11 9 9 9 10 10 10 
11 11 11 13 13 13 11 11 11 11 11 11 11 11 11 11 11 11 11 11 11 10 10 10 
11 11 11 7 7 7 11 11 11 9 9 9 11 11 11 11 11 11 11 11 11 10 10 10 
11 11 11 13 13 13 13 13 13 11 11 11 10 10 10 11 11 11 10 13 10 11 11 11 
9 9 9 11 11 11 11 11 11 7 7 7 9 9 9 11 11 11 11 11 11 9 9 9 
11 9 10 10 10 10 11 11 11 9 9 9 10 10 10 10 10 10 10 10 10 11 11 11 
11 11 11 11 11 11 11 9 10 9 9 9 11 11 11 10 10 10 11 11 11 13 13 13 
10 10 10 11 11 11 10 10 10 10 10 10 11 11 11 11 11 11 10 10 10 10 10 10 
11 11 11 14 14 14 7 7 7 11 11 11 11 11 11 11 11 11 11 11 11 11 11 11 
13 13 13 10 10 10 11 11 11 11 11 11 11 11 11 11 11 11 11 11 11 13 13 13 
11 11 11 11 11 11 10 10 10 9 9 9 11 9 10 22 10 14 41 13 23 53 14 27 
53 14 27 31 12 13 18 10 13 11 9 10 11 11 11 10 10 10 11 11 11 10 10 10 
11 11 11 11 11 11 7 7 7 14 14 14 11 11 11 11 11 11 11 11 11 10 10 10 
13 13 13 10 10 10 11 11 11 10 10 10 13 13 13 11 11 11 11 11 11 11 11 11 
9 9 9 11 11 11 11 11 11 11 11 11 13 13 13 10 10 10 11 11 11 11 11 11 
11 11 11 11 11 11 11 11 11 13 13 13 11 11 11 11 11 11 13 13 13 11 11 11 
9 9 9 10 10 10 11 11 11 10 10 10 10 13 10 11 11 11 10 10 10 13 10 11 
31 12 13 64 16 32 125 21 41 193 22 30 243 3 57 250 4 110 252 2 141 252 2 141 
250 4 124 202 20 87 131 32 68 94 33 58 54 26 46 25 11 17 18 10 13 13 10 11 
13 10 11 25 11 17 64 16 32 163 20 42 237 5 35 250 4 110 244 10 135 147 26 71 
53 14 27 18 10 13 11 11 11 10 10 10 9 9 9 11 11 11 10 10 10 11 11 11 
10 10 10 10 10 10 11 11 11 11 11 11 9 9 9 11 11 11 11 11 11 13 13 13 
10 10 10 11 11 11 13 13 13 11 11 11 11 11 11 10 10 10 13 13 13 11 11 11 
11 11 11 11 11 11 11 11 11 10 10 10 11 11 11 11 11 11 11 11 11 11 11 11 
11 11 11 11 11 11 13 13 13 10 10 10 11 11 11 7 7 7 10 10 10 11 11 11 
11 11 11 13 13 13 11 11 11 11 11 11 10 10 10 10 10 10 11 11 11 11 11 11 
9 9 9 11 11 11 7 7 7 11 11 11 13 13 13 11 11 11 10 10 10 9 9 9 
10 10 10 10 10 10 11 11 11 10 10 10 10 10 10 10 13 10 11 11 11 9 9 9 
13 10 11 11 11 11 11 11 11 9 9 9 10 10 10 11 11 11 11 11 11 11 11 11 
9 9 9 11 11 11 10 10 10 10 10 10 11 11 11 11 11 11 11 11 11 13 13 13 

11 11 11 11 11 11 11 11 11 11 11 11 10 10 10 9 9 9 9 9 9 11 11 11 
9 9 9 10 10 10 9 9 9 11 11 11 11 11 11 11 11 11 10 10 10 9 9 9 
11 11 11 11 11 11 11 11 11 11 11 11 10 10 10 11 11 11 13 13 13 11 11 11 
11 11 11 11 11 11 10 10 10 11 11 11 11 11 11 9 9 9 11 11 11 13 13 13 
11 11 11 9 9 9 10 10 10 10 13 10 11 11 11 10 13 10 11 11 13 10 10 10 
11 9 10 11 11 13 14 14 14 11 9 10 11 9 10 13 10 11 13 10 11 13 13 13 
13 13 13 13 10 11 11 11 11 11 11 11 9 9 9 10 10 10 9 9 9 11 11 11 
9 9 9 9 9 9 10 10 10 11 11 11 10 10 10 11 11 11 9 9 9 13 13 13 
11 11 11 11 11 11 11 11 11 9 9 9 11 11 11 11 11 11 11 11 11 9 9 9 
10 10 10 10 10 10 9 9 9 11 11 11 10 10 10 11 11 11 11 11 11 10 10 10 
11 11 11 11 11 11 11 11 11 18 10 13 25 11 17 53 14 27 92 19 37 163 20 42 
115 31 63 75 32 51 22 10 14 13 13 13 10 10 10 11 11 11 11 11 11 9 9 9 
9 9 9 11 11 11 11 11 11 10 10 10 10 10 10 13 10 11 9 9 9 11 9 10 
11 11 11 11 9 10 10 10 10 11 11 11 11 11 11 11 11 11 11 11 11 13 13 13 
10 10 10 11 11 11 13 13 13 10 10 10 11 11 11 11 11 11 11 11 11 11 11 11 
9 9 9 11 11 11 10 10 10 11 11 11 11 11 11 10 10 10 11 11 11 9 9 9 
10 10 10 13 13 13 10 10 10 11 11 11 11 11 11 13 10 11 18 10 13 31 12 13 
75 18 34 125 21 41 208 10 32 244 4 76 250 4 124 252 2 141 252 2 141 238 11 117 
183 18 75 94 33 58 54 26 46 25 11 17 13 10 11 11 11 11 11 11 11 10 10 10 
10 10 10 31 12 13 92 19 37 185 15 50 243 3 57 251 3 134 216 21 109 115 31 63 
41 13 23 13 10 11 11 11 11 10 10 10 11 11 11 10 10 10 11 11 11 11 11 11 
10 10 10 10 10 10 10 10 10 11 11 11 11 11 11 11 11 11 9 9 9 10 10 10 
11 11 11 11 11 11 11 11 11 9 9 9 11 11 11 11 11 11 10 10 10 11 11 11 
13 13 13 9 9 9 10 10 10 11 11 11 13 13 13 10 10 10 11 11 11 11 11 11 
10 10 10 11 11 11 11 11 11 7 7 7 13 13 13 10 10 10 11 11 11 11 11 11 
11 11 11 11 11 11 13 13 13 10 10 10 7 7 7 7 7 7 11 11 11 10 10 10 
10 10 10 11 11 11 10 10 10 11 11 11 11 11 11 13 13 13 11 11 11 11 11 11 
11 11 11 13 13 13 10 13 10 11 11 11 10 10 10 13 10 11 11 11 11 13 13 13 
11 11 11 15 15 15 9 9 9 11 11 11 10 10 10 11 11 11 11 11 11 11 11 11 
10 10 10 11 11 11 11 11 11 14 14 14 11 11 11 11 11 11 10 10 10 13 13 13 

13 13 13 9 9 9 11 11 11 11 11 11 10 10 10 13 13 13 11 11 11 9 9 9 
11 11 11 11 11 11 11 11 11 11 11 11 11 11 11 10 10 10 9 9 9 14 14 14 
10 10 10 11 11 11 10 10 10 10 10 10 10 10 10 11 11 11 11 11 11 11 11 11 
7 7 7 9 9 9 14 14 14 11 11 11 11 11 11 10 10 10 11 11 11 11 11 11 
11 11 11 13 13 13 11 11 11 9 9 9 9 9 9 13 10 11 13 10 11 13 10 11 
22 10 14 25 11 17 25 11 17 31 12 13 41 13 23 41 13 23 41 13 23 41 13 23 
38 13 15 41 13 23 34 14 15 31 12 13 25 11 17 22 10 14 13 10 11 11 9 10 
11 9 10 10 10 10 11 11 11 10 10 10 11 9 10 10 10 10 11 11 11 10 10 10 
9 9 9 10 10 10 11 11 11 10 10 10 11 11 11 10 10 10 11 11 11 11 11 11 
10 10 10 11 11 11 11 11 11 11 11 11 10 10 10 10 10 10 11 11 13 11 11 11 
11 9 10 11 11 11 11 9 10 25 11 17 53 14 27 107 21 41 193 22 30 219 14 86 
207 62 126 92 19 37 25 11 17 13 13 13 11 9 10 11 11 11 11 11 11 11 11 11 
11 11 11 10 10 10 11 11 11 9 9 9 10 10 10 11 11 13 11 11 11 10 10 10 
11 11 11 13 10 11 11 11 11 11 11 11 10 10 10 13 13 13 10 10 10 9 9 9 
10 10 10 11 11 11 11 11 11 10 10 10 11 11 11 7 7 7 11 11 11 11 11 11 
10 10 10 11 11 11 11 11 11 13 13 13 13 13 13 11 11 11 9 9 9 10 10 10 
9 9 9 11 11 11 11 11 11 13 13 13 11 11 13 13 10 11 34 14 15 75 18 34 
143 21 40 208 10 32 244 4 76 250 4 124 252 2 141 252 2 141 230 13 105 147 26 71 
94 33 58 46 30 29 22 10 14 13 10 11 11 11 11 7 7 7 13 10 11 11 11 13 
22 10 14 53 14 27 125 21 41 222 7 30 244 4 76 244 10 135 164 29 78 75 32 51 
26 11 11 10 10 10 11 11 11 9 9 9 11 11 11 11 11 11 10 10 10 10 10 10 
10 10 10 11 11 11 13 13 13 11 11 11 11 11 11 11 11 11 13 13 13 13 13 13 
9 9 9 10 10 10 11 11 11 11 11 11 13 13 13 11 11 11 10 10 10 10 10 10 
9 9 9 9 9 9 11 11 11 11 11 11 10 10 10 7 7 7 9 9 9 10 10 10 
10 10 10 11 11 11 7 7 7 11 11 11 7 7 7 11 11 11 10 10 10 9 9 9 
10 10 10 11 11 11 11 11 11 9 9 9 7 7 7 9 9 9 11 11 11 11 11 11 
11 11 11 11 11 11 11 11 11 11 11 11 10 10 10 11 11 11 10 10 10 13 13 13 
13 13 13 11 11 11 13 10 11 9 9 9 13 10 11 11 9 10 11 11 11 11 11 11 
11 11 11 11 11 11 9 9 9 10 10 10 10 10 10 11 11 11 7 7 7 7 7 7 
11 11 11 11 11 11 13 13 13 10 10 10 10 10 10 10 10 10 9 9 9 9 9 9 

11 11 11 10 10 10 10 10 10 10 10 10 11 11 11 11 11 11 13 13 13 9 9 9 
11 11 11 7 7 7 11 11 11 11 11 11 10 10 10 7 7 7 11 11 11 11 11 11 
13 13 13 7 7 7 11 11 11 10 10 10 11 11 11 11 11 11 9 9 9 10 10 10 
11 11 11 10 10 10 11 11 11 10 10 10 10 10 10 11 11 11 11 11 11 11 11 11 
9 9 9 11 9 10 13 10 11 18 10 13 22 10 14 34 14 15 41 13 23 53 14 27 
64 16 32 75 18 34 92 19 37 92 19 37 107 21 41 107 21 41 125 21 41 125 21 41 
125 21 41 107 21 41 107 21 41 92 19 37 75 18 34 53 14 27 38 13 15 22 10 14 
18 10 13 18 10 13 11 11 11 10 10 10 7 7 7 11 11 11 11 11 11 11 11 11 
11 11 11 11 11 11 11 11 11 11 11 11 11 11 11 10 10 10 11 11 11 10 10 10 
9 9 9 11 11 11 10 10 10 11 11 11 13 13 13 11 11 11 11 11 11 9 9 9 
10 10 10 9 9 9 22 10 14 53 14 27 107 21 41 193 22 30 243 3 57 238 11 117 
186 32 100 75 18 34 25 11 17 13 10 11 13 13 13 10 10 10 13 13 13 11 11 11 
11 11 11 11 11 11 11 11 11 9 9 9 11 11 11 11 11 11 11 11 11 13 10 11 
13 10 11 18 10 13 18 10 13 13 10 11 11 11 11 11 11 11 11 11 11 11 11 11 
13 13 13 13 13 13 11 11 11 11 11 11 11 11 11 11 11 11 10 10 10 11 11 11 
11 11 11 10 10 10 11 11 11 11 11 11 10 10 10 11 11 11 10 10 10 10 10 10 
10 10 10 11 11 11 11 11 11 10 10 10 18 10 13 34 14 15 75 18 34 143 21 40 
222 7 30 244 4 76 251 3 134 252 2 141 251 3 134 230 13 105 147 26 71 75 32 51 
41 13 23 18 10 13 10 10 10 10 10 10 13 13 13 11 11 11 11 11 13 10 10 10 
31 12 13 75 18 34 181 22 29 237 5 35 250 4 124 216 21 109 115 31 63 41 13 23 
18 10 13 9 9 9 11 11 11 11 11 11 11 11 11 10 10 10 11 11 11 11 11 11 
10 10 10 13 13 13 11 11 11 11 11 11 9 9 9 11 11 11 10 10 10 13 13 13 
9 9 9 7 7 7 11 11 11 11 11 11 10 10 10 11 11 11 10 10 10 9 9 9 
11 11 11 11 11 11 11 11 11 11 11 11 11 11 11 11 11 11 11 11 11 9 9 9 
11 11 11 9 9 9 10 10 10 11 11 11 7 7 7 10 10 10 11 11 11 11 11 11 
9 9 9 10 10 10 7 7 7 7 7 7 10 10 10 11 11 11 13 13 13 10 10 10 
11 11 11 11 11 11 10 10 10 11 11 11 10 10 10 10 10 10 11 11 11 11 11 11 
11 11 11 11 11 11 13 10 11 18 10 13 22 10 14 22 10 14 18 10 13 13 10 11 
11 9 10 11 11 11 9 9 9 11 11 11 11 11 11 10 10 10 11 11 11 11 11 11 
10 10 10 10 10 10 11 11 11 11 11 11 11 11 11 10 10 10 7 7 7 11 11 11 

10 10 10 11 11 11 10 10 10 14 14 14 11 11 11 9 9 9 11 11 11 11 11 11 
10 10 10 10 10 10 11 11 11 11 11 11 11 11 11 11 11 11 10 10 10 11 11 11 
11 11 11 11 11 11 11 11 11 9 9 9 11 11 11 7 7 7 11 11 11 10 10 10 
9 9 9 11 9 10 11 11 11 9 9 9 10 10 10 11 11 11 10 10 10 13 10 11 
18 10 13 25 11 17 41 13 23 53 14 27 64 16 32 92 19 37 107 21 41 143 21 40 
163 20 42 181 22 29 185 15 50 206 31 34 224 12 60 224 12 60 219 14 86 219 14 86 
219 14 86 219 14 86 202 20 87 202 20 87 164 29 78 147 26 71 107 21 41 64 16 32 
41 13 23 22 10 14 13 10 11 11 11 11 11 11 11 11 11 11 11 11 11 11 11 11 
10 10 10 9 9 9 10 10 10 9 9 9 11 11 11 10 10 10 11 11 11 10 10 10 
13 13 13 10 10 10 11 11 11 9 9 9 9 9 9 11 11 11 11 11 11 10 10 10 
10 10 10 18 10 13 41 13 23 92 19 37 181 22 29 243 3 57 250 4 124 216 21 109 
115 31 63 41 13 23 18 10 13 9 9 9 11 11 11 13 10 11 11 9 10 11 11 11 
13 10 11 13 10 11 13 10 11 18 10 13 18 10 13 22 10 14 25 11 17 25 11 17 
31 12 13 31 12 13 25 11 17 22 10 14 18 10 13 11 9 10 11 11 11 11 11 11 
13 13 13 10 10 10 11 11 11 11 11 11 11 11 11 11 11 11 11 11 11 15 15 15 
11 11 11 11 11 11 11 11 11 10 10 10 13 13 13 11 11 11 11 11 11 11 11 11 
11 11 11 9 9 9 10 10 10 13 10 11 34 14 15 75 18 34 143 21 40 222 7 30 
247 4 93 251 3 134 252 2 141 251 3 134 216 21 109 131 32 68 75 32 51 34 14 15 
18 10 13 11 11 11 11 11 11 10 10 10 10 10 10 11 11 11 13 10 11 18 10 13 
53 14 27 125 21 41 222 7 30 247 4 93 238 11 117 131 32 68 75 32 51 22 10 14 
11 11 11 10 10 10 11 9 10 10 10 10 11 11 11 11 11 11 11 11 11 10 10 10 
11 11 11 11 11 11 10 10 10 10 10 10 10 10 10 10 10 10 10 10 10 11 11 11 
10 10 10 9 9 9 10 10 10 11 11 11 13 13 13 10 10 10 11 11 11 11 11 11 
11 11 11 11 11 11 11 9 10 10 10 10 13 10 11 11 11 11 11 11 11 11 11 13 
11 11 13 9 9 9 11 9 10 9 9 9 11 11 11 11 11 11 11 11 11 10 10 10 
11 11 13 9 9 9 9 9 9 9 9 9 9 9 9 11 11 11 10 10 10 11 11 11 
9 9 9 9 9 9 10 10 10 9 9 9 13 13 13 11 11 11 11 11 11 11 11 11 
11 9 10 18 10 13 34 14 15 53 14 27 75 18 34 75 18 34 53 14 27 26 11 11 
18 10 13 11 9 10 14 14 14 11 11 11 10 10 10 10 10 10 10 10 10 11 11 11 
11 11 11 11 11 11 11 11 11 11 11 11 11 11 11 11 11 11 11 11 11 11 11 11 

10 10 10 11 11 11 11 11 11 14 14 14 11 11 11 11 11 11 10 10 10 9 9 9 
14 14 14 11 11 11 11 11 11 11 11 11 9 9 9 10 10 10 10 10 10 11 11 11 
11 11 11 11 11 11 9 9 9 10 10 10 11 11 11 9 9 9 13 13 13 11 11 11 
11 11 11 10 13 10 10 13 10 13 13 13 11 9 10 18 10 13 25 11 17 38 13 15 
53 14 27 75 18 34 107 21 41 143 21 40 163 20 42 193 22 30 224 12 60 224 12 60 
247 4 93 250 4 110 250 4 124 251 3 134 251 3 134 251 3 134 252 2 141 252 2 141 
251 3 134 252 2 141 251 3 134 244 10 135 244 10 135 229 31 132 207 62 126 158 50 100 
94 33 58 53 14 27 22 10 14 13 10 11 13 10 11 10 10 10 11 11 11 13 13 13 
9 9 9 13 13 13 10 10 10 10 10 10 10 10 10 11 11 11 11 11 11 11 11 11 
10 10 10 9 9 9 10 10 10 10 10 10 11 11 11 10 10 10 14 14 14 11 11 11 
13 13 13 34 14 15 75 18 34 163 20 42 237 5 35 250 4 110 244 10 135 164 29 78 
75 32 51 25 11 17 13 10 11 9 9 9 11 11 11 18 10 13 18 10 13 18 10 13 
25 11 17 34 14 15 41 13 23 41 13 23 53 14 27 64 16 32 75 18 34 75 18 34 
75 18 34 92 19 37 75 18 34 41 13 23 25 11 17 13 13 13 11 11 11 9 9 9 
11 11 11 11 11 11 11 11 11 9 9 9 11 11 11 10 10 10 11 11 11 11 11 11 
11 11 11 11 11 11 9 9 9 11 11 11 11 11 11 11 11 11 11 11 11 11 11 13 
13 10 11 10 13 10 18 10 13 25 11 17 64 16 32 143 21 40 208 10 32 244 4 76 
251 3 134 252 2 141 251 3 134 216 21 109 131 32 68 75 32 51 31 12 13 18 10 13 
13 10 11 11 11 11 10 10 10 14 14 14 11 11 11 11 11 11 18 10 13 25 11 17 
64 16 32 185 15 50 219 14 86 238 11 117 164 29 78 75 32 51 31 12 13 13 10 11 
10 10 10 10 13 10 9 9 9 9 9 9 11 11 11 10 10 10 11 11 11 14 14 14 
11 11 11 11 11 11 11 11 11 13 13 13 10 10 10 11 11 11 7 7 7 11 11 11 
11 11 11 9 9 9 10 10 10 13 13 13 11 11 11 9 9 9 11 9 10 11 9 10 
11 11 13 9 9 9 11 11 11 9 9 9 10 10 10 13 13 13 11 11 11 10 10 10 
9 9 9 9 9 9 11 9 10 9 9 9 9 9 9 11 9 10 11 11 11 13 13 13 
11 11 11 11 11 11 10 10 10 13 13 10 11 11 11 13 10 11 18 10 13 25 11 17 
25 11 17 31 12 13 25 11 17 18 10 13 13 10 11 11 9 10 10 10 10 13 10 11 
22 10 14 41 13 23 92 19 37 143 21 40 181 22 29 183 18 75 131 32 68 64 16 32 
22 10 14 11 9 10 10 10 10 11 11 11 11 11 11 10 10 10 11 11 11 9 9 9 
11 11 11 10 10 10 11 11 11 11 11 11 10 10 10 14 14 14 10 10 10 11 11 11 

9 9 9 13 13 13 11 11 11 11 11 11 11 11 11 13 13 13 11 11 11 10 10 10 
11 11 11 11 11 11 11 11 11 11 11 11 10 10 10 11 11 11 10 10 10 11 11 11 
10 10 10 11 11 11 9 9 9 10 10 10 7 7 7 11 11 11 10 10 10 10 13 10 
10 10 10 10 13 10 13 10 11 18 10 13 31 12 13 41 13 23 75 18 34 92 19 37 
143 21 40 181 22 29 206 31 34 224 12 60 247 4 93 250 4 110 251 3 134 251 3 134 
252 2 141 252 2 141 252 2 141 251 3 134 251 3 134 251 3 134 250 4 124 250 4 124 
238 11 117 250 4 124 238 11 117 250 4 124 250 4 124 251 3 134 244 10 135 229 31 132 
186 32 100 115 31 63 41 13 23 18 10 13 11 11 11 10 10 10 10 10 10 11 11 11 
11 11 11 10 10 10 11 11 11 13 13 13 11 11 11 11 11 11 10 10 10 9 9 9 
13 13 13 10 10 10 11 11 11 11 11 11 10 10 10 9 9 9 10 10 10 13 13 13 
25 11 17 64 16 32 143 21 40 222 7 30 247 4 93 251 3 134 216 21 109 115 31 63 
53 14 27 25 11 17 22 10 14 26 11 11 31 12 13 41 13 23 53 14 27 64 16 32 
75 18 34 92 19 37 107 21 41 125 21 41 143 21 40 163 20 42 181 22 29 183 18 75 
202 20 87 186 32 100 147 26 71 94 33 58 34 14 15 18 14 10 11 11 11 11 11 11 
11 11 11 10 10 10 10 10 10 11 11 11 11 11 11 11 11 11 11 11 11 11 11 11 
10 10 10 11 11 11 11 11 11 11 11 11 10 10 10 11 11 11 11 11 11 13 13 13 
15 15 15 11 9 10 31 12 13 64 16 32 125 21 41 208 10 32 244 4 76 251 3 134 
252 2 141 251 3 134 216 21 109 131 32 68 75 32 51 25 11 17 18 10 13 9 9 9 
13 10 11 11 9 10 9 9 9 10 10 10 10 10 10 11 11 11 11 9 10 25 11 17 
107 21 41 164 29 78 186 32 100 164 29 78 75 32 51 41 13 23 18 10 13 11 9 10 
9 9 9 10 10 10 11 11 11 9 9 9 11 11 13 11 11 11 11 11 11 11 11 13 
9 9 9 10 10 10 11 11 11 11 11 11 10 13 10 11 11 11 11 11 11 9 9 9 
11 11 11 11 11 11 11 11 11 10 10 10 10 10 10 11 11 11 11 11 11 9 9 9 
10 10 10 10 10 10 11 11 11 11 11 11 10 10 10 11 11 11 10 10 10 9 9 9 
9 9 9 11 11 13 13 13 13 18 10 13 18 10 13 18 14 10 13 13 13 11 11 11 
11 9 10 11 9 10 10 13 10 13 13 13 18 10 13 25 11 17 41 13 23 64 16 32 
92 19 37 92 19 37 75 18 34 41 13 23 25 11 17 13 10 11 11 11 11 18 10 13 
41 13 23 92 19 37 163 20 42 224 12 60 250 4 110 244 10 135 207 62 126 115 31 63 
41 13 23 13 10 11 10 10 10 10 10 10 9 9 9 11 11 11 11 11 11 11 11 11 
11 11 11 10 10 10 13 13 13 11 11 11 10 10 10 13 13 13 10 10 10 11 11 11 

11 11 11 10 10 10 11 11 11 11 11 11 11 11 11 11 11 11 11 11 11 11 11 11 
11 11 11 11 11 11 10 10 10 11 11 11 11 11 11 9 9 9 11 11 11 11 11 11 
11 11 11 11 11 11 10 10 10 11 11 11 11 11 11 13 10 11 9 9 9 11 11 11 
11 9 10 25 11 17 38 13 15 53 14 27 75 18 34 125 21 41 163 20 42 193 22 30 
224 12 60 247 4 93 250 4 124 251 3 134 252 2 141 251 3 134 251 3 134 251 3 134 
250 4 124 238 11 117 230 13 105 219 14 86 202 20 87 183 18 75 183 18 75 164 29 78 
147 26 71 147 26 71 147 26 71 164 29 78 183 18 75 202 20 87 230 13 105 250 4 124 
229 31 132 186 32 100 94 33 58 31 12 13 13 13 13 9 9 9 11 11 11 11 11 11 
11 11 11 9 9 9 7 7 7 11 11 11 7 7 7 11 11 11 10 10 10 13 13 13 
11 11 11 11 11 11 11 11 11 11 11 11 9 9 9 11 11 11 13 10 11 22 10 14 
53 14 27 125 21 41 208 10 32 244 4 76 251 3 134 244 10 135 164 29 78 75 32 51 
53 14 27 53 14 27 64 16 32 75 18 34 92 19 37 107 21 41 125 21 41 163 20 42 
181 22 29 193 22 30 206 31 34 224 12 60 244 4 76 247 4 93 230 13 105 230 13 105 
216 21 109 186 32 100 131 32 68 53 14 27 22 10 14 13 13 13 11 11 11 13 13 13 
9 9 9 11 11 11 10 10 10 11 11 11 9 9 9 11 11 11 11 11 11 9 9 9 
10 10 10 7 7 7 10 10 10 11 11 11 11 11 11 10 10 10 11 11 11 10 10 10 
13 10 11 22 10 14 53 14 27 107 21 41 208 10 32 243 3 57 251 3 134 252 2 141 
251 3 134 216 21 109 131 32 68 75 32 51 25 11 17 13 10 11 11 9 10 10 10 10 
10 10 10 11 11 11 11 11 11 10 10 10 13 13 13 13 10 11 11 9 10 31 12 13 
64 16 32 115 31 63 115 31 63 75 32 51 31 23 20 18 10 13 9 9 9 13 10 11 
18 10 13 18 10 13 18 10 13 18 10 13 18 10 13 14 14 14 11 11 11 11 11 11 
7 7 7 11 11 11 10 10 10 11 11 11 11 11 11 10 10 10 11 11 11 9 9 9 
10 10 10 14 14 14 9 9 9 10 10 10 13 10 11 18 10 13 18 10 13 18 10 13 
22 10 14 18 10 13 13 10 11 13 10 11 18 10 13 13 10 11 13 13 13 11 9 10 
18 10 13 34 14 15 41 13 23 53 14 27 41 13 23 34 14 15 18 10 13 13 10 11 
11 11 11 9 9 9 13 10 11 22 10 14 41 13 23 75 18 34 125 21 41 163 20 42 
193 22 30 202 20 87 164 29 78 115 31 63 53 14 27 25 11 17 18 10 13 31 12 13 
75 18 34 163 20 42 237 5 35 250 4 110 252 2 141 252 2 141 229 31 132 131 32 68 
41 13 23 11 11 11 10 10 10 14 14 14 11 11 11 11 11 11 11 11 11 11 11 11 
10 10 10 13 13 13 11 11 11 11 11 11 10 10 10 11 11 11 13 13 13 11 11 11 

10 10 10 11 11 11 10 10 10 11 11 11 9 9 9 11 11 11 10 10 10 9 9 9 
10 10 10 13 13 13 10 10 10 10 10 10 11 11 11 11 11 11 10 10 10 11 11 11 
10 10 10 11 11 11 11 11 11 13 13 13 11 11 11 13 10 11 13 10 11 22 10 14 
41 13 23 64 16 32 92 19 37 143 21 40 181 22 29 222 7 30 244 4 76 250 4 110 
251 3 134 251 3 134 251 3 134 250 4 124 238 11 117 230 13 105 202 20 87 183 18 75 
147 26 71 131 32 68 115 31 63 94 33 58 94 33 58 94 33 58 75 32 51 75 32 51 
54 26 46 75 32 51 54 26 46 75 32 51 75 32 51 115 31 63 147 26 71 224 12 60 
250 4 110 229 31 132 131 32 68 41 13 23 13 10 11 13 13 13 11 11 11 10 10 10 
11 11 11 9 9 9 11 11 11 13 13 13 13 13 13 11 11 11 13 13 13 11 11 11 
7 7 7 11 11 11 11 11 11 13 13 13 9 9 9 13 10 11 18 10 13 41 13 23 
107 21 41 181 22 29 243 3 57 250 4 124 244 10 135 202 20 87 131 32 68 107 21 41 
125 21 41 143 21 40 163 20 42 181 22 29 206 31 34 224 12 60 224 12 60 247 4 93 
250 4 110 250 4 110 250 4 110 238 11 117 230 13 105 202 20 87 164 29 78 147 26 71 
94 33 58 75 32 51 46 30 29 23 18 20 13 10 11 11 9 10 9 9 9 10 10 10 
10 10 10 9 9 9 11 11 11 10 10 10 11 11 11 10 10 10 11 11 11 10 10 10 
11 11 11 9 9 9 9 9 9 11 11 11 11 11 11 14 14 14 10 10 10 13 10 11 
18 10 13 41 13 23 107 21 41 193 22 30 243 3 57 250 4 124 252 2 141 252 2 141 
238 11 117 147 26 71 75 32 51 31 12 13 18 10 13 13 13 13 11 11 11 11 9 10 
9 9 9 7 7 7 11 11 11 11 11 11 13 13 13 11 11 11 11 9 10 18 10 13 
25 11 17 41 13 23 46 30 29 25 11 17 22 10 14 22 15 15 25 11 17 34 14 15 
41 13 23 53 14 27 64 16 32 53 14 27 38 13 15 18 10 13 14 14 14 9 9 9 
11 11 11 13 10 11 11 11 11 15 15 15 13 10 11 13 10 11 9 9 9 11 11 11 
14 14 14 11 11 11 11 11 11 11 9 10 18 10 13 25 11 17 38 13 15 64 16 32 
53 14 27 34 14 15 25 11 17 31 12 13 38 13 15 38 13 15 25 11 17 25 11 17 
41 13 23 75 18 34 125 21 41 163 20 42 131 32 68 92 19 37 41 13 23 18 10 13 
11 11 11 13 10 11 26 11 11 53 14 27 107 21 41 163 20 42 208 10 32 244 4 76 
250 4 110 251 3 134 244 10 135 207 62 126 115 31 63 34 14 15 26 11 11 53 14 27 
125 21 41 222 7 30 244 4 76 251 3 134 252 2 141 244 10 135 186 32 100 94 33 58 
34 14 15 11 11 11 10 10 10 11 11 11 11 11 11 11 11 11 9 9 9 10 10 10 
11 11 11 10 10 10 9 9 9 10 10 10 11 11 11 11 11 11 10 10 10 7 7 7 

11 11 11 11 11 11 7 7 7 13 13 13 9 9 9 9 9 9 9 9 9 11 11 11 
11 11 11 11 11 11 11 11 11 7 7 7 11 11 11 9 9 9 10 10 10 11 11 11 
11 11 11 14 14 14 10 10 10 13 13 13 13 10 11 22 10 14 38 13 15 64 16 32 
92 19 37 143 21 40 193 22 30 224 12 60 247 4 93 250 4 124 251 3 134 251 3 134 
250 4 124 230 13 105 202 20 87 183 18 75 147 26 71 115 31 63 94 33 58 75 32 51 
75 32 51 54 26 46 46 30 29 53 14 27 64 16 32 75 18 34 75 18 34 53 14 27 
25 11 17 22 15 15 22 15 15 18 10 13 34 14 15 75 18 34 147 26 71 222 7 30 
247 4 93 229 31 132 131 32 68 41 13 23 18 10 13 10 10 10 11 11 11 11 11 11 
13 13 13 11 11 11 11 11 11 10 10 10 11 11 11 7 7 7 11 9 10 10 13 10 
11 11 11 13 10 11 13 10 11 18 10 13 26 11 11 34 14 15 53 14 27 92 19 37 
163 20 42 237 5 35 250 4 110 251 3 134 230 13 105 185 15 50 185 15 50 206 31 34 
224 12 60 244 4 76 247 4 93 250 4 110 250 4 124 250 4 124 250 4 124 238 11 117 
230 13 105 202 20 87 183 18 75 147 26 71 115 31 63 94 33 58 75 32 51 54 26 46 
41 13 23 25 11 17 18 10 13 18 10 13 11 9 10 11 11 11 11 11 11 11 11 11 
11 11 11 10 10 10 9 9 9 11 11 11 10 10 10 11 11 11 11 11 11 9 9 9 
10 10 10 10 10 10 11 11 11 11 11 11 10 10 10 11 11 11 11 11 11 18 10 13 
34 14 15 92 19 37 163 20 42 237 5 35 250 4 110 252 2 141 252 2 141 238 11 117 
147 26 71 75 32 51 34 14 15 18 10 13 11 11 13 11 11 13 10 10 10 13 10 11 
13 10 11 11 11 11 11 11 11 10 10 10 11 9 10 10 10 10 13 13 13 13 13 13 
13 10 11 22 10 14 22 10 14 25 11 17 38 13 15 53 14 27 75 18 34 92 19 37 
125 21 41 143 21 40 163 20 42 147 26 71 75 18 34 38 13 15 14 14 14 13 10 11 
18 10 13 22 10 14 31 12 13 31 12 13 34 14 15 22 10 14 18 10 13 13 13 13 
13 13 13 11 11 11 11 9 10 18 10 13 41 13 23 64 16 32 125 21 41 164 29 78 
115 31 63 75 18 34 75 18 34 92 19 37 125 21 41 107 21 41 75 18 34 64 16 32 
107 21 41 163 20 42 224 12 60 247 4 93 229 31 132 158 50 100 75 18 34 22 10 14 
18 10 13 31 12 13 64 16 32 125 21 41 181 22 29 243 3 57 250 4 110 251 3 134 
251 3 134 250 4 110 251 3 134 229 31 132 131 32 68 41 13 23 53 14 27 107 21 41 
193 22 30 243 3 57 250 4 124 252 2 141 252 2 141 216 21 109 115 31 63 46 30 29 
18 10 13 13 10 11 11 11 11 7 7 7 9 9 9 11 11 11 11 11 11 11 11 11 
11 11 11 11 11 11 10 10 10 11 11 11 11 11 11 11 11 11 9 9 9 7 7 7 

10 10 10 13 13 13 11 11 11 11 11 11 11 11 11 11 11 11 13 13 13 11 11 11 
10 10 10 10 10 10 10 10 10 10 10 10 7 7 7 11 11 11 11 11 11 10 10 10 
11 11 11 11 9 10 13 13 10 18 10 13 34 14 15 64 16 32 92 19 37 143 21 40 
193 22 30 224 12 60 247 4 93 250 4 124 251 3 134 250 4 124 230 13 105 202 20 87 
164 29 78 115 31 63 94 33 58 75 32 51 54 26 46 41 13 23 34 14 15 25 11 17 
18 10 13 22 10 14 38 13 15 75 18 34 125 21 41 181 22 29 164 29 78 94 33 58 
38 13 15 18 10 13 11 9 10 13 10 11 34 14 15 75 18 34 163 20 42 237 5 35 
250 4 110 229 31 132 115 31 63 41 13 23 13 10 11 9 9 9 13 13 13 11 11 11 
13 13 13 9 9 9 11 11 11 11 11 11 10 13 10 13 10 11 13 10 11 18 10 13 
25 11 17 34 14 15 41 13 23 53 14 27 75 18 34 92 19 37 125 21 41 163 20 42 
222 7 30 247 4 93 252 2 141 251 3 134 247 4 93 230 13 105 250 4 110 250 4 124 
251 3 134 251 3 134 250 4 124 238 11 117 230 13 105 202 20 87 183 18 75 131 32 68 
115 31 63 94 33 58 75 32 51 54 26 46 41 13 23 31 23 20 25 11 17 18 10 13 
18 10 13 13 10 11 13 10 11 9 9 9 11 11 11 11 11 11 13 13 13 11 11 11 
11 11 11 11 11 11 10 10 10 11 11 11 11 11 11 11 11 11 11 11 11 11 11 11 
9 9 9 11 11 11 10 10 10 10 10 10 9 9 9 11 11 11 13 10 11 25 11 17 
64 16 32 143 21 40 222 7 30 247 4 93 252 2 141 252 2 141 244 10 135 164 29 78 
94 33 58 41 13 23 18 10 13 13 10 11 11 11 11 13 13 13 10 10 10 10 10 10 
9 9 9 11 11 11 9 9 9 10 10 10 11 11 11 10 10 10 14 14 14 13 10 11 
25 11 17 38 13 15 53 14 27 75 18 34 107 21 41 143 21 40 163 20 42 206 31 34 
224 12 60 244 4 76 238 11 117 216 21 109 138 59 86 41 13 23 22 10 14 34 14 15 
53 14 27 75 18 34 92 19 37 107 21 41 92 19 37 75 18 34 41 13 23 18 10 13 
13 10 11 11 11 13 13 10 11 34 14 15 75 18 34 143 21 40 208 10 32 216 21 109 
186 32 100 115 31 63 143 21 40 208 10 32 224 12 60 216 21 109 158 50 100 147 26 71 
181 22 29 243 3 57 250 4 110 251 3 134 244 10 135 207 62 126 75 18 34 26 11 11 
34 14 15 75 18 34 143 21 40 208 10 32 244 4 76 250 4 124 252 2 141 250 4 124 
244 4 76 243 3 57 251 3 134 216 21 109 115 31 63 75 18 34 107 21 41 181 22 29 
237 5 35 250 4 110 252 2 141 252 2 141 244 10 135 164 29 78 75 32 51 31 12 13 
13 10 11 11 11 11 7 7 7 10 10 10 11 11 11 9 9 9 11 11 11 11 11 11 
10 10 10 11 11 11 10 10 10 10 10 10 10 10 10 11 11 11 11 11 11 11 11 11 

10 10 10 10 10 10 11 11 11 9 9 9 11 11 11 10 10 10 11 11 11 10 10 10 
10 10 10 9 9 9 9 9 9 7 7 7 11 11 11 9 9 9 9 9 9 13 10 11 
11 11 11 11 9 10 31 12 13 53 14 27 92 19 37 125 21 41 193 22 30 224 12 60 
247 4 93 250 4 124 250 4 124 238 11 117 202 20 87 164 29 78 115 31 63 94 33 58 
75 32 51 54 26 46 41 13 23 25 11 17 18 10 13 13 10 11 14 14 14 11 11 11 
18 10 13 34 14 15 75 18 34 143 21 40 208 10 32 244 4 76 229 31 132 138 59 86 
38 13 15 13 10 11 13 10 11 25 11 17 53 14 27 125 21 41 208 10 32 243 3 57 
250 4 124 186 32 100 75 32 51 31 12 13 13 10 11 13 13 13 11 11 11 10 10 10 
11 11 11 11 11 11 13 13 13 11 11 11 13 10 11 22 10 14 34 14 15 53 14 27 
75 18 34 92 19 37 107 21 41 143 21 40 163 20 42 193 22 30 224 12 60 244 4 76 
247 4 93 251 3 134 252 2 141 252 2 141 251 3 134 250 4 124 250 4 124 238 11 117 
219 14 86 183 18 75 164 29 78 131 32 68 115 31 63 94 33 58 75 32 51 54 26 46 
41 13 23 34 14 15 25 11 17 18 10 13 13 13 13 11 11 11 13 10 11 11 11 11 
11 11 11 10 10 10 11 11 11 10 10 10 11 11 11 9 9 9 11 11 11 11 11 11 
11 11 11 11 11 11 10 10 10 11 11 11 11 11 11 11 11 11 10 10 10 11 11 11 
11 11 11 13 13 13 10 10 10 9 9 9 11 11 11 9 9 9 25 11 17 53 14 27 
125 21 41 208 10 32 244 4 76 251 3 134 252 2 141 251 3 134 202 20 87 94 33 58 
41 13 23 18 10 13 11 11 11 11 9 10 11 11 11 11 11 11 11 11 11 13 13 13 
10 10 10 9 9 9 10 10 10 11 11 13 18 10 13 22 10 14 34 14 15 53 14 27 
75 18 34 107 21 41 143 21 40 181 22 29 206 31 34 224 12 60 247 4 93 250 4 110 
251 3 134 250 4 124 216 21 109 164 29 78 75 32 51 53 14 27 53 14 27 92 19 37 
125 21 41 181 22 29 206 31 34 224 12 60 202 20 87 164 29 78 94 33 58 41 13 23 
18 10 13 18 10 13 34 14 15 64 16 32 143 21 40 222 7 30 247 4 93 238 11 117 
183 18 75 181 22 29 237 5 35 247 4 93 251 3 134 244 10 135 229 31 132 208 10 32 
243 3 57 250 4 124 252 2 141 252 2 141 244 10 135 164 29 78 64 16 32 41 13 23 
75 18 34 143 21 40 222 7 30 244 4 76 251 3 134 252 2 141 251 3 134 219 14 86 
237 5 35 250 4 110 238 11 117 164 29 78 115 31 63 125 21 41 181 22 29 237 5 35 
250 4 110 251 3 134 252 2 141 252 2 141 216 21 109 115 31 63 53 14 27 18 10 13 
13 10 11 10 10 10 9 9 9 11 11 11 9 9 9 11 11 11 11 11 11 11 11 11 
9 9 9 11 11 11 7 7 7 10 10 10 11 11 11 10 10 10 11 11 11 11 11 11 

10 10 10 11 11 11 11 11 11 11 11 11 7 7 7 11 11 11 11 11 11 13 13 13 
11 11 11 11 11 11 10 10 10 11 11 11 11 11 11 10 10 10 11 11 11 13 10 11 
22 10 14 41 13 23 64 16 32 107 21 41 181 22 29 222 7 30 247 4 93 250 4 124 
250 4 124 230 13 105 183 18 75 131 32 68 94 33 58 75 32 51 54 26 46 31 23 20 
22 15 15 13 10 11 11 9 10 11 9 10 10 10 10 11 11 13 11 9 10 13 10 11 
34 14 15 75 18 34 143 21 40 222 7 30 247 4 93 251 3 134 216 21 109 94 33 58 
34 14 15 18 10 13 31 12 13 64 16 32 107 21 41 193 22 30 243 3 57 250 4 124 
216 21 109 115 31 63 46 30 29 18 10 13 13 10 11 10 10 10 10 10 10 10 10 10 
11 11 11 11 11 11 7 7 7 13 10 11 22 10 14 41 13 23 75 18 34 125 21 41 
163 20 42 193 22 30 224 12 60 244 4 76 247 4 93 250 4 110 250 4 124 251 3 134 
252 2 141 252 2 141 244 10 135 230 13 105 219 14 86 183 18 75 147 26 71 131 32 68 
115 31 63 94 33 58 75 32 51 54 26 46 41 13 23 34 14 15 25 11 17 18 10 13 
11 11 13 9 9 9 9 9 9 18 10 13 11 11 13 11 11 13 10 10 10 11 11 11 
11 11 11 11 11 11 11 11 11 13 13 13 11 11 11 11 11 11 11 11 11 13 13 13 
11 11 11 10 10 10 11 11 11 11 11 11 11 11 11 11 11 11 10 10 10 11 11 11 
11 11 11 9 9 9 9 9 9 11 11 11 9 9 9 18 10 13 41 13 23 92 19 37 
193 22 30 243 3 57 250 4 124 252 2 141 251 3 134 216 21 109 115 31 63 46 30 29 
25 11 17 11 9 10 10 10 10 11 11 11 11 11 11 11 11 11 10 10 10 11 9 10 
13 10 11 13 10 11 18 10 13 25 11 17 41 13 23 64 16 32 92 19 37 125 21 41 
163 20 42 206 31 34 224 12 60 247 4 93 250 4 124 251 3 134 251 3 134 238 11 117 
219 14 86 164 29 78 115 31 63 75 32 51 64 16 32 75 18 34 125 21 41 181 22 29 
224 12 60 247 4 93 250 4 124 250 4 124 230 13 105 216 21 109 138 59 86 53 14 27 
22 10 14 31 12 13 64 16 32 125 21 41 208 10 32 244 4 76 250 4 124 202 20 87 
193 22 30 243 3 57 250 4 110 252 2 141 252 2 141 250 4 110 224 12 60 243 3 57 
250 4 124 252 2 141 252 2 141 244 10 135 183 18 75 94 33 58 53 14 27 64 16 32 
125 21 41 208 10 32 247 4 93 251 3 134 252 2 141 251 3 134 219 14 86 222 7 30 
247 4 93 250 4 124 202 20 87 164 29 78 164 29 78 185 15 50 237 5 35 250 4 110 
250 4 110 247 4 93 252 2 141 252 2 141 186 32 100 94 33 58 34 14 15 11 11 11 
11 11 11 11 11 11 10 10 10 9 9 9 10 10 10 10 10 10 11 11 11 10 10 10 
9 9 9 11 11 11 10 10 10 11 11 11 10 10 10 11 11 11 11 11 11 11 11 11 

11 11 11 11 11 11 11 11 11 11 11 11 11 11 11 9 9 9 11 11 11 11 11 11 
11 11 11 10 10 10 11 11 11 11 11 11 11 11 11 11 11 11 18 10 13 25 11 17 
41 13 23 75 18 34 143 21 40 208 10 32 244 4 76 250 4 110 238 11 117 219 14 86 
164 29 78 115 31 63 75 32 51 54 26 46 31 23 20 25 11 17 13 10 11 11 11 11 
11 11 11 10 10 10 11 11 13 9 9 9 18 14 10 13 10 11 18 10 13 26 11 11 
64 16 32 125 21 41 208 10 32 244 4 76 251 3 134 238 11 117 147 26 71 75 32 51 
31 12 13 41 13 23 75 18 34 125 21 41 193 22 30 243 3 57 250 4 110 238 11 117 
147 26 71 75 32 51 25 11 17 13 10 11 11 11 11 9 9 9 10 10 10 11 11 11 
11 11 11 11 11 11 9 9 9 18 10 13 31 12 13 92 19 37 185 15 50 224 12 60 
247 4 93 250 4 110 250 4 124 250 4 124 250 4 124 250 4 110 244 4 76 250 4 124 
252 2 141 251 3 134 202 20 87 131 32 68 94 33 58 75 32 51 75 32 51 54 26 46 
41 13 23 25 11 17 25 11 17 18 10 13 13 10 11 13 13 13 11 11 13 13 13 10 
9 9 9 11 11 11 9 9 9 13 10 11 11 11 11 11 9 10 11 9 10 7 7 7 
10 10 10 11 11 11 13 10 11 10 10 10 11 11 11 10 10 10 10 10 10 10 10 10 
10 10 10 9 9 9 14 14 14 11 11 11 11 11 11 11 11 11 11 11 11 10 10 10 
11 11 11 9 9 9 11 11 11 11 9 10 13 10 11 26 11 11 75 18 34 143 21 40 
237 5 35 250 4 110 252 2 141 252 2 141 238 11 117 147 26 71 75 32 51 25 11 17 
13 13 13 13 13 10 11 11 11 11 11 11 11 11 11 11 9 10 11 11 11 13 10 11 
22 10 14 34 14 15 53 14 27 75 18 34 107 21 41 163 20 42 193 22 30 224 12 60 
244 4 76 250 4 110 251 3 134 251 3 134 251 3 134 251 3 134 230 13 105 164 29 78 
115 31 63 75 32 51 54 26 46 64 16 32 107 21 41 163 20 42 222 7 30 247 4 93 
250 4 124 250 4 124 230 13 105 183 18 75 193 22 30 185 15 50 138 59 86 75 18 34 
31 12 13 64 16 32 125 21 41 208 10 32 243 3 57 251 3 134 230 13 105 208 10 32 
244 4 76 250 4 110 252 2 141 252 2 141 251 3 134 244 4 76 244 4 76 250 4 110 
251 3 134 252 2 141 251 3 134 216 21 109 115 31 63 75 32 51 75 18 34 125 21 41 
208 10 32 244 4 76 251 3 134 252 2 141 251 3 134 219 14 86 208 10 32 247 4 93 
250 4 124 219 14 86 185 15 50 202 20 87 224 12 60 243 3 57 250 4 110 238 11 117 
224 12 60 244 4 76 252 2 141 244 10 135 186 32 100 75 32 51 25 11 17 11 9 10 
13 10 11 10 10 10 11 11 11 10 10 10 11 11 11 11 11 11 11 11 11 11 11 11 
10 10 10 13 13 13 11 11 11 9 9 9 11 11 11 13 13 13 11 11 11 11 11 11 

10 10 10 10 10 10 11 11 11 11 11 11 11 11 11 11 11 11 11 11 11 13 13 13 
10 10 10 11 11 11 10 10 10 11 11 11 13 13 13 13 10 11 25 11 17 53 14 27 
92 19 37 163 20 42 224 12 60 230 13 105 238 11 117 202 20 87 147 26 71 94 33 58 
75 32 51 46 30 29 25 11 17 18 10 13 11 9 10 10 10 10 10 10 10 11 11 11 
10 10 10 10 10 10 9 9 9 10 13 10 11 11 11 13 10 11 25 11 17 64 16 32 
125 21 41 208 10 32 244 4 76 250 4 124 244 10 135 186 32 100 94 33 58 53 14 27 
53 14 27 92 19 37 143 21 40 208 10 32 244 4 76 250 4 124 238 11 117 147 26 71 
75 32 51 34 14 15 18 10 13 10 10 10 11 11 11 11 11 11 11 11 11 10 10 10 
10 10 10 10 10 10 11 11 11 18 10 13 41 13 23 131 32 68 202 20 87 230 13 105 
230 13 105 219 14 86 202 20 87 183 18 75 183 18 75 222 7 30 244 4 76 251 3 134 
252 2 141 216 21 109 115 31 63 75 32 51 41 13 23 25 11 17 18 10 13 18 10 13 
18 10 13 11 9 10 10 10 10 11 11 11 11 11 11 10 10 10 11 9 10 11 11 11 
9 9 9 10 10 10 11 9 10 11 9 10 11 11 13 10 13 10 11 11 11 11 11 11 
11 11 11 10 10 10 11 11 11 11 11 11 11 11 11 11 11 11 11 11 11 11 11 11 
11 11 11 10 10 10 11 11 11 11 11 11 11 11 11 11 11 11 11 11 11 11 11 11 
9 9 9 11 11 11 11 11 11 11 9 10 18 10 13 53 14 27 107 21 41 208 10 32 
244 4 76 251 3 134 252 2 141 244 10 135 186 32 100 94 33 58 34 14 15 13 10 11 
11 11 13 11 11 13 11 11 11 11 11 13 13 13 13 13 10 11 25 11 17 41 13 23 
64 16 32 92 19 37 143 21 40 181 22 29 208 10 32 244 4 76 250 4 110 250 4 124 
252 2 141 251 3 134 250 4 110 244 4 76 247 4 93 238 11 117 147 26 71 94 33 58 
46 30 29 41 13 23 53 14 27 107 21 41 181 22 29 237 5 35 250 4 110 251 3 134 
250 4 124 202 20 87 163 20 42 193 22 30 243 3 57 238 11 117 207 62 126 75 18 34 
64 16 32 107 21 41 193 22 30 243 3 57 250 4 124 250 4 110 224 12 60 219 14 86 
230 13 105 250 4 110 252 2 141 251 3 134 247 4 93 219 14 86 219 14 86 247 4 93 
252 2 141 251 3 134 230 13 105 147 26 71 131 32 68 147 26 71 147 26 71 193 22 30 
243 3 57 250 4 124 252 2 141 250 4 124 224 12 60 224 12 60 230 13 105 238 11 117 
224 12 60 208 10 32 219 14 86 219 14 86 244 4 76 238 11 117 230 13 105 183 18 75 
208 10 32 247 4 93 252 2 141 244 10 135 147 26 71 64 16 32 22 10 14 11 9 10 
11 11 13 9 9 9 10 10 10 11 11 11 11 11 11 10 10 10 11 11 11 10 10 10 
11 11 11 11 11 11 10 10 10 11 11 11 10 10 10 11 11 11 10 10 10 13 13 13 

11 11 11 11 11 11 10 10 10 10 10 10 9 9 9 13 13 13 10 10 10 11 11 11 
10 10 10 13 13 13 10 10 10 11 11 11 13 10 11 22 15 15 41 13 23 107 21 41 
185 15 50 219 14 86 230 13 105 202 20 87 147 26 71 94 33 58 75 32 51 41 13 23 
25 11 17 18 10 13 13 10 11 11 11 11 11 11 11 11 11 11 13 13 13 10 10 10 
11 11 11 13 13 13 13 10 11 13 10 11 11 11 13 26 11 11 53 14 27 125 21 41 
208 10 32 243 3 57 250 4 124 252 2 141 216 21 109 131 32 68 75 32 51 92 19 37 
125 21 41 193 22 30 237 5 35 247 4 93 251 3 134 230 13 105 147 26 71 75 32 51 
31 23 20 18 10 13 11 11 11 10 10 10 14 14 14 10 10 10 10 10 10 10 10 10 
10 10 10 11 11 11 11 11 11 18 10 13 31 12 13 75 18 34 115 31 63 115 31 63 
115 31 63 115 31 63 115 31 63 131 32 68 185 15 50 237 5 35 250 4 124 252 2 141 
238 11 117 147 26 71 75 32 51 31 12 13 18 10 13 11 11 11 9 9 9 10 10 10 
11 11 11 11 11 11 11 11 11 10 10 10 10 10 10 7 7 7 11 11 11 10 10 10 
10 13 10 11 11 11 13 13 13 11 9 10 13 10 11 13 13 13 13 10 11 11 9 10 
13 10 11 11 11 11 13 13 13 11 11 11 10 10 10 7 7 7 9 9 9 11 11 11 
11 11 11 11 11 11 11 11 11 11 11 11 10 10 10 9 9 9 10 10 10 13 13 13 
11 11 11 13 13 13 11 11 11 13 10 11 34 14 15 92 19 37 181 22 29 237 5 35 
250 4 124 252 2 141 251 3 134 216 21 109 115 31 63 53 14 27 18 10 13 11 11 11 
11 11 11 11 11 11 10 10 10 13 10 11 25 11 17 41 13 23 75 18 34 107 21 41 
163 20 42 193 22 30 224 12 60 247 4 93 250 4 124 251 3 134 251 3 134 250 4 124 
230 13 105 219 14 86 222 7 30 244 4 76 244 10 135 186 32 100 94 33 58 41 13 23 
31 12 13 53 14 27 125 21 41 193 22 30 243 3 57 250 4 124 252 2 141 238 11 117 
183 18 75 163 20 42 208 10 32 244 4 76 250 4 124 238 11 117 164 29 78 107 21 41 
107 21 41 181 22 29 237 5 35 250 4 124 251 3 134 244 4 76 219 14 86 230 13 105 
243 3 57 250 4 124 252 2 141 250 4 110 219 14 86 244 4 76 243 3 57 250 4 124 
252 2 141 238 11 117 183 18 75 163 20 42 202 20 87 186 32 100 202 20 87 237 5 35 
250 4 110 252 2 141 251 3 134 247 4 93 219 14 86 230 13 105 230 13 105 208 10 32 
224 12 60 230 13 105 230 13 105 219 14 86 216 21 109 202 20 87 147 26 71 147 26 71 
222 7 30 247 4 93 252 2 141 229 31 132 115 31 63 41 13 23 13 10 11 10 10 10 
7 7 7 11 11 11 9 9 9 11 11 11 11 11 11 11 11 11 10 10 10 10 10 10 
10 10 10 11 11 11 11 11 11 11 11 11 11 11 11 11 11 11 11 11 11 11 11 11 

13 13 13 11 11 11 11 11 11 9 9 9 9 9 9 11 11 11 10 10 10 13 13 13 
10 10 10 11 11 11 11 11 11 10 10 10 13 10 11 31 12 13 107 21 41 164 29 78 
186 32 100 186 32 100 147 26 71 94 33 58 54 26 46 41 13 23 22 15 15 18 10 13 
11 11 11 11 11 11 9 9 9 7 7 7 11 11 11 13 10 11 11 11 11 11 11 11 
11 11 11 7 7 7 9 9 9 10 10 10 22 10 14 53 14 27 107 21 41 193 22 30 
243 3 57 250 4 124 252 2 141 238 11 117 164 29 78 115 31 63 125 21 41 181 22 29 
222 7 30 244 4 76 250 4 124 250 4 124 219 14 86 131 32 68 75 32 51 34 14 15 
18 10 13 13 10 11 10 10 10 11 11 11 11 11 11 11 11 11 10 10 10 10 10 10 
11 11 11 11 11 11 9 9 9 11 9 10 13 10 11 25 11 17 41 13 23 53 14 27 
41 13 23 53 14 27 92 19 37 163 20 42 237 5 35 250 4 110 252 2 141 244 10 135 
186 32 100 94 33 58 41 13 23 22 10 14 13 10 11 10 10 10 13 13 13 11 9 10 
10 10 10 10 10 10 9 9 9 11 11 11 13 10 11 11 11 11 10 10 10 13 10 11 
11 9 10 22 10 14 34 14 15 34 14 15 38 13 15 34 14 15 25 11 17 18 10 13 
11 9 10 11 11 11 10 10 10 11 11 11 11 11 11 13 13 13 13 13 13 10 10 10 
10 10 10 11 11 11 10 10 10 9 9 9 9 9 9 11 11 11 11 11 11 11 11 11 
13 13 13 10 10 10 11 11 11 25 11 17 53 14 27 143 21 40 222 7 30 247 4 93 
252 2 141 252 2 141 244 10 135 147 26 71 75 32 51 25 11 17 13 10 11 11 9 10 
9 9 9 11 11 13 22 10 14 41 13 23 64 16 32 107 21 41 163 20 42 208 10 32 
243 3 57 250 4 110 251 3 134 251 3 134 250 4 124 238 11 117 219 14 86 183 18 75 
163 20 42 193 22 30 243 3 57 250 4 124 216 21 109 115 31 63 53 14 27 31 12 13 
53 14 27 107 21 41 193 22 30 243 3 57 250 4 124 252 2 141 238 11 117 183 18 75 
163 20 42 222 7 30 247 4 93 251 3 134 250 4 124 183 18 75 164 29 78 147 26 71 
185 15 50 237 5 35 250 4 110 251 3 134 250 4 110 219 14 86 230 13 105 243 3 57 
247 4 93 251 3 134 244 10 135 216 21 109 230 13 105 237 5 35 247 4 93 252 2 141 
244 10 135 202 20 87 185 15 50 219 14 86 216 21 109 202 20 87 222 7 30 244 4 76 
251 3 134 252 2 141 244 10 135 230 13 105 216 21 109 224 12 60 222 7 30 244 4 76 
238 11 117 230 13 105 202 20 87 216 21 109 164 29 78 115 31 63 115 31 63 185 15 50 
237 5 35 250 4 124 251 3 134 186 32 100 94 33 58 34 14 15 11 9 10 11 9 10 
11 11 11 11 9 10 11 11 11 11 11 11 10 10 10 10 10 10 11 11 11 9 9 9 
11 11 11 11 11 11 11 11 11 10 10 10 11 11 11 10 10 10 11 11 11 11 11 11 

10 10 10 11 11 11 11 11 11 11 11 11 10 10 10 10 10 10 11 11 11 11 11 11 
11 11 11 11 11 11 11 11 11 11 11 11 18 10 13 53 14 27 94 33 58 131 32 68 
147 26 71 94 33 58 75 32 51 41 13 23 25 11 17 13 10 11 11 11 13 11 11 13 
9 9 9 11 9 10 11 11 11 10 13 10 9 9 9 9 9 9 13 13 13 14 14 14 
9 9 9 11 11 11 11 9 10 18 10 13 41 13 23 92 19 37 181 22 29 237 5 35 
250 4 110 252 2 141 244 10 135 183 18 75 163 20 42 193 22 30 222 7 30 244 4 76 
250 4 124 251 3 134 238 11 117 183 18 75 115 31 63 75 32 51 25 11 17 18 10 13 
11 9 10 10 10 10 14 14 14 11 11 11 11 11 11 10 10 10 11 11 11 11 11 11 
7 7 7 11 11 11 13 13 13 11 11 11 9 9 9 13 10 11 13 13 13 18 10 13 
25 11 17 64 16 32 125 21 41 222 7 30 244 4 76 251 3 134 252 2 141 216 21 109 
131 32 68 75 18 34 53 14 27 38 13 15 25 11 17 13 10 11 11 9 10 11 11 11 
11 11 11 10 10 10 11 11 11 11 11 11 11 11 11 10 10 10 18 10 13 26 11 11 
41 13 23 64 16 32 92 19 37 107 21 41 107 21 41 107 21 41 64 16 32 31 12 13 
18 10 13 11 11 11 11 11 11 9 9 9 10 10 10 11 11 11 13 13 13 10 10 10 
11 11 11 13 13 13 10 10 10 11 11 11 11 11 11 10 10 10 11 11 11 11 9 10 
11 11 13 11 11 11 13 10 11 41 13 23 92 19 37 193 22 30 243 3 57 251 3 134 
252 2 141 252 2 141 186 32 100 94 33 58 38 13 15 13 10 11 11 11 11 10 10 10 
10 10 10 13 13 10 34 14 15 75 18 34 143 21 40 208 10 32 244 4 76 250 4 110 
251 3 134 250 4 124 238 11 117 219 14 86 183 18 75 147 26 71 115 31 63 147 26 71 
193 22 30 243 3 57 250 4 124 238 11 117 147 26 71 75 32 51 34 14 15 41 13 23 
92 19 37 181 22 29 243 3 57 250 4 124 252 2 141 238 11 117 183 18 75 181 22 29 
222 7 30 250 4 110 251 3 134 251 3 134 224 12 60 183 18 75 186 32 100 202 20 87 
237 5 35 247 4 93 252 2 141 251 3 134 230 13 105 216 21 109 224 12 60 243 3 57 
250 4 124 252 2 141 244 10 135 216 21 109 208 10 32 243 3 57 251 3 134 251 3 134 
219 14 86 208 10 32 230 13 105 216 21 109 186 32 100 185 15 50 237 5 35 250 4 110 
252 2 141 251 3 134 230 13 105 183 18 75 193 22 30 224 12 60 250 4 110 250 4 124 
216 21 109 164 29 78 164 29 78 131 32 68 115 31 63 115 31 63 163 20 42 222 7 30 
247 4 93 252 2 141 238 11 117 131 32 68 64 16 32 22 10 14 11 11 11 11 11 11 
9 9 9 11 11 11 11 11 11 10 10 10 11 11 11 11 11 11 10 10 10 9 9 9 
11 11 11 10 10 10 11 11 11 9 9 9 11 11 11 10 10 10 11 11 11 10 10 10 

10 10 10 13 13 13 10 10 10 9 9 9 10 10 10 11 11 11 11 11 11 11 11 11 
10 10 10 9 9 9 13 13 13 11 11 11 18 10 13 26 11 11 53 14 27 64 16 32 
46 30 29 35 30 27 25 11 17 18 10 13 11 9 10 11 9 10 11 11 11 9 9 9 
11 11 11 11 11 11 11 11 11 11 11 11 11 11 11 11 11 11 10 10 10 11 11 13 
13 10 11 13 13 10 13 10 11 41 13 23 75 18 34 163 20 42 237 5 35 250 4 110 
252 2 141 251 3 134 219 14 86 193 22 30 224 12 60 247 4 93 250 4 124 251 3 134 
250 4 124 216 21 109 147 26 71 94 33 58 54 26 46 25 11 17 13 10 11 9 9 9 
11 11 11 9 9 9 10 10 10 10 10 10 11 11 11 9 9 9 11 9 10 11 11 11 
11 11 11 11 11 11 11 9 10 10 10 10 11 11 11 11 11 11 7 7 7 22 10 14 
41 13 23 92 19 37 193 22 30 243 3 57 251 3 134 244 10 135 244 10 135 164 29 78 
94 33 58 92 19 37 125 21 41 107 21 41 75 18 34 34 14 15 13 10 11 13 10 11 
10 10 10 9 9 9 11 9 10 11 9 10 13 13 13 18 10 13 41 13 23 64 16 32 
107 21 41 163 20 42 193 22 30 224 12 60 219 14 86 202 20 87 147 26 71 64 16 32 
22 10 14 11 11 11 11 11 11 11 11 11 10 10 10 11 11 11 11 11 11 11 11 11 
11 11 11 11 11 11 11 11 11 11 11 11 11 11 11 11 11 11 11 11 11 9 9 9 
9 9 9 13 10 11 22 10 14 64 16 32 143 21 40 237 5 35 250 4 110 252 2 141 
252 2 141 238 11 117 131 32 68 54 26 46 22 10 14 13 10 11 11 11 11 9 9 9 
13 10 11 22 15 15 53 14 27 163 20 42 224 12 60 250 4 110 250 4 124 238 11 117 
219 14 86 183 18 75 147 26 71 115 31 63 94 33 58 94 33 58 115 31 63 193 22 30 
243 3 57 250 4 124 244 10 135 183 18 75 94 33 58 41 13 23 38 13 15 92 19 37 
163 20 42 237 5 35 250 4 110 252 2 141 244 10 135 183 18 75 181 22 29 243 3 57 
250 4 110 251 3 134 251 3 134 244 4 76 224 12 60 216 21 109 216 21 109 208 10 32 
243 3 57 251 3 134 252 2 141 244 10 135 229 31 132 202 20 87 222 7 30 247 4 93 
252 2 141 251 3 134 216 21 109 163 20 42 222 7 30 247 4 93 252 2 141 250 4 110 
243 3 57 238 11 117 230 13 105 164 29 78 115 31 63 185 15 50 237 5 35 250 4 124 
252 2 141 230 13 105 181 22 29 208 10 32 247 4 93 250 4 124 238 11 117 202 20 87 
115 31 63 94 33 58 94 33 58 131 32 68 163 20 42 193 22 30 224 12 60 247 4 93 
251 3 134 238 11 117 164 29 78 75 32 51 34 14 15 13 13 13 10 10 10 11 11 11 
10 10 10 11 11 11 9 9 9 9 9 9 11 11 11 7 7 7 11 11 11 10 10 10 
7 7 7 7 7 7 10 10 10 10 10 10 11 11 11 10 10 10 13 13 13 11 11 11 

11 11 11 9 9 9 13 13 13 10 10 10 11 11 11 11 11 11 11 11 11 13 13 13 
10 10 10 11 11 11 10 10 10 9 9 9 11 11 11 18 10 13 22 15 15 22 10 14 
18 10 13 18 10 13 13 10 11 9 9 9 11 11 11 11 11 11 9 9 9 7 7 7 
9 9 9 11 11 11 11 11 11 11 11 11 13 10 11 11 9 10 13 13 13 11 11 11 
13 10 11 18 10 13 41 13 23 64 16 32 143 21 40 222 7 30 247 4 93 252 2 141 
252 2 141 247 4 93 243 3 57 250 4 110 251 3 134 252 2 141 250 4 124 230 13 105 
183 18 75 115 31 63 75 32 51 41 13 23 18 10 13 13 10 11 11 9 10 11 9 10 
11 11 11 11 11 11 7 7 7 11 9 10 11 9 10 18 10 13 18 10 13 18 10 13 
22 10 14 22 10 14 13 10 11 11 11 13 11 11 11 10 10 10 18 10 13 31 12 13 
75 18 34 163 20 42 237 5 35 250 4 110 252 2 141 251 3 134 202 20 87 115 31 63 
125 21 41 193 22 30 224 12 60 216 21 109 158 50 100 75 18 34 22 10 14 14 14 14 
11 11 11 11 9 10 9 9 9 18 10 13 25 11 17 53 14 27 92 19 37 143 21 40 
208 10 32 244 4 76 250 4 110 250 4 124 250 4 110 216 21 109 158 50 100 75 18 34 
22 10 14 11 9 10 11 11 11 11 11 11 11 11 11 11 11 11 7 7 7 11 11 11 
10 10 10 11 11 11 11 11 11 7 7 7 9 9 9 10 10 10 11 11 11 9 9 9 
13 10 11 13 10 11 41 13 23 92 19 37 193 22 30 243 3 57 251 3 134 252 2 141 
244 10 135 186 32 100 94 33 58 34 14 15 13 10 11 9 9 9 10 10 10 9 9 9 
13 13 13 18 10 13 75 18 34 147 26 71 202 20 87 202 20 87 183 18 75 147 26 71 
115 31 63 75 32 51 54 26 46 53 14 27 64 16 32 125 21 41 193 22 30 243 3 57 
250 4 124 251 3 134 216 21 109 115 31 63 46 30 29 34 14 15 64 16 32 143 21 40 
222 7 30 247 4 93 252 2 141 251 3 134 219 14 86 185 15 50 243 3 57 250 4 110 
252 2 141 252 2 141 250 4 110 230 13 105 230 13 105 202 20 87 185 15 50 237 5 35 
250 4 110 252 2 141 252 2 141 244 10 135 202 20 87 185 15 50 237 5 35 250 4 124 
244 10 135 202 20 87 131 32 68 185 15 50 237 5 35 250 4 124 251 3 134 247 4 93 
250 4 110 230 13 105 147 26 71 94 33 58 92 19 37 185 15 50 243 3 57 251 3 134 
252 2 141 247 4 93 247 4 93 250 4 124 251 3 134 230 13 105 164 29 78 94 33 58 
54 26 46 41 13 23 75 18 34 147 26 71 219 14 86 247 4 93 250 4 110 238 11 117 
219 14 86 147 26 71 75 32 51 41 13 23 18 10 13 11 11 11 11 11 11 11 11 11 
11 11 11 10 10 10 11 11 11 10 10 10 11 11 11 7 7 7 9 9 9 11 11 11 
11 11 11 11 11 11 11 11 11 9 9 9 9 9 9 11 11 11 9 9 9 10 10 10 

10 10 10 10 10 10 11 11 11 11 11 11 11 11 11 9 9 9 11 11 11 9 9 9 
11 11 11 11 11 11 11 11 11 10 10 10 11 11 11 13 13 13 11 11 11 11 11 11 
11 11 11 11 11 11 10 10 10 14 14 14 11 11 11 9 9 9 10 10 10 10 10 10 
11 11 11 11 11 11 11 11 11 9 9 9 11 11 11 11 9 10 18 10 13 22 10 14 
34 14 15 53 14 27 75 18 34 143 21 40 208 10 32 244 4 76 251 3 134 252 2 141 
252 2 141 250 4 124 251 3 134 251 3 134 244 10 135 230 13 105 183 18 75 115 31 63 
75 32 51 46 30 29 25 11 17 18 10 13 11 11 11 9 9 9 13 13 13 10 10 10 
11 11 11 10 10 10 9 9 9 18 10 13 18 10 13 41 13 23 53 14 27 64 16 32 
64 16 32 53 14 27 34 14 15 22 10 14 18 10 13 13 10 11 22 10 14 53 14 27 
125 21 41 222 7 30 247 4 93 251 3 134 252 2 141 216 21 109 131 32 68 94 33 58 
163 20 42 237 5 35 250 4 124 244 10 135 207 62 126 94 33 58 31 12 13 13 13 13 
10 10 10 11 11 11 18 10 13 31 12 13 64 16 32 107 21 41 181 22 29 224 12 60 
250 4 110 251 3 134 250 4 124 219 14 86 208 10 32 186 32 100 115 31 63 53 14 27 
18 10 13 11 11 11 10 10 10 10 10 10 11 11 11 10 10 10 11 11 11 11 11 11 
11 11 11 9 9 9 10 10 10 10 10 10 11 11 11 9 9 9 7 7 7 11 11 11 
9 9 9 18 10 13 53 14 27 143 21 40 237 5 35 250 4 110 252 2 141 252 2 141 
216 21 109 131 32 68 53 14 27 18 10 13 11 9 10 11 11 11 14 14 14 10 10 10 
9 9 9 18 10 13 38 13 15 75 32 51 94 33 58 94 33 58 75 32 51 54 26 46 
46 30 29 25 11 17 34 14 15 64 16 32 125 21 41 193 22 30 243 3 57 250 4 124 
251 3 134 216 21 109 115 31 63 54 26 46 25 11 17 41 13 23 107 21 41 208 10 32 
244 4 76 251 3 134 252 2 141 247 4 93 224 12 60 219 14 86 244 4 76 251 3 134 
252 2 141 251 3 134 238 11 117 238 11 117 183 18 75 147 26 71 208 10 32 244 4 76 
251 3 134 252 2 141 244 10 135 202 20 87 131 32 68 164 29 78 219 14 86 238 11 117 
183 18 75 115 31 63 94 33 58 185 15 50 243 3 57 251 3 134 252 2 141 251 3 134 
230 13 105 147 26 71 75 32 51 41 13 23 64 16 32 147 26 71 224 12 60 250 4 124 
252 2 141 252 2 141 251 3 134 238 11 117 202 20 87 131 32 68 75 32 51 46 30 29 
22 10 14 22 10 14 41 13 23 92 19 37 131 32 68 147 26 71 164 29 78 147 26 71 
94 33 58 75 32 51 31 23 20 13 10 11 11 11 11 11 11 11 9 9 9 7 7 7 
10 10 10 10 10 10 11 11 11 10 10 10 9 9 9 7 7 7 11 11 11 11 11 11 
11 11 11 11 11 11 11 11 11 11 11 11 11 11 11 11 11 11 11 11 11 11 11 11 

10 10 10 11 11 11 13 13 13 11 11 11 11 11 11 10 10 10 10 10 10 14 14 14 
11 11 11 9 9 9 11 11 11 9 9 9 11 11 11 10 10 10 10 10 10 10 10 10 
13 13 13 11 11 11 10 10 10 13 13 13 11 11 11 11 11 11 11 11 11 11 11 11 
13 13 13 13 13 13 13 10 11 18 10 13 25 11 17 34 14 15 53 14 27 64 16 32 
92 19 37 125 21 41 163 20 42 208 10 32 243 3 57 251 3 134 252 2 141 252 2 141 
252 2 141 251 3 134 238 11 117 216 21 109 183 18 75 115 31 63 75 32 51 54 26 46 
25 11 17 18 10 13 18 10 13 11 11 11 11 11 11 10 10 10 11 11 11 9 9 9 
11 11 11 9 9 9 18 10 13 34 14 15 53 14 27 92 19 37 143 21 40 163 20 42 
185 15 50 147 26 71 94 33 58 41 13 23 22 15 15 18 10 13 41 13 23 107 21 41 
193 22 30 243 3 57 251 3 134 252 2 141 238 11 117 164 29 78 94 33 58 107 21 41 
185 15 50 243 3 57 251 3 134 252 2 141 186 32 100 75 32 51 31 12 13 13 10 11 
9 9 9 9 9 9 34 14 15 64 16 32 125 21 41 193 22 30 244 4 76 250 4 124 
252 2 141 238 11 117 183 18 75 185 15 50 237 5 35 229 31 132 131 32 68 41 13 23 
13 13 13 13 13 13 11 11 11 11 11 11 11 11 11 14 14 14 11 11 11 11 11 11 
11 11 11 9 9 9 9 9 9 11 11 11 11 11 11 14 14 14 9 9 9 11 11 11 
11 11 11 31 12 13 92 19 37 185 15 50 243 3 57 251 3 134 252 2 141 244 10 135 
186 32 100 94 33 58 31 12 13 18 10 13 11 11 11 10 10 10 13 13 13 11 11 11 
11 11 11 11 11 13 18 10 13 25 11 17 31 23 20 25 21 24 25 11 17 18 10 13 
18 10 13 31 12 13 64 16 32 125 21 41 193 22 30 243 3 57 250 4 124 244 10 135 
216 21 109 131 32 68 75 32 51 31 12 13 26 11 11 64 16 32 163 20 42 237 5 35 
250 4 110 252 2 141 250 4 124 244 4 76 219 14 86 244 4 76 247 4 93 252 2 141 
252 2 141 244 10 135 238 11 117 164 29 78 115 31 63 163 20 42 237 5 35 250 4 110 
252 2 141 251 3 134 216 21 109 115 31 63 75 32 51 94 33 58 131 32 68 131 32 68 
75 32 51 46 30 29 75 18 34 185 15 50 243 3 57 251 3 134 251 3 134 216 21 109 
131 32 68 75 32 51 34 14 15 22 10 14 34 14 15 92 19 37 131 32 68 183 18 75 
230 13 105 219 14 86 202 20 87 147 26 71 94 33 58 54 26 46 25 11 17 18 10 13 
13 10 11 11 9 10 22 10 14 34 14 15 53 14 27 54 26 46 54 26 46 54 26 46 
41 13 23 18 10 13 18 10 13 11 9 10 10 10 10 11 11 11 11 11 11 11 11 11 
11 11 11 10 10 10 11 11 11 11 11 11 10 10 10 10 10 10 9 9 9 11 11 11 
11 11 11 11 11 11 11 11 11 11 11 11 11 11 11 11 11 11 7 7 7 11 11 11 

11 11 11 10 10 10 9 9 9 10 10 10 11 11 11 13 13 13 13 13 13 11 11 11 
10 10 10 10 10 10 11 11 11 11 11 11 13 13 13 11 11 11 11 11 11 11 11 11 
7 7 7 13 10 11 13 13 13 11 11 11 9 9 9 10 10 10 11 11 11 18 10 13 
18 10 13 25 11 17 41 13 23 53 14 27 75 18 34 92 19 37 125 21 41 163 20 42 
193 22 30 224 12 60 244 4 76 250 4 110 251 3 134 252 2 141 252 2 141 251 3 134 
230 13 105 202 20 87 147 26 71 115 31 63 75 32 51 54 26 46 25 11 17 18 10 13 
13 10 11 11 11 11 13 10 11 11 11 13 11 11 11 11 9 10 9 9 9 13 13 13 
13 10 11 25 11 17 41 13 23 75 18 34 143 21 40 193 22 30 224 12 60 247 4 93 
250 4 124 229 31 132 186 32 100 94 33 58 34 14 15 34 14 15 75 18 34 163 20 42 
237 5 35 250 4 110 252 2 141 244 10 135 186 32 100 94 33 58 64 16 32 125 21 41 
208 10 32 243 3 57 251 3 134 244 10 135 164 29 78 75 32 51 25 11 17 13 10 11 
18 10 13 34 14 15 75 18 34 125 21 41 208 10 32 244 4 76 251 3 134 252 2 141 
230 13 105 164 29 78 164 29 78 222 7 30 247 4 93 229 31 132 131 32 68 41 13 23 
13 10 11 11 11 11 10 10 10 9 9 9 11 9 10 11 9 10 10 10 10 13 10 11 
11 11 11 11 9 10 10 10 10 13 13 13 10 10 10 11 11 11 11 11 11 13 13 13 
13 10 11 41 13 23 125 21 41 222 7 30 247 4 93 252 2 141 252 2 141 229 31 132 
131 32 68 64 16 32 18 10 13 10 10 10 11 11 11 10 10 10 11 9 10 10 10 10 
11 11 11 10 13 10 13 10 11 10 10 10 13 10 11 13 10 11 11 9 10 18 10 13 
38 13 15 75 18 34 125 21 41 208 10 32 244 4 76 250 4 124 252 2 141 230 13 105 
147 26 71 75 32 51 34 14 15 18 10 13 31 12 13 92 19 37 208 10 32 244 4 76 
252 2 141 251 3 134 238 11 117 216 21 109 219 14 86 237 5 35 250 4 124 252 2 141 
252 2 141 238 11 117 164 29 78 94 33 58 75 18 34 163 20 42 237 5 35 251 3 134 
252 2 141 230 13 105 131 32 68 75 32 51 31 12 13 34 14 15 41 13 23 46 30 29 
25 11 17 22 10 14 41 13 23 115 31 63 183 18 75 230 13 105 216 21 109 131 32 68 
75 32 51 31 12 13 18 10 13 11 9 10 18 10 13 41 13 23 64 16 32 94 33 58 
115 31 63 115 31 63 94 33 58 54 26 46 41 13 23 18 10 13 13 10 11 9 9 9 
9 9 9 9 9 9 9 9 9 18 10 13 18 10 13 22 10 14 18 10 13 18 10 13 
13 13 13 10 10 10 11 11 13 10 10 10 13 13 13 13 13 13 9 9 9 10 10 10 
11 11 11 11 11 11 11 11 11 9 9 9 10 10 10 11 11 11 11 11 11 11 11 11 
10 10 10 10 10 10 9 9 9 10 10 10 7 7 7 11 11 11 10 10 10 11 11 11 

10 10 10 11 11 11 11 11 11 10 10 10 11 11 11 11 11 11 11 11 11 11 11 11 
11 11 11 9 9 9 9 9 9 11 11 11 11 11 11 9 9 9 13 13 13 11 11 11 
10 13 10 11 11 11 9 9 9 13 10 11 11 11 11 13 13 13 18 10 13 25 11 17 
41 13 23 64 16 32 92 19 37 143 21 40 163 20 42 193 22 30 224 12 60 244 4 76 
250 4 110 250 4 124 252 2 141 252 2 141 252 2 141 251 3 134 250 4 124 216 21 109 
147 26 71 115 31 63 75 32 51 46 30 29 25 11 17 13 10 11 13 10 11 11 11 11 
11 11 11 11 11 11 9 9 9 11 11 11 13 10 11 10 10 10 11 11 13 11 9 10 
25 11 17 53 14 27 107 21 41 163 20 42 222 7 30 247 4 93 251 3 134 252 2 141 
250 4 124 251 3 134 229 31 132 115 31 63 41 13 23 64 16 32 125 21 41 222 7 30 
244 4 76 251 3 134 252 2 141 216 21 109 131 32 68 75 18 34 92 19 37 163 20 42 
237 5 35 250 4 110 251 3 134 244 10 135 158 50 100 94 33 58 41 13 23 34 14 15 
41 13 23 75 18 34 125 21 41 208 10 32 244 4 76 251 3 134 252 2 141 230 13 105 
147 26 71 131 32 68 193 22 30 243 3 57 250 4 124 216 21 109 115 31 63 41 13 23 
13 10 11 10 10 10 7 7 7 9 9 9 11 11 11 10 10 10 9 9 9 10 10 10 
11 11 11 11 11 11 11 11 11 10 10 10 11 11 11 11 11 11 11 11 11 13 10 11 
18 10 13 64 16 32 163 20 42 237 5 35 250 4 110 252 2 141 252 2 141 186 32 100 
94 33 58 34 14 15 11 11 11 7 7 7 10 10 10 11 11 11 10 10 10 11 11 11 
10 10 10 13 10 11 13 10 11 10 10 10 9 9 9 13 10 11 22 10 14 41 13 23 
92 19 37 143 21 40 222 7 30 244 4 76 251 3 134 252 2 141 230 13 105 147 26 71 
75 32 51 34 14 15 18 10 13 13 10 11 34 14 15 107 21 41 222 7 30 247 4 93 
252 2 141 252 2 141 244 10 135 216 21 109 185 15 50 244 4 76 251 3 134 251 3 134 
230 13 105 147 26 71 75 32 51 41 13 23 64 16 32 163 20 42 224 12 60 250 4 124 
238 11 117 147 26 71 75 32 51 34 14 15 18 10 13 13 10 11 13 10 11 13 10 11 
13 10 11 13 13 13 25 11 17 53 14 27 94 33 58 115 31 63 94 33 58 54 26 46 
25 11 17 13 13 13 11 11 11 10 10 10 11 11 11 13 10 11 22 10 14 34 14 15 
41 13 23 41 13 23 25 11 17 18 10 13 13 10 11 11 11 11 11 11 11 10 10 10 
11 11 11 11 11 11 9 9 9 9 9 9 10 13 10 13 13 13 11 11 11 11 11 11 
11 11 11 9 9 9 9 9 9 10 10 10 9 9 9 10 10 10 11 11 11 9 9 9 
9 9 9 11 11 11 9 9 9 13 13 13 10 10 10 11 11 11 10 10 10 9 9 9 
10 10 10 11 11 11 11 11 11 10 10 10 10 10 10 11 11 11 11 11 11 10 10 10 

11 11 11 13 13 13 9 9 9 11 11 11 13 13 13 10 10 10 9 9 9 11 11 11 
11 11 11 11 11 11 10 10 10 11 11 11 11 11 11 11 11 11 11 11 11 10 10 10 
9 9 9 10 13 10 10 10 10 11 11 11 11 9 10 13 10 11 18 10 13 41 13 23 
107 21 41 163 20 42 206 31 34 224 12 60 247 4 93 250 4 110 250 4 124 250 4 124 
250 4 110 247 4 93 250 4 110 252 2 141 252 2 141 250 4 110 243 3 57 244 10 135 
186 32 100 94 33 58 41 13 23 22 10 14 13 10 11 11 9 10 10 10 10 11 11 11 
11 11 11 13 13 13 11 11 11 13 13 13 11 11 11 11 11 11 13 10 11 31 12 13 
64 16 32 125 21 41 193 22 30 243 3 57 250 4 110 251 3 134 251 3 134 247 4 93 
244 4 76 251 3 134 216 21 109 115 31 63 64 16 32 107 21 41 193 22 30 243 3 57 
251 3 134 252 2 141 238 11 117 147 26 71 94 33 58 92 19 37 143 21 40 222 7 30 
247 4 93 250 4 110 250 4 110 252 2 141 229 31 132 158 50 100 92 19 37 92 19 37 
115 31 63 143 21 40 208 10 32 244 4 76 251 3 134 251 3 134 238 11 117 164 29 78 
131 32 68 185 15 50 237 5 35 250 4 110 244 10 135 186 32 100 75 32 51 25 11 17 
13 13 10 13 10 11 11 11 11 11 11 11 11 11 11 10 10 10 11 9 10 13 13 13 
11 11 11 13 10 11 13 13 13 13 13 13 11 11 11 11 11 11 11 9 10 13 10 11 
25 11 17 75 18 34 185 15 50 243 3 57 251 3 134 252 2 141 244 10 135 164 29 78 
64 16 32 22 10 14 10 10 10 13 10 11 9 9 9 11 11 11 11 11 11 9 9 9 
11 9 10 11 11 13 11 11 13 11 11 13 13 10 11 25 11 17 53 14 27 107 21 41 
163 20 42 222 7 30 247 4 93 251 3 134 252 2 141 230 13 105 147 26 71 75 32 51 
34 14 15 18 10 13 9 9 9 10 10 10 34 14 15 107 21 41 185 15 50 250 4 110 
251 3 134 238 11 117 183 18 75 115 31 63 131 32 68 183 18 75 230 13 105 219 14 86 
131 32 68 75 32 51 34 14 15 22 10 14 38 13 15 107 21 41 147 26 71 183 18 75 
164 29 78 75 32 51 31 23 20 18 10 13 11 11 11 10 13 10 10 10 10 11 11 11 
11 11 11 11 11 11 18 10 13 22 10 14 34 14 15 41 13 23 31 23 20 18 10 13 
13 10 11 13 13 10 9 9 9 11 11 11 11 11 11 13 10 11 13 10 11 11 9 10 
11 9 10 13 10 11 11 9 10 11 11 11 13 13 13 11 11 11 11 11 11 13 13 13 
11 11 11 11 11 11 11 11 11 10 10 10 9 9 9 14 14 14 11 9 10 10 10 10 
11 11 11 11 11 11 9 9 9 11 11 13 10 10 10 11 11 11 10 10 10 11 11 11 
13 13 13 10 10 10 10 10 10 10 10 10 10 10 10 10 10 10 13 13 13 9 9 9 
9 9 9 11 11 11 11 11 11 11 11 11 11 11 11 10 10 10 11 11 11 10 10 10 

11 11 11 10 10 10 11 11 11 10 10 10 11 11 11 10 10 10 10 10 10 10 10 10 
11 11 11 9 9 9 10 10 10 7 7 7 11 11 11 9 9 9 9 9 9 10 10 10 
10 10 10 13 13 13 11 9 10 9 9 9 10 13 10 18 10 13 31 12 13 92 19 37 
183 18 75 230 13 105 250 4 110 250 4 110 230 13 105 219 14 86 219 14 86 202 20 87 
222 7 30 243 3 57 251 3 134 252 2 141 238 11 117 183 18 75 237 5 35 250 4 110 
229 31 132 158 50 100 64 16 32 25 11 17 13 10 11 13 10 11 13 10 11 13 10 11 
13 10 11 13 10 11 13 10 11 11 9 10 13 10 11 13 10 11 31 12 13 53 14 27 
125 21 41 193 22 30 244 4 76 250 4 124 252 2 141 251 3 134 219 14 86 237 5 35 
250 4 110 244 10 135 164 29 78 94 33 58 92 19 37 163 20 42 237 5 35 250 4 110 
252 2 141 244 10 135 202 20 87 131 32 68 115 31 63 143 21 40 208 10 32 247 4 93 
250 4 110 243 3 57 247 4 93 251 3 134 244 10 135 186 32 100 163 20 42 183 18 75 
186 32 100 224 12 60 243 3 57 250 4 124 252 2 141 244 10 135 183 18 75 131 32 68 
163 20 42 222 7 30 247 4 93 252 2 141 230 13 105 115 31 63 53 14 27 22 10 14 
13 10 11 13 10 11 11 9 10 13 10 11 7 7 7 13 10 11 11 9 10 13 10 11 
11 9 10 13 10 11 11 9 10 13 10 11 11 9 10 11 9 10 11 9 10 13 10 11 
34 14 15 107 21 41 208 10 32 244 4 76 251 3 134 252 2 141 229 31 132 131 32 68 
41 13 23 22 10 14 13 10 11 13 10 11 11 9 10 11 9 10 13 10 11 13 13 10 
13 10 11 13 10 11 18 14 10 22 10 14 41 13 23 75 18 34 125 21 41 181 22 29 
237 5 35 250 4 110 251 3 134 251 3 134 230 13 105 147 26 71 75 32 51 34 14 15 
18 10 13 13 10 11 11 9 10 13 10 11 26 11 11 64 16 32 115 31 63 164 29 78 
183 18 75 147 26 71 94 33 58 54 26 46 64 16 32 94 33 58 115 31 63 94 33 58 
75 32 51 34 14 15 18 10 13 18 10 13 22 10 14 41 13 23 64 16 32 75 32 51 
54 26 46 34 14 15 18 10 13 13 13 10 13 10 11 11 9 10 11 9 10 13 10 11 
11 9 10 13 10 11 13 10 11 18 10 13 13 10 11 18 10 13 13 10 11 13 10 11 
11 9 10 13 10 11 11 9 10 13 10 11 13 10 11 11 9 10 13 10 11 13 10 11 
13 10 11 13 10 11 18 10 13 13 10 11 13 10 11 13 10 11 13 10 11 11 9 10 
11 9 10 13 10 11 11 9 10 11 9 10 11 9 10 13 10 11 13 10 11 11 9 10 
13 10 11 13 10 11 13 10 11 18 14 10 11 11 11 11 11 11 11 11 11 9 9 9 
11 11 11 11 11 11 10 10 10 10 10 10 11 11 11 10 10 10 11 11 11 13 13 13 
11 11 11 10 10 10 11 11 11 11 11 11 11 11 11 11 11 11 11 11 11 13 13 13 

10 10 10 10 10 10 11 11 11 11 11 11 9 9 9 11 11 11 9 9 9 7 7 7 
11 11 11 11 11 11 10 10 10 9 9 9 10 10 10 10 10 10 9 9 9 11 11 11 
11 11 11 10 10 10 9 9 9 26 11 11 31 12 13 38 13 15 47 21 8 92 19 37 
143 21 40 163 20 42 163 20 42 143 21 40 125 21 41 125 21 41 143 21 40 181 22 29 
237 5 35 250 4 124 252 2 141 250 4 124 183 18 75 143 21 40 208 10 32 247 4 93 
244 10 135 216 21 109 115 31 63 53 14 27 38 13 15 34 14 15 34 14 15 34 14 15 
34 14 15 34 14 15 34 14 15 34 14 15 38 13 15 38 13 15 75 18 34 125 21 41 
208 10 32 244 4 76 250 4 124 252 2 141 251 3 134 219 14 86 208 10 32 244 4 76 
250 4 124 202 20 87 143 21 40 147 26 71 163 20 42 222 7 30 247 4 93 251 3 134 
251 3 134 230 13 105 163 20 42 183 18 75 183 18 75 224 12 60 247 4 93 238 11 117 
224 12 60 237 5 35 250 4 124 252 2 141 250 4 124 208 10 32 219 14 86 216 21 109 
219 14 86 237 5 35 250 4 110 252 2 141 251 3 134 202 20 87 147 26 71 163 20 42 
222 7 30 247 4 93 251 3 134 238 11 117 163 20 42 92 19 37 47 21 8 38 13 15 
34 14 15 34 14 15 31 12 13 34 14 15 34 14 15 31 12 13 34 14 15 31 12 13 
38 13 15 31 12 13 34 14 15 34 14 15 34 14 15 34 14 15 31 12 13 47 21 8 
53 14 27 125 21 41 222 7 30 247 4 93 252 2 141 252 2 141 216 21 109 115 31 63 
53 14 27 34 14 15 31 12 13 34 14 15 31 12 13 34 14 15 34 14 15 34 14 15 
38 13 15 38 13 15 41 13 23 75 18 34 92 19 37 143 21 40 208 10 32 244 4 76 
250 4 124 252 2 141 251 3 134 230 13 105 143 21 40 92 19 37 53 14 27 38 13 15 
34 14 15 34 14 15 38 13 15 34 14 15 38 13 15 53 14 27 75 18 34 92 19 37 
75 18 34 75 18 34 46 30 29 47 21 8 41 13 23 53 14 27 53 14 27 46 30 29 
38 13 15 38 13 15 38 13 15 34 14 15 38 13 15 41 13 23 41 13 23 47 21 8 
38 13 15 38 13 15 31 12 13 34 14 15 34 14 15 34 14 15 34 14 15 31 12 13 
34 14 15 34 14 15 34 14 15 34 14 15 31 12 13 34 14 15 34 14 15 34 14 15 
34 14 15 31 12 13 34 14 15 34 14 15 31 12 13 34 14 15 34 14 15 31 12 13 
34 14 15 34 14 15 34 14 15 34 14 15 31 12 13 34 14 15 34 14 15 34 14 15 
31 12 13 31 12 13 34 14 15 34 14 15 34 14 15 34 14 15 34 14 15 31 12 13 
31 12 13 34 14 15 38 13 15 31 23 20 31 23 20 10 10 10 7 7 7 11 11 11 
9 9 9 11 11 11 10 10 10 11 11 11 11 11 11 9 9 9 10 10 10 11 11 11 
11 11 11 11 11 11 11 11 11 10 10 10 11 11 11 14 14 14 10 10 10 10 10 10 

11 11 11 11 11 11 11 11 11 13 13 13 10 10 10 10 10 10 11 11 11 10 10 10 
10 10 10 11 11 11 11 11 11 11 11 11 11 11 11 11 11 11 10 10 10 7 7 7 
11 11 11 11 9 10 26 11 11 26 11 11 11 11 13 5 1 38 5 1 38 5 1 38 
53 14 27 53 14 27 53 14 27 53 14 27 64 16 32 92 19 37 163 20 42 237 5 35 
250 4 110 252 2 141 244 10 135 183 18 75 92 19 37 107 21 41 185 15 50 243 3 57 
250 4 124 244 10 135 147 26 71 64 16 32 5 1 38 5 1 38 5 1 38 5 1 38 
5 1 38 5 1 38 5 1 38 5 1 38 5 1 38 41 13 23 92 19 37 181 22 29 
243 3 57 250 4 124 252 2 141 251 3 134 219 14 86 208 10 32 244 4 76 250 4 124 
219 14 86 181 22 29 183 18 75 183 18 75 208 10 32 243 3 57 250 4 124 252 2 141 
238 11 117 193 22 30 219 14 86 202 20 87 224 12 60 230 13 105 230 13 105 185 15 50 
222 7 30 247 4 93 252 2 141 251 3 134 244 4 76 219 14 86 230 13 105 202 20 87 
208 10 32 243 3 57 251 3 134 252 2 141 238 11 117 163 20 42 181 22 29 222 7 30 
247 4 93 252 2 141 250 4 124 183 18 75 75 18 34 41 13 23 5 1 38 5 1 38 
5 1 38 5 1 38 5 1 38 5 1 38 5 1 38 5 1 38 5 1 38 5 1 38 
5 1 38 5 1 38 5 1 38 5 1 38 5 1 38 5 1 38 5 1 38 5 1 38 
7 9 47 125 21 41 222 7 30 247 4 93 252 2 141 252 2 141 186 32 100 75 18 34 
5 1 38 5 1 38 5 1 38 5 1 38 5 1 38 5 1 38 5 1 38 5 1 38 
5 1 38 5 1 38 64 16 32 107 21 41 163 20 42 222 7 30 247 4 93 251 3 134 
252 2 141 251 3 134 219 14 86 125 21 41 64 16 32 5 1 38 5 1 38 5 1 38 
5 1 38 5 1 38 5 1 38 5 1 38 5 1 38 5 1 38 5 1 38 5 1 38 
5 1 38 5 1 38 5 1 38 5 1 38 5 1 38 5 1 38 5 1 38 5 1 38 
5 1 38 5 1 38 5 1 38 5 1 38 5 1 38 5 1 38 5 1 38 5 1 38 
5 1 38 5 1 38 5 1 38 5 1 38 5 1 38 5 1 38 5 1 38 5 1 38 
5 1 38 5 1 38 5 1 38 5 1 38 5 1 38 5 1 38 5 1 38 5 1 38 
5 1 38 5 1 38 5 1 38 5 1 38 5 1 38 5 1 38 5 1 38 5 1 38 
5 1 38 5 1 38 5 1 38 5 1 38 5 1 38 5 1 38 5 1 38 5 1 38 
5 1 38 5 1 38 5 1 38 5 1 38 5 1 38 5 1 38 5 1 38 5 1 38 
5 1 38 5 1 38 5 1 38 7 8 25 35 30 27 35 58 32 13 13 10 10 10 10 
11 11 13 11 11 11 9 9 9 10 10 10 11 11 11 11 11 11 11 11 11 11 11 11 
11 11 11 9 9 9 11 11 11 11 11 11 13 13 13 11 11 11 9 9 9 11 11 11 

9 9 9 11 11 11 11 11 11 11 11 11 10 10 10 10 10 10 10 10 10 10 10 10 
11 11 11 9 9 9 7 7 7 7 7 7 11 11 11 10 10 10 9 9 9 7 7 7 
9 9 9 18 14 10 18 10 13 28 33 48 99 119 146 136 164 191 136 164 191 136 164 191 
136 164 191 136 164 191 136 164 191 152 144 164 153 110 150 158 50 100 222 7 30 247 4 93 
251 3 134 251 3 134 202 20 87 128 89 98 152 144 164 171 129 167 207 62 126 224 12 60 
247 4 93 251 3 134 229 31 132 176 97 145 152 144 164 136 164 191 136 164 191 136 164 191 
136 164 191 136 164 191 136 164 191 136 164 191 152 144 164 153 110 150 183 18 75 237 5 35 
250 4 124 252 2 141 251 3 134 244 4 76 208 10 32 247 4 93 238 11 117 219 14 86 
208 10 32 230 13 105 216 21 109 219 14 86 237 5 35 250 4 110 252 2 141 250 4 124 
224 12 60 230 13 105 230 13 105 247 4 93 230 13 105 216 21 109 183 18 75 193 22 30 
243 3 57 251 3 134 252 2 141 250 4 110 230 13 105 230 13 105 202 20 87 164 29 78 
222 7 30 250 4 110 252 2 141 244 10 135 202 20 87 193 22 30 243 3 57 250 4 110 
251 3 134 238 11 117 183 18 75 129 89 121 159 162 175 156 188 206 156 188 206 156 188 206 
156 188 206 156 188 206 156 188 206 156 188 206 156 188 206 156 188 206 156 188 206 156 188 206 
156 188 206 156 188 206 156 188 206 156 188 206 156 188 206 156 188 206 156 188 206 156 188 206 
152 144 164 207 62 126 237 5 35 247 4 93 252 2 141 244 10 135 186 32 100 171 129 167 
156 188 206 156 188 206 156 188 206 156 188 206 156 188 206 156 188 206 159 162 175 152 144 164 
171 129 167 181 99 112 183 18 75 208 10 32 244 4 76 250 4 124 252 2 141 252 2 141 
238 11 117 202 20 87 138 59 86 152 144 164 156 188 206 156 188 206 156 188 206 156 188 206 
156 188 206 156 188 206 156 188 206 156 188 206 156 188 206 156 188 206 156 188 206 156 188 206 
156 188 206 156 188 206 156 188 206 156 188 206 156 188 206 156 188 206 156 188 206 156 188 206 
156 188 206 156 188 206 156 188 206 156 188 206 156 188 206 156 188 206 156 188 206 156 188 206 
156 188 206 156 188 206 156 188 206 156 188 206 156 188 206 156 188 206 156 188 206 156 188 206 
156 188 206 156 188 206 156 188 206 156 188 206 156 188 206 156 188 206 156 188 206 156 188 206 
156 188 206 156 188 206 156 188 206 156 188 206 156 188 206 156 188 206 156 188 206 156 188 206 
156 188 206 156 188 206 156 188 206 156 188 206 156 188 206 156 188 206 156 188 206 156 188 206 
156 188 206 156 188 206 156 188 206 156 188 206 156 188 206 156 188 206 156 188 206 156 188 206 
156 188 206 156 188 206 156 188 206 123 145 182 30 42 84 21 21 18 42 72 41 10 13 10 
9 9 9 10 10 10 11 11 11 11 11 11 10 10 10 10 10 10 10 10 10 11 11 11 
9 9 9 10 10 10 11 11 11 11 11 11 11 11 11 9 9 9 10 10 10 9 9 9 

11 11 11 9 9 9 9 9 9 10 10 10 11 11 11 11 11 11 11 11 11 11 11 11 
11 11 11 11 11 11 11 11 11 9 9 9 11 11 11 11 11 11 11 11 11 10 10 10 
11 9 10 13 1 13 26 33 27 136 164 191 184 197 214 193 196 199 199 198 204 197 195 201 
199 198 204 199 198 204 204 180 205 206 139 176 213 104 148 224 12 60 243 3 57 250 4 124 
252 2 141 230 13 105 138 59 86 159 162 175 197 195 201 204 180 205 213 104 148 202 20 87 
243 3 57 251 3 134 244 10 135 207 62 126 220 145 156 199 189 185 202 201 206 205 205 207 
205 205 207 205 205 207 202 201 206 204 180 205 206 139 176 215 64 101 237 5 35 247 4 93 
251 3 134 252 2 141 247 4 93 244 4 76 230 13 105 230 13 105 224 12 60 222 7 30 
230 13 105 238 11 117 219 14 86 222 7 30 244 4 76 251 3 134 251 3 134 247 4 93 
230 13 105 230 13 105 219 14 86 216 21 109 216 21 109 164 29 78 185 15 50 237 5 35 
250 4 110 252 2 141 252 2 141 244 10 135 230 13 105 164 29 78 158 50 100 215 64 101 
237 5 35 250 4 124 252 2 141 250 4 124 224 12 60 244 4 76 250 4 124 251 3 134 
238 11 117 183 18 75 129 89 121 193 192 198 213 211 212 216 214 214 221 217 216 221 217 216 
221 217 216 221 217 216 223 220 219 216 214 214 223 220 219 223 220 219 223 220 219 221 217 216 
223 220 219 223 220 219 223 220 219 221 217 216 223 220 219 223 220 219 223 220 219 221 217 216 
221 188 211 213 104 148 243 3 57 247 4 93 252 2 141 252 2 141 207 62 126 220 145 156 
235 204 196 221 217 216 221 217 216 222 207 217 235 204 196 228 174 187 220 145 156 213 104 148 
220 70 81 223 37 37 243 3 57 250 4 110 251 3 134 252 2 141 250 4 124 230 13 105 
164 29 78 129 89 121 179 171 192 216 214 214 229 224 222 229 224 222 228 228 227 228 228 227 
229 224 222 228 228 227 229 224 222 228 228 227 228 228 227 228 228 227 228 228 227 229 224 222 
229 224 222 228 228 227 228 228 227 228 228 227 228 228 227 228 228 227 228 228 227 228 228 227 
228 228 227 228 228 227 228 228 227 228 228 227 228 228 227 228 228 227 232 229 225 228 228 227 
228 228 227 228 228 227 228 228 227 228 228 227 228 228 227 228 228 227 228 228 227 228 228 227 
228 228 227 228 228 227 228 228 227 228 228 227 228 228 227 228 228 227 228 228 227 229 224 222 
229 224 222 228 228 227 228 228 227 228 228 227 228 228 227 229 224 222 228 228 227 228 228 227 
229 224 222 228 228 227 228 228 227 228 228 227 228 228 227 228 228 227 228 228 227 228 228 227 
228 228 227 229 224 222 228 228 227 228 228 227 228 228 227 228 228 227 228 228 227 228 228 227 
228 228 227 228 228 227 228 228 227 228 228 227 192 206 221 30 42 84 35 58 32 35 58 32 
7 7 7 10 10 10 10 10 10 7 7 7 10 10 10 11 11 11 10 10 10 9 9 9 
9 9 9 11 11 11 10 10 10 11 11 11 11 11 11 10 10 10 11 11 11 11 11 11 

9 9 9 11 11 11 10 10 10 10 10 10 11 11 11 10 10 10 11 11 11 11 11 11 
10 10 10 11 11 11 11 11 11 10 10 10 10 10 10 11 11 11 11 11 11 10 10 10 
11 9 10 7 7 7 90 124 91 193 196 199 197 195 201 199 198 204 199 198 204 199 198 204 
197 195 201 203 201 197 193 156 189 213 104 148 226 45 75 237 5 35 250 4 124 252 2 141 
238 11 117 158 50 100 152 144 164 193 192 198 203 201 197 204 180 205 206 139 176 207 62 126 
224 12 60 247 4 93 252 2 141 229 31 132 213 104 148 199 181 160 203 201 197 202 201 206 
205 205 207 205 205 207 205 205 207 204 180 205 213 104 148 224 12 60 244 4 76 251 3 134 
252 2 141 251 3 134 230 13 105 230 13 105 219 14 86 222 7 30 243 3 57 250 4 110 
238 11 117 202 20 87 185 15 50 237 5 35 250 4 124 252 2 141 251 3 134 238 11 117 
230 13 105 202 20 87 207 62 126 186 32 100 158 50 100 207 62 126 237 5 35 244 4 76 
252 2 141 252 2 141 252 2 141 230 13 105 164 29 78 153 110 150 206 139 176 207 62 126 
243 3 57 250 4 110 252 2 141 251 3 134 250 4 124 251 3 134 250 4 124 219 14 86 
147 26 71 126 118 124 193 192 198 213 211 212 221 217 216 216 214 214 221 217 216 216 214 214 
221 217 216 221 217 216 221 217 216 221 217 216 221 217 216 221 217 216 221 217 216 221 217 216 
221 217 216 221 217 216 221 217 216 221 217 216 223 220 219 221 217 216 221 217 216 221 217 216 
221 188 211 213 104 148 224 12 60 244 4 76 251 3 134 252 2 141 229 31 132 213 104 148 
220 145 156 228 174 187 228 174 187 220 145 156 220 145 156 211 97 97 220 70 81 223 37 37 
244 4 76 250 4 110 251 3 134 252 2 141 252 2 141 250 4 124 202 20 87 147 26 71 
149 132 147 199 198 204 223 220 219 223 220 219 229 224 222 230 227 223 229 224 222 230 227 223 
229 224 222 229 224 222 230 227 223 229 224 222 229 224 222 229 224 222 229 224 222 230 227 223 
229 224 222 229 224 222 230 227 223 229 224 222 230 227 223 230 227 223 229 224 222 230 227 223 
230 227 223 230 227 223 230 227 223 230 227 223 230 227 223 232 229 225 230 227 223 230 227 223 
229 224 222 230 227 223 230 227 223 229 224 222 230 227 223 230 227 223 230 227 223 229 224 222 
230 227 223 229 224 222 230 227 223 230 227 223 230 227 223 230 227 223 230 227 223 230 227 223 
232 229 225 230 227 223 230 227 223 230 227 223 230 227 223 230 227 223 229 224 222 230 227 223 
230 227 223 229 224 222 230 227 223 230 227 223 230 227 223 230 227 223 230 227 223 229 224 222 
230 227 223 230 227 223 232 229 225 230 227 223 230 227 223 230 227 223 230 227 223 229 224 222 
229 224 222 229 224 222 232 229 225 229 224 222 235 224 228 171 129 167 10 13 10 42 72 41 
10 13 10 9 9 9 10 10 10 11 11 11 11 11 11 11 11 11 11 11 11 13 13 13 
14 14 14 11 11 11 11 11 11 11 11 11 10 10 10 11 11 11 11 11 11 10 10 10 

10 10 10 11 11 11 11 11 11 9 9 9 11 11 11 7 7 7 9 9 9 10 10 10 
10 10 10 11 11 11 11 11 11 13 13 13 11 11 11 11 11 11 11 11 11 10 10 10 
13 13 13 2 3 1 118 150 120 193 196 199 197 195 201 199 198 204 197 195 201 202 201 206 
197 195 201 199 189 185 206 139 176 215 64 101 237 5 35 250 4 110 251 3 134 238 11 117 
164 29 78 149 132 147 193 192 198 202 201 206 199 198 204 202 201 206 204 180 205 213 104 148 
202 20 87 243 3 57 250 4 124 244 10 135 207 62 126 220 145 156 199 189 185 203 201 197 
205 205 207 205 205 207 204 180 205 206 139 176 215 64 101 237 5 35 250 4 110 252 2 141 
251 3 134 238 11 117 219 14 86 208 10 32 222 7 30 244 4 76 250 4 124 230 13 105 
183 18 75 183 18 75 237 5 35 247 4 93 252 2 141 252 2 141 244 10 135 230 13 105 
164 29 78 176 97 145 176 97 145 149 132 147 206 139 176 215 64 101 237 5 35 250 4 124 
252 2 141 252 2 141 230 13 105 158 50 100 149 132 147 197 195 201 204 180 205 213 104 148 
216 21 109 230 13 105 244 10 135 250 4 124 250 4 124 230 13 105 183 18 75 138 59 86 
152 144 164 193 192 198 213 211 212 221 217 216 221 217 216 221 217 216 216 214 214 216 214 214 
216 214 214 216 214 214 221 217 216 221 217 216 221 217 216 221 217 216 221 217 216 216 214 214 
221 217 216 221 217 216 223 220 219 221 217 216 221 217 216 221 217 216 221 217 216 221 217 216 
221 188 211 206 139 176 216 21 109 243 3 57 251 3 134 252 2 141 244 10 135 229 31 132 
215 64 101 211 97 97 220 70 81 226 45 75 237 40 38 243 3 57 247 4 93 250 4 124 
251 3 134 252 2 141 252 2 141 244 10 135 230 13 105 164 29 78 129 89 121 159 162 175 
209 208 211 223 220 219 229 224 222 229 224 222 229 224 222 229 224 222 230 227 223 229 224 222 
229 224 222 229 224 222 230 227 223 229 224 222 230 227 223 229 224 222 232 229 225 230 227 223 
230 227 223 229 224 222 230 227 223 229 224 222 229 224 222 232 229 225 229 224 222 232 229 225 
230 227 223 232 229 225 230 227 223 229 224 222 229 224 222 229 224 222 230 227 223 230 227 223 
229 224 222 229 224 222 229 224 222 229 224 222 232 229 225 230 227 223 229 224 222 232 229 225 
230 227 223 230 227 223 230 227 223 232 229 225 232 229 225 230 227 223 232 229 225 232 229 225 
230 227 223 230 227 223 232 229 225 229 224 222 230 227 223 229 224 222 232 229 225 232 229 225 
232 229 225 230 227 223 230 227 223 230 227 223 232 229 225 232 229 225 232 229 225 230 227 223 
229 224 222 230 227 223 230 227 223 232 229 225 230 227 223 230 227 223 230 227 223 230 227 223 
230 227 223 229 224 222 229 224 222 230 227 223 235 224 228 193 156 189 13 1 13 42 72 41 
10 13 10 10 10 10 10 10 10 9 9 9 13 13 13 11 11 11 11 11 11 11 11 11 
11 11 11 11 11 11 11 11 11 13 13 13 11 11 11 11 11 11 11 11 11 11 11 11 

10 10 10 11 11 11 11 11 11 10 10 10 11 11 11 7 7 7 11 11 11 11 11 11 
10 10 10 10 10 10 11 11 11 11 11 11 11 11 11 11 11 11 11 11 11 11 11 11 
11 11 13 2 3 1 118 150 120 199 198 204 197 195 201 197 195 201 197 195 201 199 198 204 
199 189 185 206 139 176 207 62 126 237 5 35 244 4 76 251 3 134 244 10 135 183 18 75 
126 118 124 199 189 185 202 201 206 202 201 206 199 198 204 202 201 206 204 180 205 206 139 176 
207 62 126 224 12 60 247 4 93 252 2 141 244 10 135 213 104 148 220 145 156 199 189 185 
203 201 197 202 201 206 204 180 205 206 139 176 226 45 75 243 3 57 250 4 124 252 2 141 
230 13 105 185 15 50 208 10 32 243 3 57 250 4 110 250 4 124 219 14 86 147 26 71 
158 50 100 202 20 87 243 3 57 251 3 134 252 2 141 251 3 134 216 21 109 138 59 86 
149 132 147 179 171 192 179 171 192 204 180 205 206 139 176 226 45 75 244 4 76 251 3 134 
251 3 134 230 13 105 138 59 86 152 144 164 202 201 206 213 211 212 221 188 211 228 174 187 
176 97 145 158 50 100 186 32 100 183 18 75 164 29 78 138 59 86 126 118 124 179 171 192 
209 208 211 216 214 214 216 214 214 221 217 216 216 214 214 221 217 216 221 217 216 223 220 219 
223 220 219 221 217 216 221 217 216 216 214 214 221 217 216 223 220 219 221 217 216 221 217 216 
221 217 216 221 217 216 221 217 216 221 217 216 221 217 216 221 217 216 221 217 216 221 217 216 
222 207 217 228 174 187 207 62 126 219 14 86 247 4 93 252 2 141 252 2 141 244 10 135 
238 11 117 247 4 93 247 4 93 250 4 110 250 4 124 251 3 134 252 2 141 252 2 141 
252 2 141 251 3 134 230 13 105 183 18 75 138 59 86 149 132 147 197 195 201 223 220 219 
229 224 222 229 224 222 229 224 222 230 227 223 229 224 222 229 224 222 223 220 219 230 227 223 
229 224 222 229 224 222 229 224 222 229 224 222 229 224 222 230 227 223 230 227 223 229 224 222 
229 224 222 229 224 222 230 227 223 230 227 223 230 227 223 230 227 223 230 227 223 229 224 222 
229 224 222 229 224 222 230 227 223 230 227 223 229 224 222 230 227 223 230 227 223 232 229 225 
229 224 222 230 227 223 229 224 222 232 229 225 232 229 225 229 224 222 232 229 225 232 229 225 
230 227 223 230 227 223 230 227 223 230 227 223 230 227 223 230 227 223 230 227 223 230 227 223 
230 227 223 229 224 222 230 227 223 230 227 223 229 224 222 230 227 223 229 224 222 230 227 223 
229 224 222 230 227 223 232 229 225 230 227 223 232 229 225 230 227 223 230 227 223 230 227 223 
230 227 223 230 227 223 230 227 223 230 227 223 232 229 225 230 227 223 229 224 222 230 227 223 
230 227 223 230 227 223 229 224 222 230 227 223 235 224 228 193 156 189 13 1 13 42 72 41 
10 13 10 13 10 11 13 13 13 11 11 11 11 11 11 11 11 11 11 11 11 11 11 11 
11 11 11 13 13 13 11 11 11 13 13 13 9 9 9 10 10 10 11 11 11 11 11 11 

10 10 10 10 10 10 11 11 11 11 11 11 14 14 14 11 11 11 9 9 9 10 10 10 
14 14 14 13 13 13 11 11 11 11 11 11 9 9 9 11 11 11 7 7 7 9 9 9 
10 10 10 2 3 1 118 150 120 193 196 199 197 195 201 199 198 204 197 195 201 197 195 201 
193 156 189 213 104 148 224 12 60 243 3 57 250 4 124 251 3 134 202 20 87 128 89 98 
179 171 192 199 198 204 202 201 206 202 201 206 202 201 206 199 198 204 197 195 201 204 180 205 
213 104 148 202 20 87 243 3 57 250 4 124 252 2 141 229 31 132 213 104 148 199 189 185 
203 201 197 202 201 206 204 180 205 206 139 176 226 45 75 243 3 57 251 3 134 251 3 134 
244 4 76 244 4 76 250 4 110 251 3 134 238 11 117 202 20 87 138 59 86 149 132 147 
206 139 176 226 45 75 244 4 76 251 3 134 250 4 124 219 14 86 138 59 86 152 144 164 
199 198 204 205 205 207 209 208 211 202 201 206 228 174 187 207 62 126 202 20 87 230 13 105 
216 21 109 138 59 86 149 132 147 202 201 206 213 211 212 213 211 212 213 211 212 222 207 217 
204 180 205 193 156 189 153 110 150 153 110 150 152 144 164 179 171 192 202 201 206 213 211 212 
216 214 214 216 214 214 213 211 212 221 217 216 216 214 214 221 217 216 221 217 216 221 217 216 
221 217 216 216 214 214 221 217 216 221 217 216 221 217 216 223 220 219 223 220 219 221 217 216 
221 217 216 221 217 216 221 217 216 223 220 219 221 217 216 223 220 219 223 220 219 221 217 216 
221 217 216 221 188 211 206 139 176 207 62 126 202 20 87 238 11 117 251 3 134 252 2 141 
252 2 141 252 2 141 252 2 141 252 2 141 252 2 141 252 2 141 252 2 141 250 4 124 
230 13 105 202 20 87 138 59 86 126 118 124 179 171 192 216 214 214 223 220 219 228 228 227 
230 227 223 229 224 222 229 224 222 229 224 222 229 224 222 230 227 223 229 224 222 229 224 222 
229 224 222 230 227 223 229 224 222 230 227 223 229 224 222 230 227 223 230 227 223 230 227 223 
229 224 222 230 227 223 229 224 222 230 227 223 230 227 223 230 227 223 230 227 223 230 227 223 
229 224 222 232 229 225 230 227 223 229 224 222 230 227 223 232 229 225 230 227 223 232 229 225 
230 227 223 229 224 222 230 227 223 230 227 223 230 227 223 230 227 223 230 227 223 232 229 225 
230 227 223 230 227 223 230 227 223 229 224 222 232 229 225 230 227 223 229 224 222 232 229 225 
230 227 223 230 227 223 230 227 223 230 227 223 230 227 223 230 227 223 230 227 223 229 224 222 
230 227 223 230 227 223 229 224 222 232 229 225 230 227 223 232 229 225 230 227 223 229 224 222 
230 227 223 230 227 223 230 227 223 232 229 225 229 224 222 232 229 225 229 224 222 232 229 225 
230 227 223 230 227 223 229 224 222 230 227 223 235 224 228 193 156 189 13 1 13 42 72 41 
10 13 10 11 9 10 11 11 11 9 9 9 10 10 10 11 11 11 11 11 11 13 13 13 
10 10 10 11 11 11 11 11 11 9 9 9 7 7 7 10 10 10 10 10 10 10 10 10 

11 11 11 7 7 7 11 11 11 14 14 14 11 11 11 13 13 13 11 11 11 11 11 11 
10 10 10 13 13 13 10 10 10 10 10 10 9 9 9 11 11 11 13 13 13 13 13 13 
9 9 9 2 3 1 118 150 120 199 198 204 197 195 201 199 198 204 197 195 201 193 156 189 
213 104 148 226 45 75 237 5 35 250 4 124 251 3 134 216 21 109 138 59 86 159 162 175 
197 195 201 199 198 204 205 205 207 199 198 204 199 198 204 202 201 206 202 201 206 199 198 204 
206 139 176 207 62 126 224 12 60 247 4 93 252 2 141 244 10 135 207 62 126 220 145 156 
199 189 185 202 201 206 204 180 205 206 139 176 215 64 101 244 4 76 250 4 124 252 2 141 
251 3 134 251 3 134 250 4 124 230 13 105 164 29 78 129 89 121 159 162 175 204 180 205 
193 156 189 207 62 126 186 32 100 216 21 109 202 20 87 138 59 86 159 162 175 202 201 206 
209 208 211 209 208 211 209 208 211 209 208 211 221 188 211 206 139 176 176 97 145 158 50 100 
138 59 86 152 144 164 197 195 201 209 208 211 213 211 212 213 211 212 213 211 212 213 211 212 
209 208 211 202 201 206 197 195 201 202 201 206 209 208 211 213 211 212 213 211 212 216 214 214 
216 214 214 221 217 216 216 214 214 216 214 214 216 214 214 221 217 216 216 214 214 216 214 214 
221 217 216 221 217 216 216 214 214 216 214 214 221 217 216 221 217 216 216 214 214 221 217 216 
221 217 216 221 217 216 221 217 216 221 217 216 221 217 216 221 217 216 221 217 216 221 217 216 
221 217 216 222 207 217 221 188 211 206 139 176 176 97 145 186 32 100 216 21 109 250 4 124 
250 4 124 251 3 134 251 3 134 251 3 134 250 4 124 230 13 105 219 14 86 183 18 75 
138 59 86 129 89 121 179 171 192 205 205 207 223 220 219 229 224 222 229 224 222 229 224 222 
230 227 223 223 220 219 229 224 222 229 224 222 230 227 223 229 224 222 229 224 222 229 224 222 
223 220 219 229 224 222 230 227 223 230 227 223 230 227 223 230 227 223 229 224 222 230 227 223 
229 224 222 230 227 223 230 227 223 229 224 222 230 227 223 229 224 222 230 227 223 230 227 223 
229 224 222 232 229 225 229 224 222 232 229 225 232 229 225 230 227 223 230 227 223 232 229 225 
230 227 223 230 227 223 230 227 223 232 229 225 229 224 222 230 227 223 230 227 223 232 229 225 
232 229 225 230 227 223 230 227 223 232 229 225 230 227 223 230 227 223 230 227 223 230 227 223 
232 229 225 230 227 223 232 229 225 230 227 223 232 229 225 229 224 222 230 227 223 230 227 223 
230 227 223 230 227 223 230 227 223 230 227 223 230 227 223 229 224 222 232 229 225 230 227 223 
232 229 225 230 227 223 232 229 225 229 224 222 229 224 222 230 227 223 230 227 223 230 227 223 
229 224 222 229 224 222 230 227 223 229 224 222 235 224 228 193 156 189 13 1 13 42 72 41 
10 13 10 10 10 10 9 9 9 9 9 9 11 11 11 11 11 11 11 11 11 11 11 11 
11 11 11 11 11 11 11 11 11 11 11 11 11 11 11 11 11 11 7 7 7 10 10 10 

9 9 9 11 11 11 11 11 11 11 11 11 11 11 11 10 10 10 11 11 11 9 9 9 
11 11 11 14 14 14 11 11 11 10 10 10 10 10 10 13 13 13 11 11 11 10 10 10 
9 9 9 2 3 1 118 150 120 199 198 204 199 198 204 197 195 201 204 180 205 206 139 176 
215 64 101 237 5 35 247 4 93 251 3 134 230 13 105 138 59 86 152 144 164 193 192 198 
199 198 204 199 198 204 202 201 206 202 201 206 199 198 204 199 198 204 202 201 206 199 198 204 
204 180 205 213 104 148 186 32 100 243 3 57 250 4 124 252 2 141 229 31 132 213 104 148 
228 174 187 203 201 197 199 198 204 193 156 189 213 104 148 186 32 100 230 13 105 238 11 117 
238 11 117 230 13 105 183 18 75 138 59 86 149 132 147 179 171 192 202 201 206 202 201 206 
204 180 205 193 156 189 176 97 145 129 89 121 129 89 121 159 162 175 202 201 206 209 208 211 
209 208 211 209 208 211 209 208 211 213 211 212 205 205 207 204 180 205 204 180 205 179 171 192 
179 171 192 205 205 207 209 208 211 213 211 212 213 211 212 213 211 212 213 211 212 213 211 212 
209 208 211 216 214 214 216 214 214 216 214 214 216 214 214 213 211 212 216 214 214 216 214 214 
216 214 214 216 214 214 216 214 214 216 214 214 216 214 214 221 217 216 221 217 216 221 217 216 
221 217 216 216 214 214 221 217 216 221 217 216 216 214 214 216 214 214 221 217 216 221 217 216 
221 217 216 221 217 216 221 217 216 221 217 216 221 217 216 221 217 216 221 217 216 221 217 216 
223 220 219 221 217 216 222 207 217 221 188 211 193 156 189 171 129 167 158 50 100 164 29 78 
183 18 75 202 20 87 202 20 87 183 18 75 164 29 78 138 59 86 128 89 98 149 132 147 
179 171 192 205 205 207 223 220 219 223 220 219 229 224 222 229 224 222 229 224 222 230 227 223 
223 220 219 229 224 222 223 220 219 223 220 219 229 224 222 233 226 216 229 224 222 229 224 222 
229 224 222 229 224 222 229 224 222 230 227 223 229 224 222 230 227 223 229 224 222 229 224 222 
229 224 222 229 224 222 230 227 223 230 227 223 230 227 223 230 227 223 229 224 222 230 227 223 
230 227 223 229 224 222 230 227 223 232 229 225 230 227 223 232 229 225 230 227 223 230 227 223 
229 224 222 230 227 223 232 229 225 230 227 223 230 227 223 230 227 223 230 227 223 230 227 223 
229 224 222 232 229 225 230 227 223 230 227 223 229 224 222 230 227 223 230 227 223 230 227 223 
230 227 223 230 227 223 230 227 223 229 224 222 232 229 225 230 227 223 229 224 222 229 224 222 
230 227 223 230 227 223 229 224 222 230 227 223 232 229 225 229 224 222 230 227 223 230 227 223 
230 227 223 232 229 225 230 227 223 230 227 223 229 224 222 230 227 223 232 229 225 229 224 222 
230 227 223 230 227 223 230 227 223 229 224 222 235 224 228 193 156 189 13 1 13 42 72 41 
10 13 10 11 9 10 10 10 10 13 13 13 11 11 11 10 10 10 13 13 13 11 11 11 
11 11 11 11 11 11 11 11 11 10 10 10 10 10 10 10 10 10 10 10 10 11 11 11 

11 11 11 11 11 11 11 11 11 11 11 11 10 10 10 11 11 11 11 11 11 11 11 11 
11 11 11 10 10 10 10 10 10 11 11 11 10 10 10 11 11 11 10 10 10 13 13 13 
9 9 9 2 3 1 118 150 120 193 196 199 199 198 204 193 192 198 206 139 176 213 104 148 
222 7 30 244 4 76 250 4 124 238 11 117 164 29 78 149 132 147 193 192 198 199 198 204 
199 198 204 197 195 201 199 198 204 199 198 204 202 201 206 202 201 206 199 198 204 202 201 206 
197 195 201 193 156 189 213 104 148 219 14 86 244 4 76 251 3 134 244 10 135 207 62 126 
220 145 156 199 189 185 203 201 197 204 180 205 193 156 189 176 97 145 158 50 100 164 29 78 
147 26 71 138 59 86 126 118 124 159 162 175 199 198 204 205 205 207 205 205 207 209 208 211 
202 201 206 197 195 201 204 180 205 179 171 192 193 192 198 205 205 207 209 208 211 209 208 211 
209 208 211 209 208 211 209 208 211 209 208 211 209 208 211 209 208 211 209 208 211 205 205 207 
209 208 211 209 208 211 213 211 212 213 211 212 213 211 212 213 211 212 213 211 212 213 211 212 
213 211 212 213 211 212 213 211 212 213 211 212 213 211 212 216 214 214 216 214 214 216 214 214 
213 211 212 216 214 214 216 214 214 216 214 214 216 214 214 216 214 214 216 214 214 221 217 216 
221 217 216 221 217 216 221 217 216 223 220 219 221 217 216 221 217 216 221 217 216 216 214 214 
221 217 216 221 217 216 221 217 216 221 217 216 221 217 216 221 217 216 221 217 216 221 217 216 
223 220 219 221 217 216 221 217 216 221 217 216 222 207 217 221 188 211 193 156 189 171 129 167 
153 110 150 153 110 150 129 89 121 153 110 150 152 144 164 179 171 192 197 195 201 216 214 214 
221 217 216 223 220 219 223 220 219 223 220 219 223 220 219 223 220 219 229 224 222 223 220 219 
229 224 222 229 224 222 229 224 222 229 224 222 229 224 222 223 220 219 229 224 222 233 226 216 
229 224 222 229 224 222 230 227 223 223 220 219 229 224 222 229 224 222 229 224 222 230 227 223 
229 224 222 230 227 223 229 224 222 229 224 222 229 224 222 230 227 223 232 229 225 230 227 223 
229 224 222 230 227 223 229 224 222 229 224 222 230 227 223 232 229 225 230 227 223 230 227 223 
230 227 223 230 227 223 229 224 222 229 224 222 230 227 223 232 229 225 230 227 223 229 224 222 
229 224 222 230 227 223 230 227 223 230 227 223 229 224 222 230 227 223 229 224 222 229 224 222 
229 224 222 230 227 223 230 227 223 229 224 222 230 227 223 230 227 223 230 227 223 230 227 223 
230 227 223 230 227 223 229 224 222 230 227 223 229 224 222 230 227 223 229 224 222 230 227 223 
230 227 223 229 224 222 230 227 223 230 227 223 230 227 223 230 227 223 230 227 223 229 224 222 
230 227 223 229 224 222 229 224 222 230 227 223 235 224 228 193 156 189 13 1 13 42 72 41 
9 9 9 11 11 11 11 11 11 9 9 9 9 9 9 7 7 7 11 11 11 11 11 11 
11 11 11 13 13 13 11 11 11 11 11 11 11 11 11 10 10 10 11 11 11 11 11 11 

11 11 11 11 11 11 10 10 10 11 11 11 13 13 13 11 11 11 11 11 11 10 10 10 
10 10 10 11 11 11 9 9 9 9 9 9 11 11 11 13 13 13 10 10 10 10 10 10 
7 7 7 2 3 1 118 150 120 197 195 201 193 192 198 193 156 189 213 104 148 226 45 75 
237 5 35 250 4 110 250 4 124 164 29 78 132 129 128 193 192 198 199 198 204 199 198 204 
199 198 204 199 198 204 199 198 204 199 198 204 202 201 206 199 198 204 202 201 206 199 198 204 
202 201 206 204 180 205 206 139 176 207 62 126 224 12 60 250 4 110 252 2 141 244 10 135 
213 104 148 220 145 156 199 189 185 203 201 197 199 198 204 204 180 205 193 156 189 171 129 167 
152 144 164 179 171 192 193 192 198 202 201 206 205 205 207 205 205 207 205 205 207 209 208 211 
205 205 207 205 205 207 205 205 207 209 208 211 205 205 207 209 208 211 209 208 211 209 208 211 
209 208 211 209 208 211 209 208 211 213 211 212 213 211 212 213 211 212 205 205 207 213 211 212 
209 208 211 209 208 211 213 211 212 213 211 212 209 208 211 213 211 212 213 211 212 213 211 212 
213 211 212 216 214 214 213 211 212 213 211 212 216 214 214 213 211 212 216 214 214 213 211 212 
216 214 214 216 214 214 216 214 214 213 211 212 216 214 214 216 214 214 216 214 214 213 211 212 
216 214 214 216 214 214 216 214 214 216 214 214 221 217 216 216 214 214 221 217 216 216 214 214 
221 217 216 221 217 216 221 217 216 216 214 214 221 217 216 221 217 216 221 217 216 223 220 219 
221 217 216 221 217 216 221 217 216 221 217 216 221 217 216 221 217 216 222 207 217 222 207 217 
209 208 211 202 201 206 202 201 206 213 211 212 216 214 214 223 220 219 223 220 219 223 220 219 
223 220 219 229 224 222 223 220 219 223 220 219 221 217 216 229 224 222 223 220 219 223 220 219 
229 224 222 229 224 222 229 224 222 223 220 219 229 224 222 223 220 219 229 224 222 229 224 222 
223 220 219 229 224 222 229 224 222 229 224 222 229 224 222 230 227 223 232 229 225 230 227 223 
229 224 222 229 224 222 230 227 223 230 227 223 229 224 222 229 224 222 229 224 222 230 227 223 
230 227 223 230 227 223 229 224 222 229 224 222 230 227 223 230 227 223 230 227 223 232 229 225 
230 227 223 230 227 223 232 229 225 232 229 225 230 227 223 230 227 223 230 227 223 230 227 223 
232 229 225 229 224 222 229 224 222 230 227 223 230 227 223 230 227 223 230 227 223 229 224 222 
230 227 223 229 224 222 229 224 222 230 227 223 232 229 225 232 229 225 230 227 223 230 227 223 
229 224 222 229 224 222 230 227 223 229 224 222 232 229 225 230 227 223 230 227 223 229 224 222 
229 224 222 230 227 223 230 227 223 232 229 225 230 227 223 230 227 223 232 229 225 229 224 222 
229 224 222 232 229 225 230 227 223 232 229 225 235 224 228 193 156 189 13 1 13 42 72 41 
10 13 10 9 9 9 11 11 11 10 10 10 11 11 11 11 11 11 10 10 10 7 7 7 
11 11 11 11 11 11 13 13 13 9 9 9 9 9 9 10 10 10 11 11 11 11 11 11 

10 10 10 11 11 11 11 11 11 11 11 11 9 9 9 9 9 9 13 13 13 11 11 11 
11 11 11 11 11 11 7 7 7 10 10 10 10 10 10 10 10 10 11 11 11 11 11 11 
9 9 9 2 3 1 118 150 120 197 195 201 204 180 205 206 139 176 215 64 101 237 5 35 
250 4 110 250 4 124 186 32 100 129 89 121 179 171 192 199 198 204 197 195 201 197 195 201 
199 198 204 197 195 201 202 201 206 199 198 204 199 198 204 202 201 206 202 201 206 199 198 204 
199 198 204 197 195 201 204 180 205 213 104 148 202 20 87 244 4 76 250 4 124 252 2 141 
229 31 132 213 104 148 199 181 160 203 201 197 202 201 206 202 201 206 199 198 204 202 201 206 
202 201 206 202 201 206 205 205 207 205 205 207 205 205 207 205 205 207 205 205 207 205 205 207 
209 208 211 205 205 207 205 205 207 205 205 207 209 208 211 205 205 207 205 205 207 209 208 211 
209 208 211 209 208 211 209 208 211 209 208 211 209 208 211 209 208 211 209 208 211 205 205 207 
213 211 212 213 211 212 209 208 211 213 211 212 213 211 212 209 208 211 213 211 212 213 211 212 
213 211 212 213 211 212 213 211 212 216 214 214 209 208 211 213 211 212 216 214 214 213 211 212 
216 214 214 216 214 214 213 211 212 216 214 214 213 211 212 216 214 214 216 214 214 216 214 214 
216 214 214 221 217 216 221 217 216 221 217 216 216 214 214 216 214 214 221 217 216 221 217 216 
221 217 216 221 217 216 216 214 214 221 217 216 223 220 219 223 220 219 221 217 216 221 217 216 
221 217 216 223 220 219 221 217 216 221 217 216 223 220 219 223 220 219 221 217 216 223 220 219 
223 220 219 223 220 219 223 220 219 223 220 219 223 220 219 221 217 216 229 224 222 229 224 222 
223 220 219 229 224 222 229 224 222 229 224 222 229 224 222 223 220 219 223 220 219 223 220 219 
229 224 222 230 227 223 223 220 219 229 224 222 229 224 222 229 224 222 229 224 222 229 224 222 
229 224 222 229 224 222 223 220 219 229 224 222 229 224 222 223 220 219 229 224 222 230 227 223 
229 224 222 229 224 222 229 224 222 230 227 223 229 224 222 229 224 222 230 227 223 230 227 223 
230 227 223 230 227 223 230 227 223 229 224 222 230 227 223 230 227 223 230 227 223 229 224 222 
230 227 223 230 227 223 230 227 223 230 227 223 229 224 222 230 227 223 230 227 223 229 224 222 
230 227 223 232 229 225 230 227 223 230 227 223 229 224 222 230 227 223 230 227 223 230 227 223 
230 227 223 230 227 223 232 229 225 230 227 223 232 229 225 230 227 223 230 227 223 230 227 223 
230 227 223 230 227 223 230 227 223 230 227 223 230 227 223 230 227 223 230 227 223 230 227 223 
230 227 223 230 227 223 230 227 223 229 224 222 230 227 223 230 227 223 229 224 222 229 224 222 
230 227 223 230 227 223 232 229 225 230 227 223 229 224 222 193 156 189 13 1 13 42 72 41 
9 9 9 11 11 11 10 10 10 11 11 11 10 10 10 9 9 9 13 13 13 13 13 13 
11 11 11 11 11 11 9 9 9 13 13 13 11 11 11 10 10 10 7 7 7 10 10 10 

9 9 9 11 11 11 10 10 10 11 11 11 11 11 11 11 11 11 13 13 13 11 11 11 
11 11 11 11 11 11 11 11 11 11 11 11 11 11 11 11 11 11 13 13 13 11 11 11 
11 11 11 2 3 1 118 150 120 193 192 198 206 139 176 213 104 148 222 7 30 244 4 76 
250 4 124 202 20 87 128 89 98 179 171 192 197 195 201 199 198 204 199 198 204 199 198 204 
199 198 204 199 198 204 199 198 204 202 201 206 197 195 201 197 195 201 202 201 206 202 201 206 
199 198 204 202 201 206 204 180 205 206 139 176 207 62 126 219 14 86 247 4 93 251 3 134 
244 10 135 207 62 126 220 145 156 199 189 185 203 201 197 205 205 207 205 205 207 205 205 207 
205 205 207 205 205 207 205 205 207 205 205 207 205 205 207 205 205 207 205 205 207 209 208 211 
209 208 211 205 205 207 209 208 211 205 205 207 205 205 207 209 208 211 209 208 211 209 208 211 
205 205 207 209 208 211 205 205 207 209 208 211 209 208 211 209 208 211 209 208 211 209 208 211 
209 208 211 209 208 211 213 211 212 209 208 211 213 211 212 213 211 212 209 208 211 213 211 212 
213 211 212 213 211 212 216 214 214 213 211 212 216 214 214 213 211 212 213 211 212 213 211 212 
216 214 214 216 214 214 216 214 214 216 214 214 216 214 214 216 214 214 216 214 214 216 214 214 
213 211 212 216 214 214 216 214 214 221 217 216 216 214 214 216 214 214 216 214 214 221 217 216 
216 214 214 221 217 216 221 217 216 221 217 216 221 217 216 221 217 216 221 217 216 221 217 216 
221 217 216 221 217 216 223 220 219 223 220 219 223 220 219 221 217 216 223 220 219 223 220 219 
223 220 219 223 220 219 223 220 219 221 217 216 223 220 219 223 220 219 223 220 219 223 220 219 
223 220 219 223 220 219 229 224 222 223 220 219 229 224 222 221 217 216 223 220 219 223 220 219 
223 220 219 223 220 219 223 220 219 229 224 222 223 220 219 229 224 222 223 220 219 229 224 222 
223 220 219 230 227 223 229 224 222 229 224 222 229 224 222 230 227 223 229 224 222 223 220 219 
229 224 222 229 224 222 229 224 222 230 227 223 229 224 222 229 224 222 229 224 222 229 224 222 
230 227 223 229 224 222 230 227 223 230 227 223 230 227 223 230 227 223 230 227 223 230 227 223 
232 229 225 230 227 223 230 227 223 232 229 225 230 227 223 229 224 222 229 224 222 230 227 223 
232 229 225 229 224 222 230 227 223 229 224 222 232 229 225 230 227 223 229 224 222 230 227 223 
230 227 223 230 227 223 230 227 223 230 227 223 230 227 223 229 224 222 230 227 223 229 224 222 
232 229 225 230 227 223 230 227 223 230 227 223 229 224 222 230 227 223 230 227 223 230 227 223 
230 227 223 230 227 223 232 229 225 230 227 223 230 227 223 230 227 223 230 227 223 230 227 223 
230 227 223 229 224 222 230 227 223 229 224 222 235 224 228 193 156 189 13 1 13 42 72 41 
10 13 10 11 11 11 11 11 11 9 9 9 10 10 10 11 11 11 11 11 11 9 9 9 
11 11 11 11 11 11 11 11 11 11 11 11 11 11 11 11 11 11 10 10 10 9 9 9 

11 11 11 13 13 13 9 9 9 10 10 10 13 13 13 10 10 10 11 11 11 11 11 11 
11 11 11 10 10 10 11 11 11 10 10 10 11 11 11 11 11 11 9 9 9 10 10 10 
9 9 9 2 3 1 118 150 120 193 156 189 213 104 148 226 45 75 243 3 57 250 4 110 
216 21 109 138 59 86 159 162 175 197 195 201 202 201 206 199 198 204 197 195 201 197 195 201 
199 198 204 199 198 204 199 198 204 202 201 206 199 198 204 199 198 204 199 198 204 199 198 204 
202 201 206 202 201 206 199 198 204 204 180 205 206 139 176 207 62 126 224 12 60 250 4 110 
252 2 141 229 31 132 213 104 148 220 145 156 199 189 185 202 201 206 202 201 206 205 205 207 
205 205 207 205 205 207 205 205 207 205 205 207 205 205 207 205 205 207 205 205 207 205 205 207 
205 205 207 205 205 207 205 205 207 209 208 211 205 205 207 209 208 211 205 205 207 209 208 211 
209 208 211 205 205 207 209 208 211 209 208 211 209 208 211 209 208 211 209 208 211 209 208 211 
213 211 212 209 208 211 209 208 211 209 208 211 213 211 212 209 208 211 209 208 211 209 208 211 
213 211 212 213 211 212 213 211 212 213 211 212 213 211 212 213 211 212 216 214 214 216 214 214 
213 211 212 213 211 212 216 214 214 213 211 212 213 211 212 213 211 212 213 211 212 216 214 214 
216 214 214 216 214 214 216 214 214 216 214 214 216 214 214 221 217 216 216 214 214 216 214 214 
216 214 214 221 217 216 223 220 219 221 217 216 221 217 216 221 217 216 221 217 216 223 220 219 
223 220 219 223 220 219 223 220 219 221 217 216 221 217 216 221 217 216 223 220 219 223 220 219 
223 220 219 223 220 219 229 224 222 223 220 219 223 220 219 223 220 219 229 224 222 223 220 219 
229 224 222 223 220 219 223 220 219 223 220 219 223 220 219 223 220 219 223 220 219 223 220 219 
229 224 222 223 220 219 223 220 219 223 220 219 223 220 219 230 227 223 229 224 222 223 220 219 
229 224 222 223 220 219 229 224 222 229 224 222 223 220 219 229 224 222 230 227 223 223 220 219 
229 224 222 229 224 222 230 227 223 229 224 222 230 227 223 229 224 222 230 227 223 229 224 222 
230 227 223 232 229 225 232 229 225 232 229 225 230 227 223 230 227 223 229 224 222 229 224 222 
230 227 223 232 229 225 230 227 223 230 227 223 230 227 223 232 229 225 230 227 223 229 224 222 
230 227 223 232 229 225 230 227 223 230 227 223 229 224 222 230 227 223 229 224 222 230 227 223 
232 229 225 229 224 222 229 224 222 230 227 223 230 227 223 229 224 222 229 224 222 232 229 225 
230 227 223 228 228 227 230 227 223 232 229 225 230 227 223 229 224 222 230 227 223 232 229 225 
230 227 223 232 229 225 230 227 223 230 227 223 229 224 222 229 224 222 230 227 223 230 227 223 
230 227 223 229 224 222 230 227 223 230 227 223 235 224 228 193 156 189 13 1 13 42 72 41 
10 13 10 7 7 7 10 10 10 11 11 11 10 10 10 11 11 11 10 10 10 11 11 11 
11 11 11 11 11 11 11 11 11 11 11 11 13 13 13 11 11 11 10 10 10 11 11 11 

11 11 11 10 10 10 11 11 11 11 11 11 11 11 11 10 10 10 10 10 10 13 13 13 
11 11 11 10 10 10 10 10 10 7 7 7 9 9 9 9 9 9 9 9 9 10 10 10 
11 11 11 2 3 1 134 129 113 206 139 176 207 62 126 237 5 35 238 11 117 216 21 109 
138 59 86 152 144 164 193 192 198 197 195 201 199 198 204 202 201 206 199 198 204 199 198 204 
199 198 204 197 195 201 199 198 204 197 195 201 199 198 204 199 198 204 202 201 206 199 198 204 
202 201 206 199 198 204 199 198 204 197 195 201 193 156 189 213 104 148 202 20 87 244 4 76 
250 4 124 252 2 141 229 31 132 213 104 148 199 181 160 203 201 197 205 205 207 202 201 206 
202 201 206 205 205 207 205 205 207 205 205 207 205 205 207 209 208 211 205 205 207 205 205 207 
205 205 207 209 208 211 209 208 211 205 205 207 205 205 207 209 208 211 205 205 207 205 205 207 
209 208 211 209 208 211 209 208 211 213 211 212 209 208 211 209 208 211 213 211 212 205 205 207 
209 208 211 209 208 211 209 208 211 213 211 212 209 208 211 213 211 212 213 211 212 213 211 212 
213 211 212 213 211 212 213 211 212 216 214 214 213 211 212 213 211 212 213 211 212 216 214 214 
216 214 214 213 211 212 216 214 214 216 214 214 216 214 214 213 211 212 216 214 214 216 214 214 
213 211 212 221 217 216 216 214 214 221 217 216 216 214 214 216 214 214 216 214 214 221 217 216 
221 217 216 216 214 214 216 214 214 221 217 216 221 217 216 221 217 216 223 220 219 221 217 216 
223 220 219 221 217 216 221 217 216 223 220 219 221 217 216 221 217 216 223 220 219 223 220 219 
223 220 219 221 217 216 223 220 219 223 220 219 223 220 219 223 220 219 223 220 219 221 217 216 
223 220 219 223 220 219 229 224 222 223 220 219 229 224 222 223 220 219 229 224 222 223 220 219 
223 220 219 223 220 219 223 220 219 223 220 219 229 224 222 229 224 222 223 220 219 229 224 222 
229 224 222 233 226 216 223 220 219 229 224 222 229 224 222 229 224 222 229 224 222 223 220 219 
230 227 223 230 227 223 229 224 222 229 224 222 229 224 222 230 227 223 230 227 223 230 227 223 
229 224 222 230 227 223 230 227 223 230 227 223 229 224 222 229 224 222 232 229 225 230 227 223 
230 227 223 230 227 223 232 229 225 232 229 225 232 229 225 229 224 222 230 227 223 229 224 222 
229 224 222 229 224 222 230 227 223 229 224 222 230 227 223 232 229 225 230 227 223 230 227 223 
230 227 223 229 224 222 230 227 223 232 229 225 229 224 222 232 229 225 230 227 223 232 229 225 
230 227 223 230 227 223 230 227 223 230 227 223 232 229 225 230 227 223 229 224 222 229 224 222 
230 227 223 230 227 223 230 227 223 230 227 223 232 229 225 229 224 222 229 224 222 230 227 223 
230 227 223 232 229 225 229 224 222 230 227 223 235 224 228 193 156 189 13 1 13 42 72 41 
10 13 10 9 9 9 10 10 10 10 10 10 11 11 11 11 11 11 11 11 11 13 13 13 
11 11 11 11 11 11 11 11 11 11 11 11 10 10 10 11 11 11 11 11 11 11 11 11 

7 7 7 9 9 9 13 13 13 10 10 10 11 11 11 7 7 7 11 11 11 11 11 11 
11 11 11 11 11 11 11 11 11 7 7 7 11 11 11 7 7 7 9 9 9 13 13 13 
9 9 9 2 3 1 134 129 113 206 139 176 226 45 75 219 14 86 216 21 109 138 59 86 
149 132 147 199 189 185 203 201 197 203 201 197 193 196 199 193 192 198 203 201 197 197 195 201 
203 201 197 197 195 201 203 201 197 193 192 198 203 201 197 203 201 197 203 201 197 203 201 197 
203 201 197 203 201 197 203 201 197 203 201 197 199 189 185 193 156 189 207 62 126 202 20 87 
244 4 76 251 3 134 244 10 135 207 62 126 220 145 156 199 189 185 203 201 197 203 201 197 
203 201 197 203 201 197 203 201 197 205 205 207 203 201 197 203 201 197 205 205 207 203 201 197 
205 205 207 205 205 207 205 205 207 205 205 207 203 201 197 213 211 212 205 205 207 205 205 207 
203 201 197 209 208 211 205 205 207 209 208 211 213 211 212 205 205 207 209 208 211 213 211 212 
213 211 212 213 211 212 213 211 212 209 208 211 209 208 211 209 208 211 213 211 212 209 208 211 
209 208 211 205 205 207 213 211 212 205 205 207 213 211 212 209 208 211 213 211 212 209 208 211 
213 211 212 213 211 212 216 214 214 213 211 212 213 211 212 216 214 214 216 214 214 213 211 212 
213 211 212 213 211 212 216 214 214 216 214 214 221 217 216 216 214 214 221 217 216 216 214 214 
216 214 214 216 214 214 221 217 216 213 211 212 221 217 216 221 217 216 221 217 216 221 217 216 
221 217 216 221 217 216 221 217 216 221 217 216 221 217 216 221 217 216 223 220 219 221 217 216 
233 226 216 221 217 216 221 217 216 233 226 216 221 217 216 221 217 216 221 217 216 223 220 219 
229 224 222 221 217 216 233 226 216 223 220 219 233 226 216 223 220 219 225 220 201 233 226 216 
233 226 216 233 226 216 233 226 216 233 226 216 233 226 216 233 226 216 223 220 219 233 226 216 
233 226 216 223 220 219 233 226 216 233 226 216 233 226 216 233 226 216 233 226 216 233 226 216 
233 226 216 233 226 216 233 226 216 233 226 216 233 226 216 225 231 219 229 224 222 230 227 223 
229 224 222 230 227 223 229 224 222 229 224 222 229 224 222 232 229 225 230 227 223 230 227 223 
232 229 225 230 227 223 232 229 225 229 224 222 230 227 223 230 227 223 230 227 223 229 224 222 
230 227 223 232 229 225 232 229 225 232 229 225 233 226 216 232 229 225 233 226 216 233 226 216 
233 226 216 233 226 216 232 229 225 233 226 216 233 226 216 233 226 216 233 226 216 232 229 225 
233 226 216 233 226 216 233 226 216 233 226 216 233 226 216 233 226 216 233 226 216 233 226 216 
233 226 216 233 226 216 233 226 216 233 226 216 233 226 216 233 226 216 233 226 216 230 227 223 
230 227 223 230 227 223 229 224 222 230 227 223 235 224 228 193 156 189 13 1 13 42 72 41 
9 9 9 7 7 7 9 9 9 10 10 10 11 11 11 9 9 9 11 11 11 11 11 11 
10 10 10 9 9 9 10 10 10 13 13 13 11 11 11 11 11 11 10 10 10 11 11 11 

11 11 11 10 10 10 9 9 9 9 9 9 9 9 9 11 11 11 11 11 11 10 10 10 
11 11 11 9 9 9 11 11 11 10 10 10 11 11 11 9 9 9 10 10 10 11 11 11 
13 13 13 2 3 1 134 129 113 213 104 148 207 62 126 207 62 126 158 50 100 149 132 147 
179 168 151 174 146 114 174 146 114 174 146 114 174 146 114 174 146 114 174 146 114 174 146 114 
174 146 114 174 146 114 174 146 114 174 146 114 174 146 114 174 146 114 174 146 114 174 146 114 
174 146 114 174 146 114 174 146 114 174 146 114 174 146 114 174 146 114 181 99 112 183 18 75 
208 10 32 247 4 93 251 3 134 244 10 135 207 62 126 181 99 112 174 146 114 174 146 114 
174 146 114 174 146 114 174 146 114 174 146 114 174 146 114 174 146 114 174 146 114 174 146 114 
174 146 114 174 146 114 174 146 114 174 146 114 174 146 114 174 146 114 174 146 114 174 146 114 
174 146 114 174 146 114 174 146 114 174 146 114 174 146 114 174 146 114 174 146 114 174 146 114 
174 146 114 174 146 114 174 146 114 194 162 123 174 146 114 194 162 123 199 181 160 199 181 160 
199 181 160 199 181 160 199 181 160 199 181 160 199 181 160 199 181 160 199 181 160 199 181 160 
199 181 160 199 181 160 199 181 160 199 181 160 199 181 160 199 181 160 199 181 160 199 181 160 
199 181 160 199 181 160 199 181 160 199 181 160 199 181 160 199 181 160 199 181 160 199 181 160 
199 181 160 199 181 160 199 181 160 199 181 160 199 181 160 199 181 160 199 181 160 199 181 160 
199 181 160 199 181 160 199 181 160 199 181 160 199 181 160 199 181 160 199 181 160 199 181 160 
199 181 160 199 181 160 199 181 160 199 181 160 199 181 160 199 181 160 199 181 160 199 181 160 
205 191 151 199 181 160 199 181 160 199 181 160 199 181 160 204 175 134 194 162 123 194 162 123 
194 162 123 194 162 123 194 162 123 194 162 123 194 162 123 194 162 123 194 162 123 194 162 123 
194 162 123 194 162 123 194 162 123 194 162 123 194 162 123 194 162 123 194 162 123 194 162 123 
194 162 123 194 162 123 194 162 123 194 162 123 194 162 123 205 191 151 223 220 219 229 224 222 
229 224 222 229 224 222 229 224 222 229 224 222 229 224 222 229 224 222 233 226 216 237 225 202 
237 225 202 237 225 202 233 226 216 230 227 223 229 224 222 223 220 219 230 227 223 229 224 222 
229 224 222 229 224 222 222 207 217 194 162 123 194 162 123 194 162 123 194 162 123 194 162 123 
194 162 123 194 162 123 194 162 123 194 162 123 194 162 123 194 162 123 194 162 123 194 162 123 
194 162 123 194 162 123 194 162 123 194 162 123 194 162 123 194 162 123 194 162 123 194 162 123 
194 162 123 194 162 123 194 162 123 194 162 123 194 162 123 194 162 123 194 162 123 231 213 171 
230 227 223 230 227 223 232 229 225 230 227 223 235 224 228 193 156 189 13 1 13 42 72 41 
10 13 10 11 11 11 11 11 11 9 9 9 11 11 11 10 10 10 11 11 11 11 11 11 
10 10 10 7 7 7 10 10 10 11 11 11 9 9 9 11 11 11 11 11 11 13 13 13 

10 10 10 9 9 9 11 11 11 11 11 11 11 11 11 11 11 11 11 11 11 11 11 11 
10 10 10 10 10 10 11 11 11 10 10 10 11 11 11 9 9 9 13 13 13 9 9 9 
11 9 10 2 3 1 134 129 113 206 139 176 176 97 145 176 97 145 149 132 147 204 180 205 
72 44 75 31 29 26 33 33 31 31 29 26 31 29 26 35 30 27 31 29 26 35 30 27 
35 30 27 35 30 27 35 30 27 35 30 27 31 29 26 31 29 26 35 30 27 35 30 27 
35 30 27 35 30 27 31 29 26 31 29 26 31 29 26 35 30 27 53 14 27 92 19 37 
143 21 40 224 12 60 250 4 110 252 2 141 229 31 132 164 29 78 94 33 58 46 30 29 
35 30 27 31 29 26 35 30 27 35 30 27 35 30 27 35 30 27 35 30 27 35 30 27 
33 33 31 35 30 27 35 30 27 35 30 27 35 30 27 35 30 27 35 30 27 31 29 26 
35 30 27 35 30 27 35 30 27 35 30 27 31 29 26 35 30 27 31 29 26 35 30 27 
35 30 27 35 30 27 40 38 33 33 33 31 35 30 27 64 96 64 132 129 128 132 129 128 
132 129 128 132 129 128 130 128 126 130 128 126 130 128 126 130 128 126 133 132 130 130 128 126 
130 128 126 132 129 128 132 129 128 130 128 126 130 128 126 130 128 126 130 128 126 130 128 126 
130 128 126 132 129 128 130 128 126 130 128 126 130 128 126 132 129 128 130 128 126 132 129 128 
130 128 126 130 128 126 132 129 128 132 129 128 132 129 128 130 128 126 130 128 126 130 128 126 
130 128 126 130 128 126 132 129 128 130 128 126 130 128 126 132 129 128 130 128 126 132 129 128 
130 128 126 130 128 126 130 128 126 130 128 126 130 128 126 130 128 126 130 128 126 130 128 126 
133 132 130 130 128 126 130 128 126 130 128 126 132 129 128 72 44 75 35 30 27 35 30 27 
31 29 26 35 30 27 31 29 26 31 29 26 35 30 27 35 30 27 31 29 26 33 33 31 
31 29 26 35 30 27 35 30 27 35 30 27 35 30 27 35 30 27 33 33 31 35 30 27 
35 30 27 35 30 27 31 29 26 35 30 27 26 33 27 118 150 120 225 231 219 230 227 223 
232 229 225 230 227 223 232 229 225 233 226 216 235 204 196 234 180 133 227 142 96 227 142 96 
227 142 96 227 142 96 234 180 133 231 213 171 237 225 202 233 226 216 229 224 222 230 227 223 
229 224 222 230 227 223 232 200 224 54 26 46 31 29 26 31 29 26 31 29 26 35 30 27 
31 29 26 35 30 27 35 30 27 35 30 27 35 30 27 31 29 26 35 30 27 35 34 34 
33 33 31 33 33 31 31 29 26 31 29 26 31 29 26 31 29 26 35 30 27 35 30 27 
35 30 27 31 29 26 35 30 27 35 30 27 35 30 27 35 30 27 35 30 27 136 171 132 
225 231 219 230 227 223 229 224 222 230 227 223 235 224 228 193 156 189 13 1 13 42 72 41 
9 9 9 11 11 11 11 11 11 10 10 10 11 11 11 10 10 10 11 11 11 11 11 11 
11 11 11 11 11 11 9 9 9 11 11 11 10 10 10 11 11 11 11 11 11 10 10 10 

11 11 11 11 11 11 11 11 11 11 11 11 9 9 9 11 11 11 11 11 11 10 10 10 
11 11 11 11 11 11 11 11 11 13 13 13 10 10 10 11 11 11 10 10 10 9 9 9 
9 9 9 2 3 1 118 150 120 179 171 192 193 156 189 159 162 175 193 192 198 204 180 205 
72 44 75 31 30 31 30 31 30 32 31 32 33 32 33 33 32 33 32 31 32 29 29 30 
33 32 33 35 34 34 33 32 33 31 30 31 30 31 30 30 31 30 33 32 33 27 26 26 
30 31 30 35 34 34 31 30 31 32 31 32 29 29 30 35 34 34 35 30 27 64 16 32 
92 19 37 143 21 40 224 12 60 250 4 110 252 2 141 229 31 132 147 26 71 75 32 51 
54 26 46 33 32 33 32 31 32 31 30 31 29 29 30 29 29 30 30 31 30 32 31 32 
34 34 33 27 26 26 34 34 33 29 29 30 30 31 30 27 26 26 32 31 32 33 32 33 
32 31 32 33 32 33 33 32 33 35 34 34 32 31 32 29 29 30 32 31 32 31 30 31 
31 30 31 32 31 32 32 31 32 30 31 30 34 34 33 64 96 64 130 128 126 132 129 128 
132 129 128 132 129 128 133 132 130 130 128 126 133 132 130 133 132 130 132 129 128 132 129 128 
132 129 128 132 129 128 132 129 128 132 129 128 132 129 128 130 128 126 130 128 126 132 129 128 
130 128 126 132 129 128 130 128 126 133 132 130 130 128 126 132 129 128 130 128 126 130 128 126 
132 129 128 132 129 128 132 129 128 132 129 128 133 132 130 130 128 126 130 128 126 130 128 126 
132 129 128 132 129 128 132 129 128 132 129 128 130 128 126 130 128 126 130 128 126 130 128 126 
130 128 126 130 128 126 130 128 126 132 129 128 130 128 126 130 128 126 130 128 126 132 129 128 
133 132 130 132 129 128 133 132 130 130 128 126 132 129 128 72 44 75 31 30 31 33 32 33 
32 31 32 33 32 33 30 31 30 33 32 33 33 32 33 28 27 29 32 31 32 29 29 30 
31 30 31 33 33 31 32 31 32 29 29 30 30 31 30 31 30 31 31 30 31 34 34 33 
29 29 30 31 30 31 31 30 31 32 31 32 26 33 27 118 150 120 225 231 219 230 227 223 
230 227 223 229 224 222 235 204 196 227 142 96 229 54 48 237 40 38 237 40 38 242 40 38 
237 40 38 237 40 38 237 40 38 229 54 48 227 142 96 224 207 160 237 225 202 229 224 222 
232 229 225 230 227 223 232 200 224 54 26 46 30 31 30 32 31 32 33 32 33 31 30 31 
29 29 30 33 32 33 33 32 33 32 31 32 29 29 30 34 34 33 32 31 32 37 36 36 
35 34 34 33 32 33 30 31 30 32 31 32 32 31 32 29 29 30 29 29 30 33 32 33 
30 31 30 32 31 32 31 30 31 31 30 31 32 31 32 32 31 32 26 33 27 136 171 132 
225 231 219 230 227 223 230 227 223 230 227 223 235 224 228 193 156 189 13 1 13 42 72 41 
10 13 10 11 11 11 10 10 10 11 11 11 10 10 10 10 10 10 11 11 11 10 10 10 
11 11 11 11 11 11 11 11 11 11 11 11 11 11 11 11 11 11 11 11 11 11 11 11 

11 11 11 11 11 11 11 11 11 11 11 11 11 11 11 10 10 10 11 11 11 13 13 13 
9 9 9 11 11 11 11 11 11 11 11 11 13 13 13 11 11 11 11 11 11 9 9 9 
10 10 10 2 3 1 118 150 120 193 192 198 193 192 198 197 195 201 199 198 204 204 180 205 
72 44 75 31 30 31 33 33 31 33 32 33 32 31 32 34 34 33 34 34 33 32 31 32 
31 30 31 34 34 33 32 31 32 31 30 31 33 32 33 31 30 31 27 26 26 31 30 31 
30 31 30 31 30 31 37 37 38 30 31 30 33 33 31 35 34 34 31 30 31 35 30 27 
64 16 32 92 19 37 143 21 40 202 20 87 250 4 110 244 10 135 216 21 109 147 26 71 
75 32 51 54 26 46 37 36 36 35 34 34 29 29 30 32 31 32 28 27 29 33 32 33 
32 31 32 33 32 33 29 29 30 31 30 31 32 31 32 33 33 31 35 34 34 32 31 32 
30 31 30 33 32 33 31 30 31 35 34 34 32 31 32 34 34 33 31 30 31 32 31 32 
32 31 32 35 34 34 29 29 30 30 31 30 34 34 33 64 96 64 130 128 126 130 128 126 
130 128 126 130 128 126 132 129 128 130 128 126 130 128 126 133 132 130 133 132 130 133 132 130 
130 128 126 133 132 130 130 128 126 130 128 126 130 128 126 132 129 128 133 132 130 133 132 130 
133 132 130 133 132 130 133 132 130 132 129 128 133 132 130 130 128 126 132 129 128 133 132 130 
130 128 126 132 129 128 133 132 130 133 132 130 130 128 126 133 132 130 130 128 126 132 129 128 
133 132 130 130 128 126 130 128 126 130 128 126 130 128 126 132 129 128 130 128 126 132 129 128 
130 128 126 132 129 128 130 128 126 133 132 130 132 129 128 130 128 126 132 129 128 130 128 126 
130 128 126 130 128 126 132 129 128 130 128 126 133 132 130 72 44 75 33 32 33 33 32 33 
30 31 30 33 32 33 30 31 30 30 31 30 34 34 33 32 31 32 34 34 33 28 27 29 
34 34 33 30 31 30 34 34 33 30 31 30 31 30 31 32 31 32 31 30 31 30 31 30 
30 31 30 35 34 34 32 31 32 32 31 32 26 33 27 118 150 120 225 231 219 229 224 222 
229 224 222 235 204 196 220 70 81 237 40 38 242 40 38 242 40 38 242 40 38 242 40 38 
242 40 38 242 40 38 242 40 38 242 40 38 237 40 38 222 94 55 234 180 133 225 220 201 
230 227 223 229 224 222 232 200 224 54 26 46 32 31 32 33 33 31 29 29 30 34 34 33 
27 26 26 30 31 30 33 33 31 33 33 31 33 33 31 34 34 33 34 34 33 30 31 30 
32 31 32 32 31 32 32 31 32 31 30 31 31 30 31 27 26 26 27 26 26 29 29 30 
32 31 32 33 32 33 32 31 32 33 32 33 33 32 33 29 29 30 26 33 27 136 171 132 
225 231 219 230 227 223 230 227 223 230 227 223 235 224 228 193 156 189 13 1 13 42 72 41 
10 13 10 11 11 11 11 11 11 11 11 11 9 9 9 10 10 10 11 11 11 10 10 10 
11 11 11 14 14 14 10 10 10 11 11 11 10 10 10 11 11 11 13 13 13 11 11 11 

10 10 10 9 9 9 10 10 10 11 11 11 11 11 11 11 11 11 10 10 10 11 11 11 
10 10 10 9 9 9 10 10 10 13 13 13 13 13 13 9 9 9 11 11 11 11 11 11 
10 10 10 2 3 1 118 150 120 199 198 204 199 198 204 197 195 201 197 195 201 204 180 205 
72 44 75 33 32 33 31 30 31 33 32 33 33 33 31 33 33 31 35 34 34 34 34 33 
27 26 26 32 31 32 28 27 29 32 31 32 33 32 33 33 32 35 35 34 34 29 29 30 
30 31 30 30 31 30 28 27 29 33 33 31 35 34 34 33 32 33 32 31 32 29 29 30 
39 38 39 46 30 29 92 19 37 125 21 41 185 15 50 230 13 105 244 10 135 216 21 109 
147 26 71 94 33 58 54 26 46 37 36 36 33 32 35 35 34 34 31 30 31 29 29 30 
33 32 33 33 32 33 33 32 33 33 32 33 33 32 33 30 31 30 32 31 32 30 31 30 
33 32 33 31 30 31 35 34 34 34 34 33 33 32 33 32 31 32 32 31 32 32 31 32 
33 32 33 32 31 32 33 32 33 30 31 30 30 31 30 64 96 64 133 132 130 130 128 126 
130 128 126 132 129 128 130 128 126 130 128 126 132 129 128 130 128 126 132 129 128 133 132 130 
130 128 126 130 128 126 132 129 128 130 128 126 130 128 126 133 132 130 133 132 130 132 129 128 
133 132 130 130 128 126 132 129 128 130 128 126 132 129 128 130 128 126 132 129 128 130 128 126 
130 128 126 130 128 126 133 132 130 130 128 126 132 129 128 133 132 130 130 128 126 132 129 128 
130 128 126 130 128 126 133 132 130 132 129 128 130 128 126 132 129 128 130 128 126 132 129 128 
133 132 130 133 132 130 130 128 126 133 132 130 132 129 128 130 128 126 130 128 126 132 129 128 
130 128 126 132 129 128 130 128 126 130 128 126 133 132 130 72 44 75 33 33 31 34 34 33 
34 34 33 32 31 32 30 31 30 29 29 30 34 34 33 33 32 33 35 34 34 32 31 32 
30 31 30 32 31 32 31 30 31 32 31 32 32 31 32 32 31 32 32 31 32 31 30 31 
31 30 31 33 32 33 35 34 34 34 34 33 34 34 33 118 150 120 225 231 219 230 227 223 
235 204 196 220 70 81 242 40 38 242 40 38 242 40 38 237 40 38 242 40 38 242 40 38 
237 40 38 242 40 38 242 40 38 242 40 38 237 40 38 242 40 38 229 54 48 234 180 133 
225 220 201 230 227 223 232 200 224 54 26 46 30 31 30 33 33 31 35 34 34 34 34 33 
27 26 26 30 31 30 30 31 30 30 31 30 33 33 31 32 31 32 34 34 33 31 30 31 
31 30 31 27 26 26 33 32 33 32 31 32 32 31 32 32 31 32 31 30 31 30 31 30 
32 31 32 32 31 32 35 34 34 34 34 33 33 32 35 33 32 35 26 33 27 136 171 132 
225 231 219 229 224 222 230 227 223 232 229 225 235 224 228 193 156 189 13 1 13 42 72 41 
10 13 10 9 9 9 9 9 9 10 10 10 11 11 11 11 11 11 11 11 11 10 10 10 
11 11 11 10 10 10 11 11 11 13 13 13 11 11 11 9 9 9 10 10 10 9 9 9 

11 11 11 13 13 13 10 10 10 11 11 11 9 9 9 13 13 13 11 11 11 13 13 13 
11 11 11 11 11 11 10 10 10 11 11 11 11 11 11 11 11 11 10 10 10 9 9 9 
11 11 11 2 3 1 118 150 120 197 195 201 197 195 201 197 195 201 199 198 204 204 180 205 
72 44 75 33 32 33 33 32 33 33 32 33 32 31 32 31 30 31 28 27 29 31 30 31 
27 26 26 33 32 33 32 31 32 31 30 31 31 30 31 30 31 30 32 31 32 33 32 33 
32 31 32 32 31 32 33 32 33 33 33 31 35 34 34 30 31 30 34 34 33 33 32 33 
31 29 26 40 38 33 54 26 46 75 18 34 107 21 41 143 21 40 202 20 87 238 11 117 
216 21 109 164 29 78 75 32 51 40 38 33 33 32 33 33 32 33 33 32 33 30 31 30 
33 32 33 30 31 30 35 34 34 32 31 32 30 31 30 30 31 30 30 31 30 34 34 33 
31 30 31 31 30 31 32 31 32 34 34 33 32 31 32 32 31 32 32 31 32 35 34 34 
32 31 32 27 26 26 27 26 26 30 31 30 35 34 34 64 96 64 130 128 126 132 129 128 
133 132 130 130 128 126 130 128 126 132 129 128 130 128 126 133 132 130 130 128 126 130 128 126 
132 129 128 130 128 126 132 129 128 130 128 126 132 129 128 132 129 128 130 128 126 130 128 126 
130 128 126 130 128 126 133 132 130 130 128 126 133 132 130 130 128 126 132 129 128 133 132 130 
133 132 130 133 132 130 132 129 128 133 132 130 130 128 126 132 129 128 133 132 130 132 129 128 
130 128 126 132 129 128 130 128 126 133 132 130 132 129 128 133 132 130 133 132 130 133 132 130 
133 132 130 133 132 130 130 128 126 133 132 130 132 129 128 133 132 130 130 128 126 132 129 128 
130 128 126 133 132 130 130 128 126 130 128 126 133 132 130 72 44 75 33 32 33 31 30 31 
30 31 30 35 34 34 31 30 31 31 30 31 33 32 33 33 32 33 34 34 33 31 30 31 
32 31 32 33 32 33 32 31 32 31 30 31 34 34 33 31 30 31 31 30 31 31 30 31 
30 31 30 30 31 30 33 32 33 33 32 33 26 33 27 118 150 120 225 231 219 235 224 228 
211 97 97 237 40 38 242 40 38 242 40 38 237 40 38 223 37 37 223 37 37 237 40 38 
242 40 38 242 40 38 223 37 37 223 37 37 237 40 38 242 40 38 242 40 38 222 94 55 
224 207 160 233 226 216 232 200 224 54 26 46 30 31 30 35 34 34 33 33 31 35 34 34 
29 29 30 31 30 31 33 32 33 32 31 32 29 29 30 30 31 30 35 34 34 33 32 35 
33 32 33 33 32 33 31 30 31 32 31 32 33 32 33 33 32 33 31 30 31 32 31 32 
31 30 31 33 32 33 31 30 31 32 31 32 30 31 30 33 32 33 26 33 27 136 171 132 
225 231 219 230 227 223 229 224 222 229 224 222 235 224 228 193 156 189 13 1 13 42 72 41 
10 13 10 9 9 9 11 11 11 10 10 10 11 11 11 10 10 10 13 13 13 14 14 14 
11 11 11 10 10 10 11 11 11 11 11 11 11 11 11 15 15 15 10 10 10 9 9 9 

10 10 10 11 11 11 11 11 11 11 11 11 11 11 11 9 9 9 9 9 9 9 9 9 
10 10 10 9 9 9 11 11 11 10 10 10 7 7 7 11 11 11 11 11 11 11 11 11 
10 10 10 2 3 1 118 150 120 193 196 199 197 195 201 199 198 204 199 198 204 204 180 205 
72 44 75 35 34 34 30 31 30 33 33 31 31 30 31 32 31 32 34 34 33 31 30 31 
32 31 32 37 37 38 33 32 33 33 32 33 31 30 31 32 31 32 32 31 32 35 34 34 
33 32 35 33 32 33 35 34 34 31 30 31 32 31 32 33 32 33 33 33 31 30 31 30 
31 30 31 33 32 33 35 34 34 46 30 29 64 16 32 92 19 37 107 21 41 143 21 40 
163 20 42 143 21 40 64 16 32 35 30 27 31 30 31 34 34 33 31 30 31 32 31 32 
35 34 34 33 33 31 32 31 32 35 34 34 33 32 33 31 30 31 33 32 33 30 31 30 
30 31 30 31 30 31 32 31 32 33 32 33 33 32 33 30 31 30 35 34 34 34 34 33 
34 34 33 31 30 31 32 31 32 34 34 33 32 31 32 64 96 64 130 128 126 133 132 130 
130 128 126 130 128 126 132 129 128 130 128 126 132 129 128 130 128 126 132 129 128 132 129 128 
130 128 126 132 129 128 130 128 126 132 129 128 132 129 128 132 129 128 132 129 128 130 128 126 
132 129 128 132 129 128 132 129 128 132 129 128 132 129 128 132 129 128 132 129 128 133 132 130 
132 129 128 133 132 130 133 132 130 130 128 126 130 128 126 130 128 126 132 129 128 133 132 130 
132 129 128 130 128 126 132 129 128 132 129 128 132 129 128 132 129 128 133 132 130 130 128 126 
133 132 130 132 129 128 132 129 128 132 129 128 132 129 128 132 129 128 132 129 128 133 132 130 
130 128 126 132 129 128 130 128 126 133 132 130 132 129 128 72 44 75 31 30 31 33 32 33 
27 26 26 30 31 30 29 29 30 32 31 32 28 27 29 32 31 32 33 32 33 35 34 34 
32 31 32 34 34 33 32 31 32 30 31 30 33 32 33 31 30 31 30 31 30 29 29 30 
31 30 31 33 32 33 33 32 33 31 30 31 29 29 30 118 150 120 225 231 219 228 174 187 
237 40 38 242 40 38 242 40 38 242 40 38 242 40 38 206 31 34 181 22 29 223 37 37 
237 40 38 237 40 38 193 22 30 206 31 34 237 40 38 237 40 38 242 40 38 237 40 38 
227 142 96 225 220 201 232 200 224 54 26 46 28 27 29 30 31 30 30 31 30 34 34 33 
31 30 31 33 32 33 35 34 34 30 31 30 31 30 31 35 34 34 35 34 34 33 32 33 
35 34 34 34 34 33 32 31 32 34 34 33 31 30 31 34 34 33 31 30 31 29 29 30 
34 34 33 32 31 32 31 30 31 28 27 29 33 33 31 33 33 31 33 33 31 136 171 132 
225 231 219 230 227 223 230 227 223 230 227 223 235 224 228 193 156 189 13 1 13 42 72 41 
9 9 9 11 11 11 11 11 11 10 10 10 11 11 11 11 11 11 11 11 11 11 11 11 
10 10 10 11 11 11 10 10 10 11 11 11 11 11 11 13 13 13 11 11 11 10 10 10 

10 10 10 9 9 9 13 13 13 11 11 11 9 9 9 10 10 10 11 11 11 11 11 11 
11 11 11 10 10 10 10 10 10 10 10 10 11 11 11 11 11 11 11 11 11 11 11 11 
7 7 7 2 3 1 118 150 120 193 196 199 197 195 201 193 192 198 199 198 204 204 180 205 
72 44 75 32 31 32 30 31 30 32 31 32 32 31 32 33 33 31 33 33 31 30 31 30 
30 31 30 33 33 31 31 30 31 31 30 31 27 26 26 31 30 31 29 29 30 32 31 32 
30 31 30 34 34 33 29 29 30 32 31 32 33 32 33 31 30 31 32 31 32 32 31 32 
31 30 31 34 34 33 31 30 31 33 32 33 35 34 34 46 30 29 64 16 32 64 16 32 
64 16 32 53 14 27 46 30 29 33 33 31 32 31 32 32 31 32 32 31 32 33 32 33 
29 29 30 32 31 32 31 30 31 31 30 31 34 34 33 33 32 33 32 31 32 34 34 33 
30 31 30 33 32 33 33 32 33 35 34 34 33 32 33 31 30 31 30 31 30 34 34 33 
34 34 33 33 32 33 29 29 30 30 31 30 30 31 30 35 58 32 132 121 101 134 129 113 
134 129 113 134 129 113 134 129 113 134 129 113 134 129 113 134 129 113 134 129 113 134 129 113 
134 129 113 134 129 113 134 129 113 134 129 113 134 129 113 134 129 113 134 129 113 134 129 113 
134 129 113 134 129 113 134 129 113 134 129 113 134 129 113 134 129 113 134 129 113 134 129 113 
134 129 113 134 129 113 134 129 113 134 129 113 134 129 113 134 129 113 134 129 113 134 129 113 
134 129 113 134 129 113 134 129 113 134 129 113 134 129 113 134 129 113 134 129 113 134 129 113 
134 129 113 134 129 113 134 129 113 134 129 113 134 129 113 134 129 113 134 129 113 134 129 113 
134 129 113 134 129 113 134 129 113 134 129 113 128 89 98 46 30 29 32 31 32 34 34 33 
35 35 37 32 31 32 33 32 33 31 30 31 31 30 31 32 31 32 32 31 32 31 30 31 
30 31 30 29 29 30 33 33 31 30 31 30 33 32 33 32 31 32 30 31 30 27 26 26 
30 31 30 30 31 30 34 34 33 32 31 32 34 34 33 118 150 120 230 227 223 211 97 97 
242 40 38 242 40 38 242 40 38 242 40 38 237 40 38 237 40 38 181 22 29 206 31 34 
237 40 38 206 31 34 181 22 29 223 37 37 242 40 38 242 40 38 242 40 38 242 40 38 
222 94 55 214 201 160 232 200 224 54 26 46 32 31 32 33 32 33 33 32 33 32 31 32 
30 31 30 35 34 34 35 34 34 34 34 33 30 31 30 30 31 30 34 34 33 29 29 30 
30 31 30 30 31 30 31 30 31 35 35 37 33 32 33 32 31 32 32 31 32 32 31 32 
33 32 33 33 32 33 31 30 31 30 31 30 31 29 26 34 34 33 26 33 27 136 171 132 
225 231 219 230 227 223 232 229 225 229 224 222 235 224 228 193 156 189 13 1 13 42 72 41 
10 13 10 11 11 11 9 9 9 11 11 11 11 11 11 11 11 11 10 10 10 9 9 9 
10 10 10 11 11 11 11 11 11 13 13 13 11 11 11 13 13 13 9 9 9 10 10 10 

11 11 11 13 13 13 10 10 10 9 9 9 9 9 9 9 9 9 9 9 9 11 11 11 
9 9 9 11 11 11 11 11 11 10 10 10 10 10 10 10 10 10 11 11 11 10 10 10 
10 10 10 2 3 1 118 150 120 197 195 201 193 196 199 193 192 198 197 195 201 204 180 205 
72 44 75 31 30 31 30 31 30 28 27 29 33 32 33 35 34 34 31 30 31 31 30 31 
32 31 32 33 32 33 31 30 31 33 32 33 30 31 30 31 30 31 33 33 31 35 34 34 
35 34 34 35 34 34 31 30 31 31 30 31 33 32 33 30 31 30 32 31 32 31 30 31 
31 30 31 30 31 30 34 34 33 33 32 33 33 33 31 33 32 33 35 30 27 46 30 29 
46 30 29 37 36 36 33 32 33 33 32 33 33 32 33 33 32 33 30 31 30 30 31 30 
33 32 33 32 31 32 32 31 32 33 32 33 30 31 30 32 31 32 30 31 30 33 32 33 
32 31 32 30 31 30 34 34 33 33 33 31 33 32 33 34 34 33 32 31 32 33 32 33 
34 34 33 33 32 33 34 34 33 33 32 33 31 30 31 33 32 33 40 38 33 75 55 39 
75 55 39 75 55 39 75 55 39 75 55 39 75 55 39 75 55 39 75 55 39 75 55 39 
75 55 39 75 55 39 75 55 39 75 55 39 75 55 39 75 55 39 75 55 39 75 55 39 
75 55 39 75 55 39 75 55 39 75 55 39 75 55 39 75 55 39 75 55 39 75 55 39 
75 55 39 75 55 39 75 55 39 75 55 39 75 55 39 75 55 39 75 55 39 75 55 39 
75 55 39 75 55 39 75 55 39 75 55 39 75 55 39 75 55 39 75 55 39 75 55 39 
75 55 39 75 55 39 75 55 39 75 55 39 75 55 39 75 55 39 75 55 39 75 55 39 
75 55 39 75 55 39 75 55 39 75 55 39 46 30 29 35 34 34 31 30 31 31 29 26 
33 33 31 32 31 32 27 26 26 33 32 33 32 31 32 29 29 30 32 31 32 32 31 32 
35 34 34 33 32 33 29 29 30 31 30 31 33 32 33 33 32 33 32 31 32 32 31 32 
33 32 33 32 31 32 32 31 32 32 31 32 33 33 31 118 150 120 232 200 224 226 45 75 
242 40 38 242 40 38 242 40 38 242 40 38 242 40 38 242 40 38 206 31 34 181 22 29 
206 31 34 193 22 30 206 31 34 237 40 38 242 40 38 237 40 38 242 40 38 242 40 38 
237 40 38 204 175 134 221 188 211 54 26 46 32 31 32 35 35 37 28 27 29 31 30 31 
30 31 30 32 31 32 27 26 26 33 32 33 27 26 26 32 31 32 32 31 32 31 30 31 
30 31 30 30 31 30 32 31 32 34 34 33 33 33 31 33 32 33 34 34 33 29 29 30 
33 32 33 31 30 31 32 31 32 30 31 30 29 29 30 33 32 33 26 33 27 136 171 132 
225 231 219 230 227 223 230 227 223 229 224 222 235 224 228 193 156 189 13 1 13 42 72 41 
9 9 9 7 7 7 10 10 10 11 11 11 11 11 11 10 10 10 11 11 11 10 10 10 
11 11 11 10 10 10 10 10 10 9 9 9 10 10 10 11 11 11 7 7 7 11 11 11 

10 10 10 11 11 11 11 11 11 10 10 10 10 10 10 11 11 11 9 9 9 10 10 10 
10 10 10 11 11 11 11 11 11 11 11 11 9 9 9 11 11 11 9 9 9 11 11 11 
9 9 9 2 3 1 118 150 120 193 196 199 197 195 201 193 192 198 197 195 201 204 180 205 
72 44 75 31 30 31 32 31 32 33 32 33 30 31 30 32 31 32 33 32 33 29 29 30 
34 34 33 32 31 32 31 30 31 29 29 30 32 31 32 27 26 26 34 34 33 32 31 32 
32 31 32 32 31 32 32 31 32 31 30 31 32 31 32 31 30 31 31 30 31 31 30 31 
30 31 30 31 30 31 32 31 32 33 32 33 35 34 34 32 31 32 29 29 30 34 34 33 
34 34 33 35 34 34 30 31 30 30 31 30 33 32 33 35 34 34 32 31 32 34 34 33 
33 32 33 33 32 33 32 31 32 32 31 32 30 31 30 35 34 34 30 31 30 33 32 33 
29 29 30 30 31 30 31 30 31 32 31 32 33 32 33 33 32 33 34 34 33 30 31 30 
33 32 33 32 31 32 35 34 34 29 29 30 32 31 32 32 31 32 34 34 33 33 33 31 
34 34 33 30 31 30 32 31 32 35 34 34 34 34 33 31 29 26 32 31 32 31 30 31 
30 31 30 34 34 33 30 31 30 34 34 33 28 27 29 34 34 33 33 32 33 35 34 34 
30 31 30 33 33 31 32 31 32 28 27 29 33 33 31 33 33 31 28 27 29 31 29 26 
33 33 31 31 30 31 30 31 30 33 33 31 33 33 31 30 31 30 33 33 31 30 31 30 
29 29 30 30 31 30 29 29 30 33 33 31 31 30 31 34 34 33 30 31 30 33 33 31 
33 32 33 35 34 34 33 33 31 31 30 31 32 31 32 33 32 33 29 29 30 33 32 33 
35 35 37 33 32 33 33 33 31 35 34 34 35 34 34 33 32 33 34 34 33 32 31 32 
29 29 30 35 34 34 32 31 32 31 30 31 32 31 32 29 29 30 32 31 32 31 30 31 
33 32 33 34 34 33 33 32 33 32 31 32 27 26 26 33 32 33 32 31 32 29 29 30 
29 29 30 33 32 33 33 32 33 32 31 32 33 33 31 118 150 120 221 188 211 226 45 75 
242 40 38 242 40 38 242 40 38 242 40 38 242 40 38 242 40 38 237 40 38 193 22 30 
181 22 29 193 22 30 237 40 38 237 40 38 237 40 38 242 40 38 242 40 38 242 40 38 
237 40 38 194 162 123 221 188 211 54 26 46 30 31 30 33 32 33 27 26 26 35 34 34 
33 32 33 32 31 32 33 32 33 32 31 32 33 32 33 33 32 33 29 29 30 35 34 34 
31 30 31 31 30 31 33 32 33 33 32 33 30 31 30 34 34 33 33 32 33 30 31 30 
33 32 33 34 34 33 30 31 30 33 32 33 33 32 33 31 30 31 34 38 34 136 171 132 
225 231 219 232 229 225 230 227 223 230 227 223 235 224 228 193 156 189 13 1 13 42 72 41 
9 9 9 7 7 7 9 9 9 11 11 11 9 9 9 11 11 11 11 11 11 11 11 11 
11 11 11 11 11 11 10 10 10 11 11 11 10 10 10 11 11 11 11 11 11 11 11 11 

11 11 11 9 9 9 9 9 9 11 11 11 11 11 11 11 11 11 11 11 11 10 10 10 
9 9 9 9 9 9 11 11 11 11 11 11 11 11 11 7 7 7 11 11 11 9 9 9 
10 10 10 2 3 1 118 150 120 193 196 199 197 195 201 193 192 198 193 192 198 204 180 205 
72 44 75 28 27 29 32 31 32 30 31 30 27 26 26 30 31 30 35 34 34 30 31 30 
30 31 30 33 32 33 32 31 32 31 30 31 32 31 32 33 32 33 31 30 31 35 34 34 
30 31 30 33 33 31 33 32 33 30 31 30 34 34 33 27 26 26 33 32 33 30 31 30 
32 31 32 29 29 30 29 29 30 34 34 33 32 31 32 34 34 33 34 34 33 31 29 26 
31 30 31 32 31 32 28 27 29 32 31 32 34 34 33 30 31 30 31 30 31 33 32 33 
32 31 32 30 31 30 31 30 31 31 30 31 30 31 30 30 31 30 30 31 30 35 34 34 
33 32 33 27 26 26 34 34 33 34 34 33 30 31 30 33 32 33 31 30 31 28 27 29 
34 34 33 33 32 33 33 32 33 30 31 30 32 31 32 35 34 34 30 31 30 30 31 30 
32 31 32 29 29 30 37 37 38 33 32 35 35 35 37 31 30 31 28 27 29 35 35 37 
30 30 34 30 30 34 33 32 33 35 34 34 35 35 37 30 30 34 30 30 34 35 35 37 
30 30 34 33 32 35 33 32 33 33 32 35 33 32 35 30 30 34 35 35 37 31 30 31 
35 34 34 33 32 35 33 32 35 30 30 34 35 35 37 30 30 34 33 32 35 30 30 34 
33 32 33 30 30 34 33 32 35 31 30 31 30 30 34 35 35 37 35 35 37 33 32 35 
33 32 35 35 35 37 35 37 41 29 29 30 33 32 35 35 35 37 35 35 37 35 35 37 
30 30 34 30 30 34 31 30 31 31 30 31 33 32 33 29 29 30 33 32 33 34 34 33 
34 34 33 31 30 31 33 32 33 30 31 30 32 31 32 34 34 33 29 29 30 31 30 31 
33 33 31 33 33 31 33 32 33 31 30 31 33 33 31 35 34 34 33 33 31 33 32 33 
33 32 33 32 31 32 29 29 30 32 31 32 30 31 30 118 150 120 221 188 211 226 45 75 
242 40 38 242 40 38 242 40 38 242 40 38 242 40 38 242 40 38 237 40 38 206 31 34 
181 22 29 206 31 34 237 40 38 242 40 38 242 40 38 242 40 38 242 40 38 242 40 38 
237 40 38 227 142 96 204 180 205 54 26 46 34 34 33 30 31 30 31 30 31 34 34 33 
32 31 32 33 32 33 31 30 31 33 32 33 34 34 33 32 31 32 33 32 33 34 34 33 
30 31 30 33 32 33 31 30 31 30 31 30 31 30 31 32 31 32 34 34 33 33 32 33 
33 33 31 30 31 30 34 34 33 29 29 30 32 31 32 33 33 31 26 33 27 136 171 132 
225 231 219 230 227 223 232 229 225 229 224 222 235 224 228 193 156 189 13 1 13 42 72 41 
10 13 10 9 9 9 11 11 11 10 10 10 11 11 11 11 11 11 10 10 10 7 7 7 
11 11 11 7 7 7 11 11 11 10 10 10 11 11 11 11 11 11 11 11 11 9 9 9 

10 10 10 10 10 10 10 10 10 11 11 11 10 10 10 11 11 11 10 10 10 10 10 10 
10 10 10 11 11 11 11 11 11 11 11 11 11 11 11 10 10 10 10 10 10 9 9 9 
9 9 9 2 3 1 118 150 120 197 195 201 197 195 201 193 192 198 197 195 201 204 180 205 
72 44 75 33 32 33 32 31 32 32 31 32 35 34 34 32 31 32 32 31 32 31 30 31 
34 34 33 34 34 33 33 32 33 32 31 32 32 31 32 33 32 33 31 30 31 31 30 31 
33 33 31 34 34 33 31 30 31 34 34 33 31 30 31 32 31 32 31 30 31 32 31 32 
30 31 30 32 31 32 35 34 34 33 32 33 33 32 33 33 33 31 33 33 31 31 30 31 
33 32 33 33 32 33 35 34 34 33 32 33 32 31 32 31 30 31 31 30 31 34 34 33 
32 31 32 34 34 33 30 31 30 29 29 30 29 29 30 30 31 30 29 29 30 35 34 34 
32 31 32 31 30 31 33 33 31 33 33 31 29 29 30 32 31 32 33 32 33 32 31 32 
34 34 33 30 31 30 31 30 31 30 31 30 35 34 34 31 30 31 28 33 48 54 68 89 
54 68 89 54 68 89 54 68 89 54 68 89 54 68 89 54 68 89 54 68 89 54 68 89 
54 68 89 54 68 89 54 68 89 54 68 89 54 68 89 54 68 89 54 68 89 54 68 89 
54 68 89 54 68 89 54 68 89 54 68 89 54 68 89 54 68 89 54 68 89 54 68 89 
54 68 89 54 68 89 54 68 89 54 68 89 54 68 89 54 68 89 54 68 89 54 68 89 
54 68 89 54 68 89 54 68 89 54 68 89 54 68 89 54 68 89 54 68 89 54 68 89 
54 68 89 54 68 89 54 68 89 54 68 89 54 68 89 54 68 89 54 68 89 54 68 89 
54 68 89 54 68 89 54 68 89 54 68 89 30 42 84 35 35 37 32 31 32 33 33 31 
29 29 30 31 30 31 31 30 31 30 31 30 32 31 32 30 31 30 34 34 33 33 33 31 
32 31 32 31 30 31 30 31 30 30 31 30 31 30 31 30 31 30 32 31 32 33 33 31 
29 29 30 30 31 30 32 31 32 32 31 32 26 33 27 118 150 120 221 188 211 226 45 75 
237 40 38 242 40 38 242 40 38 242 40 38 242 40 38 242 40 38 223 37 37 193 22 30 
181 22 29 181 22 29 223 37 37 237 40 38 242 40 38 242 40 38 242 40 38 242 40 38 
237 40 38 194 162 123 204 180 205 54 26 46 34 34 33 30 31 30 30 31 30 32 31 32 
34 34 33 32 31 32 33 32 33 35 34 34 35 34 34 30 31 30 29 29 30 31 30 31 
30 31 30 30 31 30 33 32 33 33 32 33 32 31 32 33 33 31 34 34 33 27 26 26 
34 34 33 32 31 32 32 31 32 27 26 26 31 30 31 30 31 30 26 33 27 136 171 132 
225 231 219 232 229 225 230 227 223 229 224 222 235 224 228 193 156 189 13 1 13 42 72 41 
10 13 10 11 11 11 10 10 10 11 11 11 11 11 11 11 11 11 11 11 11 13 13 13 
9 9 9 13 13 13 11 11 11 11 11 11 11 11 11 13 13 13 11 11 11 10 10 10 

10 10 10 11 11 11 10 10 10 13 13 13 9 9 9 10 10 10 7 7 7 10 10 10 
9 9 9 11 11 11 10 10 10 10 10 10 10 10 10 11 11 11 10 10 10 11 11 11 
10 10 10 2 3 1 118 150 120 193 196 199 197 195 201 197 195 201 197 195 201 204 180 205 
72 44 75 35 34 34 29 29 30 33 32 33 33 33 31 31 30 31 30 30 34 31 30 31 
31 29 26 30 31 30 32 31 32 35 34 34 33 32 33 34 34 33 33 32 33 32 31 32 
31 30 31 33 33 31 33 33 31 35 34 34 34 34 33 32 31 32 33 32 33 32 31 32 
31 30 31 31 30 31 33 32 33 31 30 31 35 34 34 31 30 31 30 31 30 29 29 30 
30 31 30 30 31 30 31 30 31 35 34 34 35 34 34 35 34 34 35 34 34 31 30 31 
34 34 33 33 32 33 34 34 33 35 34 34 29 29 30 34 34 33 33 32 33 32 31 32 
31 30 31 33 32 33 35 34 34 33 32 33 29 29 30 33 32 33 31 30 31 33 32 33 
32 31 32 33 32 33 33 32 33 32 31 32 33 32 33 34 38 34 99 111 124 126 132 133 
126 132 133 126 132 133 126 132 133 133 132 130 126 132 133 126 132 133 126 132 133 126 132 133 
126 132 133 126 132 133 126 132 133 126 132 133 126 132 133 126 132 133 126 132 133 126 132 133 
126 132 133 126 132 133 126 132 133 133 132 130 130 128 126 126 132 133 126 132 133 126 132 133 
126 132 133 126 132 133 126 132 133 126 132 133 126 132 133 126 132 133 126 132 133 126 132 133 
126 132 133 126 132 133 126 132 133 126 132 133 126 132 133 133 132 130 126 132 133 126 132 133 
126 132 133 126 132 133 126 132 133 133 132 130 126 132 133 133 132 130 133 132 130 126 132 133 
133 132 130 133 132 130 126 132 133 126 132 133 126 118 124 30 42 84 33 32 33 31 30 31 
30 30 34 28 27 29 29 29 30 33 32 33 30 31 30 29 29 30 32 31 32 31 30 31 
35 34 34 33 32 33 30 31 30 32 31 32 34 34 33 33 32 33 32 31 32 30 31 30 
30 31 30 33 32 33 30 31 30 35 30 27 31 30 31 118 150 120 222 207 217 207 62 126 
242 40 38 242 40 38 242 40 38 242 40 38 242 40 38 237 40 38 206 31 34 193 22 30 
223 37 37 193 22 30 193 22 30 237 40 38 237 40 38 242 40 38 242 40 38 237 40 38 
229 54 48 179 168 151 221 188 211 54 26 46 34 34 33 29 29 30 33 33 31 34 34 33 
31 30 31 34 34 33 32 31 32 31 30 31 33 32 33 32 31 32 34 34 33 28 27 29 
30 31 30 29 29 30 30 31 30 34 34 33 32 31 32 29 29 30 31 30 31 33 33 31 
30 31 30 31 30 31 32 31 32 33 32 33 33 32 33 33 33 31 26 33 27 136 171 132 
225 231 219 232 229 225 230 227 223 230 227 223 235 224 228 193 156 189 13 1 13 42 72 41 
10 13 10 11 11 11 10 10 10 13 13 13 10 10 10 11 11 11 10 10 10 11 11 11 
10 10 10 11 11 11 11 11 11 11 11 11 11 11 11 11 11 11 11 11 11 10 10 10 

11 11 11 13 13 13 11 11 11 11 11 11 10 10 10 11 11 11 10 10 10 11 11 11 
14 14 14 11 11 11 11 11 11 11 11 11 11 11 11 10 10 10 11 11 11 11 11 11 
10 10 10 2 3 1 118 150 120 193 196 199 197 195 201 193 192 198 197 195 201 204 180 205 
72 44 75 33 32 33 33 32 33 30 31 30 32 31 32 30 31 30 32 31 32 35 34 34 
35 35 37 33 32 33 31 30 31 31 30 31 31 30 31 37 37 38 30 31 30 33 32 33 
33 32 33 28 27 29 30 31 30 35 34 34 32 31 32 30 31 30 33 32 33 33 32 33 
33 32 33 33 32 33 32 31 32 35 34 34 33 32 33 31 30 31 33 32 33 29 29 30 
30 31 30 34 34 33 35 34 34 30 31 30 31 30 31 33 32 33 30 31 30 33 32 33 
31 30 31 33 33 31 34 34 33 35 34 34 33 32 33 33 32 33 34 34 33 30 31 30 
32 31 32 35 34 34 32 31 32 33 32 35 33 32 33 33 32 35 31 30 31 32 31 32 
32 31 32 34 34 33 27 26 26 28 27 29 32 31 32 42 72 41 130 128 126 130 128 126 
132 129 128 130 128 126 132 129 128 133 132 130 133 132 130 130 128 126 130 128 126 130 128 126 
130 128 126 130 128 126 133 132 130 130 128 126 130 128 126 132 129 128 133 132 130 130 128 126 
132 129 128 132 129 128 132 129 128 132 129 128 132 129 128 133 132 130 130 128 126 130 128 126 
130 128 126 130 128 126 132 129 128 132 129 128 132 129 128 133 132 130 132 129 128 130 128 126 
132 129 128 132 129 128 130 128 126 130 128 126 130 128 126 132 129 128 132 129 128 133 132 130 
130 128 126 130 128 126 130 128 126 130 128 126 130 128 126 130 128 126 133 132 130 130 128 126 
132 129 128 132 129 128 132 129 128 133 132 130 132 129 128 93 65 93 37 36 36 34 34 33 
31 30 31 29 29 30 33 32 33 32 31 32 32 31 32 33 33 31 32 31 32 35 34 34 
32 31 32 32 31 32 33 33 31 31 30 31 32 31 32 32 31 32 29 29 30 30 31 30 
30 31 30 33 32 33 31 30 31 30 31 30 26 33 27 118 150 120 223 220 219 206 139 176 
226 45 75 237 40 38 242 40 38 242 40 38 242 40 38 223 37 37 181 22 29 223 37 37 
237 40 38 223 37 37 181 22 29 206 31 34 242 40 38 242 40 38 242 40 38 242 40 38 
211 97 97 170 180 172 221 188 211 54 26 46 33 33 31 35 34 34 33 33 31 30 31 30 
35 34 34 33 32 33 28 27 29 35 34 34 33 32 33 32 31 32 35 34 34 33 32 35 
33 32 33 34 34 33 33 32 33 33 33 31 30 31 30 32 31 32 33 32 35 29 29 30 
33 32 33 33 32 33 27 26 26 31 30 31 32 31 32 33 33 31 26 33 27 136 171 132 
225 231 219 230 227 223 230 227 223 229 224 222 235 224 228 193 156 189 13 1 13 42 72 41 
10 13 10 10 10 10 11 11 11 11 11 11 11 11 11 11 11 11 13 13 13 9 9 9 
10 10 10 11 11 11 11 11 11 11 11 11 11 11 11 11 11 11 11 11 11 10 10 10 

11 11 11 13 13 13 9 9 9 7 7 7 9 9 9 10 10 10 11 11 11 9 9 9 
11 11 11 10 10 10 11 11 11 11 11 11 11 11 11 10 10 10 9 9 9 11 11 11 
10 10 10 2 3 1 118 150 120 193 196 199 193 192 198 193 196 199 193 192 198 204 180 205 
72 44 75 29 29 30 33 32 33 34 34 33 31 29 26 29 29 30 30 31 30 33 32 33 
34 34 33 34 34 33 33 32 33 32 31 32 29 29 30 35 34 34 33 32 33 33 33 31 
30 31 30 32 31 32 32 31 32 32 31 32 32 31 32 33 32 33 33 33 31 32 31 32 
33 32 33 33 32 33 35 34 34 33 32 33 32 31 32 33 32 33 34 34 33 29 29 30 
30 30 34 35 34 34 35 34 34 31 30 31 34 34 33 30 31 30 34 34 33 33 32 33 
30 31 30 33 32 33 37 36 36 33 33 31 32 31 32 33 32 35 35 34 34 31 30 31 
30 31 30 30 31 30 30 31 30 34 34 33 33 32 33 35 34 34 31 30 31 33 33 31 
34 34 33 32 31 32 32 31 32 32 31 32 33 33 31 42 72 41 130 128 126 132 129 128 
130 128 126 132 129 128 130 128 126 132 129 128 130 128 126 133 132 130 130 128 126 130 128 126 
130 128 126 132 129 128 130 128 126 130 128 126 132 129 128 133 132 130 130 128 126 132 129 128 
130 128 126 130 128 126 132 129 128 132 129 128 133 132 130 130 128 126 132 129 128 132 129 128 
130 128 126 130 128 126 132 129 128 130 128 126 132 129 128 130 128 126 130 128 126 133 132 130 
132 129 128 132 129 128 130 128 126 132 129 128 132 129 128 132 129 128 132 129 128 132 129 128 
130 128 126 132 129 128 133 132 130 132 129 128 130 128 126 130 128 126 130 128 126 132 129 128 
133 132 130 132 129 128 132 129 128 132 129 128 132 129 128 93 65 93 35 34 34 32 31 32 
33 32 35 31 30 31 35 34 34 33 32 33 31 30 31 33 32 33 33 33 31 33 33 31 
37 37 38 35 34 34 32 31 32 33 32 33 31 30 31 32 31 32 34 34 33 29 29 30 
34 34 33 35 34 34 28 27 29 33 32 35 33 33 31 118 150 120 225 231 219 221 188 211 
215 64 101 237 40 38 242 40 38 242 40 38 242 40 38 193 22 30 193 22 30 237 40 38 
242 40 38 237 40 38 193 22 30 193 22 30 237 40 38 242 40 38 237 40 38 229 54 48 
174 146 114 193 196 199 232 200 224 54 26 46 34 34 33 29 29 30 29 29 30 29 29 30 
30 31 30 33 32 33 31 30 31 35 34 34 30 31 30 31 30 31 33 32 33 35 34 34 
30 31 30 33 32 33 33 32 33 31 30 31 29 29 30 33 32 35 33 32 33 35 34 34 
31 30 31 30 31 30 30 31 30 33 32 33 33 32 33 33 33 31 26 33 27 136 171 132 
225 231 219 230 227 223 230 227 223 230 227 223 235 224 228 193 156 189 13 1 13 42 72 41 
10 13 10 11 11 11 11 11 11 11 11 11 11 11 11 11 11 11 10 10 10 11 11 11 
7 7 7 10 10 10 11 11 11 11 11 11 10 10 10 10 10 10 11 11 11 11 11 11 

9 9 9 11 11 11 7 7 7 11 11 11 10 10 10 11 11 11 10 10 10 11 11 11 
10 10 10 10 10 10 11 11 11 11 11 11 11 11 11 11 11 11 11 11 11 11 11 11 
7 7 7 2 3 1 118 150 120 193 192 198 197 195 201 193 192 198 197 195 201 204 180 205 
72 44 75 32 31 32 33 32 33 32 31 32 32 31 32 34 34 33 31 30 31 31 30 31 
34 34 33 33 32 33 30 31 30 35 34 34 30 31 30 31 30 31 34 34 33 32 31 32 
33 32 33 33 32 33 31 30 31 34 34 33 35 34 34 30 31 30 33 32 33 32 31 32 
32 31 32 33 32 33 30 31 30 35 34 34 35 34 34 33 32 33 34 34 33 34 34 33 
33 32 33 32 31 32 33 33 31 33 32 33 33 32 33 30 30 34 29 29 30 33 32 33 
32 31 32 29 29 30 28 27 29 28 27 29 27 26 26 32 31 32 31 30 31 31 30 31 
30 31 30 31 30 31 29 29 30 33 33 31 34 34 33 29 29 30 31 30 31 35 34 34 
31 30 31 31 30 31 27 26 26 30 31 30 33 33 31 54 81 55 130 128 126 130 128 126 
130 128 126 132 129 128 133 132 130 130 128 126 133 132 130 133 132 130 132 129 128 132 129 128 
132 129 128 132 129 128 130 128 126 133 132 130 130 128 126 133 132 130 133 132 130 132 129 128 
132 129 128 132 129 128 132 129 128 133 132 130 132 129 128 132 129 128 133 132 130 133 132 130 
130 128 126 133 132 130 130 128 126 130 128 126 130 128 126 130 128 126 130 128 126 132 129 128 
132 129 128 132 129 128 132 129 128 130 128 126 133 132 130 132 129 128 132 129 128 133 132 130 
130 128 126 132 129 128 130 128 126 132 129 128 130 128 126 132 129 128 130 128 126 133 132 130 
132 129 128 132 129 128 133 132 130 133 132 130 133 132 130 93 65 93 27 26 26 33 33 31 
35 35 37 30 31 30 30 31 30 33 33 31 33 32 33 31 30 31 30 31 30 30 31 30 
30 31 30 34 34 33 35 34 34 33 33 31 30 31 30 31 30 31 32 31 32 33 32 33 
32 31 32 31 30 31 32 31 32 29 29 30 28 27 29 118 150 120 225 231 219 223 220 219 
206 139 176 226 45 75 237 40 38 242 40 38 242 40 38 237 40 38 237 40 38 242 40 38 
242 40 38 242 40 38 237 40 38 237 40 38 242 40 38 242 40 38 229 54 48 181 99 112 
170 180 172 221 217 216 232 200 224 54 26 46 30 31 30 35 34 34 31 30 31 32 31 32 
31 30 31 33 32 33 29 29 30 30 31 30 31 30 31 33 32 33 35 34 34 34 34 33 
34 34 33 30 31 30 33 33 31 30 31 30 37 36 36 32 31 32 30 31 30 31 30 31 
30 31 30 34 34 33 33 32 33 33 32 35 29 29 30 30 31 30 26 33 27 136 171 132 
225 231 219 230 227 223 230 227 223 230 227 223 235 224 228 193 156 189 13 1 13 42 72 41 
10 13 10 11 11 11 11 11 11 10 10 10 11 11 11 11 11 11 10 10 10 11 11 11 
10 10 10 11 11 11 11 11 11 11 11 11 10 10 10 9 9 9 9 9 9 13 13 13 

11 11 11 9 9 9 13 13 13 10 10 10 11 11 11 11 11 11 10 10 10 11 11 11 
11 11 11 11 11 11 11 11 11 10 10 10 9 9 9 13 13 13 11 11 11 13 13 13 
9 9 9 2 3 1 118 150 120 193 196 199 193 196 199 193 192 198 193 192 198 204 180 205 
72 44 75 31 30 31 32 31 32 33 32 33 33 32 33 30 31 30 33 32 33 34 34 33 
30 31 30 33 32 33 32 31 32 30 31 30 32 31 32 32 31 32 32 31 32 27 26 26 
32 31 32 32 31 32 34 34 33 34 34 33 33 32 35 30 31 30 33 32 35 30 30 34 
35 37 41 35 37 41 35 37 41 35 37 41 33 32 35 35 37 41 35 37 41 28 33 48 
35 37 41 33 32 35 28 33 48 28 33 48 35 35 37 33 32 35 30 31 30 33 33 31 
33 32 35 29 29 30 29 29 30 32 31 32 32 31 32 30 31 30 30 31 30 33 32 33 
32 31 32 31 30 31 31 30 31 31 30 31 31 30 31 30 31 30 29 29 30 30 31 30 
29 29 30 31 30 31 30 31 30 31 30 31 30 31 30 42 72 41 130 128 126 132 129 128 
130 128 126 130 128 126 133 132 130 132 129 128 133 132 130 132 129 128 133 132 130 133 132 130 
132 129 128 130 128 126 130 128 126 132 129 128 132 129 128 132 129 128 133 132 130 133 132 130 
132 129 128 130 128 126 132 129 128 132 129 128 130 128 126 130 128 126 130 128 126 130 128 126 
130 128 126 130 128 126 132 129 128 132 129 128 130 128 126 133 132 130 130 128 126 132 129 128 
132 129 128 133 132 130 132 129 128 130 128 126 130 128 126 130 128 126 132 129 128 133 132 130 
130 128 126 132 129 128 133 132 130 130 128 126 132 129 128 133 132 130 130 128 126 133 132 130 
132 129 128 130 128 126 132 129 128 130 128 126 133 132 130 93 65 93 32 31 32 29 29 30 
33 32 33 28 27 29 33 32 35 33 33 31 32 31 32 31 29 26 31 30 31 29 29 30 
32 31 32 33 32 33 32 31 32 33 32 33 32 31 32 33 32 33 30 31 30 29 29 30 
30 31 30 30 31 30 31 29 26 31 30 31 28 27 29 118 150 120 225 231 219 228 228 227 
222 207 217 171 129 167 215 64 101 237 40 38 242 40 38 237 40 38 242 40 38 242 40 38 
242 40 38 242 40 38 237 40 38 242 40 38 237 40 38 229 54 48 211 97 97 152 144 164 
205 205 207 228 228 227 232 200 224 54 26 46 33 32 33 30 31 30 32 31 32 32 31 32 
32 31 32 31 30 31 34 34 33 30 31 30 33 33 31 33 32 33 34 34 33 28 27 29 
33 32 33 32 31 32 28 27 29 33 33 31 34 34 33 27 26 26 31 29 26 27 26 26 
30 31 30 30 31 30 31 30 31 31 30 31 31 30 31 33 33 31 26 33 27 136 171 132 
225 231 219 230 227 223 232 229 225 232 229 225 235 224 228 193 156 189 13 1 13 42 72 41 
10 13 10 11 11 11 11 11 11 9 9 9 14 14 14 11 11 11 10 10 10 10 10 10 
11 11 11 9 9 9 11 11 11 11 11 11 11 11 11 10 10 10 11 11 11 11 11 11 

11 11 11 11 11 11 11 11 11 11 11 11 11 11 11 10 10 10 10 10 10 11 11 11 
9 9 9 13 13 13 11 11 11 11 11 11 9 9 9 9 9 9 10 10 10 13 13 13 
9 9 9 2 3 1 118 150 120 193 196 199 197 195 201 197 195 201 197 195 201 204 180 205 
72 44 75 35 34 34 35 35 37 31 30 31 32 31 32 31 30 31 32 31 32 33 32 33 
33 32 33 37 37 38 32 31 32 30 31 30 31 30 31 30 31 30 29 29 30 33 32 33 
33 32 33 32 31 32 32 31 32 30 31 30 31 30 31 29 29 30 58 83 119 99 119 146 
99 119 146 99 119 146 99 119 146 99 119 146 99 119 146 99 119 146 99 119 146 99 119 146 
99 119 146 99 119 146 99 119 146 99 119 146 99 119 146 58 83 119 28 33 48 30 31 30 
33 33 31 31 30 31 33 32 33 34 34 33 33 33 31 33 33 31 35 34 34 33 32 33 
29 29 30 33 33 31 35 34 34 33 33 31 33 33 31 30 31 30 34 34 33 31 30 31 
31 30 31 32 31 32 30 31 30 33 32 33 33 32 33 42 72 41 130 128 126 130 128 126 
130 128 126 132 129 128 133 132 130 133 132 130 133 132 130 132 129 128 130 128 126 132 129 128 
130 128 126 133 132 130 130 128 126 132 129 128 133 132 130 130 128 126 130 128 126 130 128 126 
132 129 128 130 128 126 130 128 126 133 132 130 130 128 126 133 132 130 130 128 126 130 128 126 
132 129 128 130 128 126 132 129 128 130 128 126 132 129 128 132 129 128 132 129 128 130 128 126 
133 132 130 132 129 128 132 129 128 133 132 130 130 128 126 130 128 126 133 132 130 130 128 126 
130 128 126 130 128 126 130 128 126 130 128 126 133 132 130 133 132 130 133 132 130 130 128 126 
130 128 126 133 132 130 132 129 128 133 132 130 132 129 128 93 65 93 35 34 34 31 30 31 
35 34 34 27 26 26 31 29 26 33 32 35 33 33 31 32 31 32 30 31 30 35 34 34 
31 30 31 31 30 31 33 33 31 30 31 30 31 29 26 30 31 30 29 29 30 27 26 26 
33 32 33 29 29 30 29 29 30 33 33 31 30 31 30 118 150 120 225 231 219 230 227 223 
229 224 222 202 201 206 171 129 167 207 62 126 226 45 75 237 40 38 237 40 38 242 40 38 
237 40 38 237 40 38 237 40 38 229 54 48 220 70 81 181 99 112 152 144 164 202 201 206 
228 228 227 230 227 223 232 200 224 54 26 46 33 32 33 33 32 35 33 32 33 32 31 32 
33 32 33 33 32 35 31 30 31 33 32 33 34 34 33 28 27 29 32 31 32 35 35 37 
30 30 34 30 30 34 31 30 31 31 30 31 30 30 34 32 31 32 33 32 33 30 30 34 
31 30 31 30 31 30 34 34 33 33 33 31 30 31 30 30 31 30 33 33 31 136 171 132 
225 231 219 230 227 223 229 224 222 230 227 223 235 224 228 193 156 189 13 1 13 42 72 41 
10 13 10 10 10 10 13 13 13 13 13 13 10 10 10 13 13 13 11 11 11 11 11 11 
11 11 11 14 14 14 11 11 11 10 10 10 10 10 10 11 11 11 9 9 9 11 11 11 

11 11 11 11 11 11 11 11 11 10 10 10 9 9 9 10 10 10 11 11 11 9 9 9 
11 11 11 10 10 10 11 11 11 11 11 11 11 11 11 11 11 11 9 9 9 11 11 11 
13 10 11 2 3 1 118 150 120 193 192 198 193 192 198 197 195 201 193 192 198 204 180 205 
72 44 75 33 32 33 35 34 34 31 30 31 32 31 32 29 29 30 30 31 30 32 31 32 
32 31 32 31 30 31 30 31 30 28 27 29 31 30 31 31 30 31 29 29 30 32 31 32 
35 34 34 34 34 33 34 34 33 28 27 29 30 31 30 64 96 64 184 197 214 210 220 234 
223 220 219 221 217 216 223 220 219 223 220 219 223 220 219 223 220 219 223 220 219 223 220 219 
223 220 219 223 220 219 225 231 219 228 228 227 228 228 227 210 220 234 129 89 121 33 32 35 
37 36 36 33 32 33 30 31 30 34 34 33 31 30 31 32 31 32 32 31 32 32 31 32 
34 34 33 35 34 34 33 33 31 33 32 33 32 31 32 31 30 31 33 32 33 32 31 32 
30 31 30 31 30 31 30 31 30 33 32 33 30 31 30 42 72 41 130 128 126 133 132 130 
132 129 128 132 129 128 132 129 128 133 132 130 133 132 130 132 129 128 133 132 130 133 132 130 
130 128 126 130 128 126 133 132 130 133 132 130 132 129 128 130 128 126 132 129 128 130 128 126 
133 132 130 130 128 126 133 132 130 132 129 128 133 132 130 132 129 128 133 132 130 132 129 128 
132 129 128 130 128 126 133 132 130 132 129 128 132 129 128 132 129 128 133 132 130 130 128 126 
130 128 126 133 132 130 130 128 126 133 132 130 130 128 126 132 129 128 130 128 126 130 128 126 
130 128 126 130 128 126 133 132 130 130 128 126 130 128 126 130 128 126 130 128 126 133 132 130 
133 132 130 133 132 130 133 132 130 133 132 130 133 132 130 93 65 93 32 31 32 35 34 34 
32 31 32 33 32 33 33 32 35 28 33 48 30 42 84 30 42 84 30 42 84 30 42 84 
30 42 84 30 42 84 30 42 84 30 42 84 30 42 84 30 42 84 30 42 84 30 42 84 
30 42 84 30 42 84 30 42 84 30 42 84 30 42 84 118 150 120 225 231 219 230 227 223 
230 227 223 229 224 222 209 208 211 179 171 192 153 110 150 181 99 112 215 64 101 220 70 81 
220 70 81 220 70 81 211 97 97 181 99 112 149 132 147 170 180 172 209 208 211 225 231 219 
230 227 223 232 229 225 232 200 224 39 59 101 39 59 101 39 59 101 39 59 101 39 59 101 
39 59 101 39 59 101 39 59 101 39 59 101 39 59 101 39 59 101 39 59 101 39 59 101 
39 59 101 39 59 101 39 59 101 39 59 101 39 59 101 30 42 84 33 32 35 27 26 26 
29 29 30 33 32 33 30 31 30 29 29 30 32 31 32 30 31 30 26 33 27 136 171 132 
225 231 219 232 229 225 232 229 225 230 227 223 235 224 228 193 156 189 13 1 13 42 72 41 
10 13 10 10 10 10 10 10 10 11 11 11 11 11 11 11 11 11 10 10 10 11 11 11 
11 11 11 10 10 10 9 9 9 11 11 11 11 11 11 9 9 9 9 9 9 11 11 11 

11 11 11 14 14 14 11 11 11 10 10 10 11 11 11 11 11 11 10 10 10 9 9 9 
11 11 11 11 11 11 9 9 9 10 10 10 10 10 10 10 10 10 11 11 11 9 9 9 
11 11 11 2 3 1 118 150 120 193 196 199 197 195 201 197 195 201 197 195 201 204 180 205 
72 44 75 33 32 33 35 34 34 28 27 29 33 32 33 33 32 33 32 31 32 33 32 33 
31 30 31 34 34 33 34 34 33 31 30 31 31 30 31 35 34 34 32 31 32 35 34 34 
33 32 33 32 31 32 32 31 32 34 34 33 31 30 31 100 136 98 216 214 214 221 217 216 
199 181 160 194 162 123 194 162 123 194 162 123 194 162 123 194 162 123 194 162 123 194 162 123 
194 162 123 194 162 123 194 162 123 204 175 134 225 220 201 229 224 222 171 129 167 31 29 26 
32 31 32 31 30 31 30 31 30 31 30 31 33 32 33 31 30 31 29 29 30 34 34 33 
33 33 31 34 34 33 28 27 29 30 31 30 33 33 31 32 31 32 32 31 32 33 33 31 
30 31 30 31 30 31 32 31 32 35 34 34 30 31 30 42 72 41 134 129 113 132 129 128 
130 128 126 130 128 126 130 128 126 132 129 128 133 132 130 132 129 128 130 128 126 132 129 128 
130 128 126 130 128 126 130 128 126 130 128 126 132 129 128 130 128 126 130 128 126 130 128 126 
130 128 126 130 128 126 130 128 126 130 128 126 130 128 126 132 129 128 132 129 128 132 129 128 
132 129 128 130 128 126 130 128 126 130 128 126 130 128 126 132 129 128 133 132 130 132 129 128 
132 129 128 130 128 126 130 128 126 133 132 130 133 132 130 133 132 130 130 128 126 132 129 128 
130 128 126 130 128 126 130 128 126 132 129 128 132 129 128 132 129 128 130 128 126 132 129 128 
130 128 126 132 129 128 130 128 126 132 129 128 133 132 130 93 65 93 30 31 30 33 32 33 
29 29 30 31 29 26 35 58 32 156 188 206 200 214 229 200 214 229 200 214 229 200 214 229 
200 214 229 200 214 229 200 214 229 200 214 229 200 214 229 200 214 229 200 214 229 200 214 229 
200 214 229 200 214 229 200 214 229 200 214 229 200 214 229 200 214 229 228 228 227 229 224 222 
229 224 222 232 229 225 229 224 222 221 217 216 202 201 206 179 171 192 159 162 175 152 144 164 
152 144 164 152 144 164 159 162 175 178 189 183 192 206 221 223 220 219 229 224 222 230 227 223 
232 229 225 235 224 228 228 228 227 210 220 234 210 220 234 210 220 234 210 220 234 210 220 234 
210 220 234 210 220 234 210 220 234 210 220 234 210 220 234 210 220 234 210 220 234 210 220 234 
210 220 234 210 220 234 210 220 234 210 220 234 210 220 234 182 192 213 72 44 75 33 32 33 
31 30 31 31 30 31 30 31 30 29 29 30 34 34 33 35 34 34 34 38 34 136 171 132 
225 231 219 230 227 223 232 229 225 230 227 223 235 224 228 193 156 189 13 1 13 42 72 41 
9 9 9 11 11 11 11 11 11 11 11 11 10 10 10 11 11 11 10 10 10 10 10 10 
9 9 9 9 9 9 9 9 9 10 10 10 10 10 10 11 11 11 10 10 10 9 9 9 

11 11 11 11 11 11 11 11 11 11 11 11 11 11 11 11 11 11 10 10 10 9 9 9 
11 11 11 11 11 11 13 13 13 13 13 13 11 11 11 11 11 11 11 11 11 11 11 11 
7 7 7 2 3 1 118 150 120 193 192 198 197 195 201 193 192 198 193 192 198 204 180 205 
72 44 75 31 30 31 33 32 33 29 29 30 30 31 30 32 31 32 30 31 30 32 31 32 
30 31 30 32 31 32 32 31 32 35 34 34 31 30 31 31 30 31 33 32 33 31 30 31 
29 29 30 32 31 32 33 32 33 27 26 26 33 33 31 100 136 98 216 214 214 221 188 211 
75 32 51 35 30 27 35 30 27 35 30 27 35 30 27 35 30 27 35 30 27 35 30 27 
35 30 27 35 30 27 35 30 27 35 30 27 179 168 151 221 217 216 171 129 167 33 32 35 
29 29 30 32 31 32 33 32 33 32 31 32 33 33 31 30 31 30 32 31 32 34 34 33 
32 31 32 27 26 26 32 31 32 32 31 32 30 31 30 33 32 33 33 32 33 33 32 33 
31 29 26 33 32 33 33 32 35 32 31 32 32 31 32 30 31 30 119 87 59 132 121 101 
132 121 101 132 121 101 132 121 101 132 121 101 132 121 101 132 121 101 132 121 101 132 121 101 
132 121 101 132 121 101 132 121 101 132 121 101 132 121 101 132 121 101 132 121 101 132 121 101 
132 121 101 132 121 101 132 121 101 132 121 101 132 121 101 132 121 101 132 121 101 132 121 101 
132 121 101 132 121 101 132 121 101 132 121 101 132 121 101 132 121 101 132 121 101 132 121 101 
132 121 101 132 121 101 132 121 101 132 121 101 132 121 101 132 121 101 132 121 101 132 121 101 
132 121 101 132 121 101 132 121 101 132 121 101 132 121 101 132 121 101 132 121 101 132 121 101 
132 121 101 132 121 101 132 121 101 132 121 101 119 87 59 46 30 29 33 33 31 32 31 32 
35 34 34 34 34 33 72 117 69 219 237 216 232 229 225 230 227 223 230 227 223 229 224 222 
230 227 223 230 227 223 232 229 225 233 226 216 233 226 216 237 225 202 237 225 202 237 225 202 
233 226 216 230 227 223 229 224 222 230 227 223 230 227 223 230 227 223 230 227 223 232 229 225 
229 224 222 232 229 225 230 227 223 230 227 223 229 224 222 223 220 219 223 220 219 216 214 214 
200 214 229 216 214 214 223 220 219 229 224 222 223 220 219 230 227 223 229 224 222 230 227 223 
230 227 223 230 227 223 230 227 223 230 227 223 229 224 222 230 227 223 230 227 223 230 227 223 
233 226 216 233 226 216 237 225 202 237 225 202 237 225 202 233 226 216 230 227 223 229 224 222 
230 227 223 230 227 223 230 227 223 230 227 223 229 224 222 235 224 228 129 89 121 32 31 32 
32 31 32 33 32 35 31 30 31 30 31 30 31 30 31 31 29 26 26 33 27 136 171 132 
225 231 219 230 227 223 229 224 222 230 227 223 235 224 228 193 156 189 13 1 13 42 72 41 
10 13 10 11 11 11 11 11 11 11 11 11 11 11 11 10 10 10 11 11 11 10 10 10 
10 10 10 9 9 9 7 7 7 13 13 13 13 13 13 10 10 10 11 11 11 10 10 10 

11 11 11 13 13 13 11 11 11 7 7 7 10 10 10 11 11 11 11 11 11 13 13 13 
10 10 10 10 10 10 9 9 9 9 9 9 9 9 9 11 11 11 13 13 13 10 10 10 
7 7 7 2 3 1 118 150 120 193 196 199 193 192 198 193 196 199 193 196 199 204 180 205 
72 44 75 32 31 32 34 34 33 33 32 33 32 31 32 34 34 33 33 32 33 32 31 32 
30 31 30 32 31 32 32 31 32 32 31 32 31 30 31 34 34 33 29 29 30 30 31 30 
35 34 34 32 31 32 34 34 33 33 33 31 33 33 31 100 136 98 216 214 214 204 180 205 
54 26 46 32 31 32 32 31 32 32 31 32 32 31 32 33 33 31 31 29 26 30 31 30 
33 33 31 30 31 30 33 33 31 26 33 27 118 150 120 213 211 212 171 129 167 33 32 33 
32 31 32 30 31 30 34 34 33 32 31 32 30 31 30 30 31 30 29 29 30 33 32 33 
33 32 33 30 31 30 33 32 33 31 30 31 32 31 32 31 30 31 35 34 34 35 34 34 
27 26 26 32 31 32 33 32 33 31 30 31 31 30 31 33 33 31 34 34 33 46 30 29 
46 30 29 46 30 29 46 30 29 46 30 29 46 30 29 46 30 29 46 30 29 46 30 29 
46 30 29 46 30 29 46 30 29 46 30 29 46 30 29 46 30 29 46 30 29 46 30 29 
46 30 29 46 30 29 46 30 29 46 30 29 46 30 29 46 30 29 46 30 29 51 37 23 
46 30 29 46 30 29 46 30 29 46 30 29 46 30 29 46 30 29 46 30 29 46 30 29 
46 30 29 46 30 29 46 30 29 46 30 29 46 30 29 46 30 29 46 30 29 46 30 29 
46 30 29 46 30 29 46 30 29 46 30 29 46 30 29 51 37 23 46 30 29 46 30 29 
46 30 29 46 30 29 46 30 29 46 30 29 35 30 27 35 34 34 35 34 34 34 34 33 
33 32 33 28 27 29 72 117 69 219 237 216 230 227 223 232 229 225 232 229 225 229 224 222 
230 227 223 233 226 216 231 213 171 234 180 133 227 142 96 227 142 96 227 142 96 227 142 96 
234 180 133 231 213 171 237 225 202 233 226 216 230 227 223 232 229 225 230 227 223 232 229 225 
229 224 222 229 224 222 232 229 225 230 227 223 230 227 223 230 227 223 232 229 225 230 227 223 
229 224 222 230 227 223 230 227 223 230 227 223 230 227 223 230 227 223 229 224 222 229 224 222 
230 227 223 230 227 223 229 224 222 229 224 222 230 227 223 230 227 223 233 226 216 235 204 196 
234 180 133 227 142 96 227 142 96 227 142 96 227 142 96 234 180 133 231 213 171 237 225 202 
230 227 223 230 227 223 230 227 223 229 224 222 232 229 225 235 224 228 129 89 121 34 34 33 
31 30 31 35 34 34 31 30 31 33 33 31 35 34 34 30 31 30 26 33 27 136 171 132 
225 231 219 230 227 223 229 224 222 230 227 223 235 224 228 193 156 189 13 1 13 42 72 41 
10 13 10 13 13 13 11 11 11 10 10 10 7 7 7 9 9 9 11 11 11 10 10 10 
9 9 9 9 9 9 11 11 11 11 11 11 10 10 10 11 11 11 13 13 13 10 10 10 

7 7 7 9 9 9 11 11 11 10 10 10 11 11 11 11 11 11 10 10 10 11 11 11 
7 7 7 11 11 11 11 11 11 11 11 11 11 11 11 11 11 11 11 11 11 11 11 11 
7 7 7 2 3 1 118 150 120 193 196 199 193 192 198 193 192 198 197 195 201 204 180 205 
72 44 75 32 31 32 30 31 30 33 32 33 32 31 32 33 33 31 33 32 33 34 34 33 
32 31 32 30 31 30 32 31 32 27 26 26 34 34 33 31 30 31 34 34 33 31 30 31 
34 34 33 33 32 33 32 31 32 33 33 31 30 31 30 100 136 98 216 214 214 193 156 189 
54 26 46 33 32 33 30 30 34 30 31 30 31 30 31 18 14 10 9 9 9 27 26 26 
31 30 31 30 31 30 30 31 30 26 33 27 100 136 98 205 205 207 171 129 167 35 34 34 
32 31 32 32 31 32 33 32 33 34 34 33 32 31 32 32 31 32 29 29 30 32 31 32 
31 30 31 35 34 34 30 31 30 34 34 33 35 34 34 31 29 26 31 30 31 33 32 33 
30 31 30 32 31 32 33 32 33 30 31 30 31 30 31 32 31 32 32 31 32 33 32 33 
33 33 31 33 33 31 33 32 33 32 31 32 27 26 26 33 33 31 30 31 30 35 34 34 
33 33 31 31 30 31 31 29 26 32 31 32 32 31 32 32 31 32 33 32 33 34 34 33 
30 31 30 32 31 32 34 34 33 32 31 32 33 33 31 33 33 31 35 34 34 31 30 31 
32 31 32 33 32 35 32 31 32 32 31 32 31 29 26 33 33 31 33 33 31 31 30 31 
32 31 32 32 31 32 33 33 31 33 33 31 32 31 32 30 31 30 33 33 31 34 34 33 
33 32 33 32 31 32 35 34 34 31 30 31 31 30 31 30 31 30 26 33 27 33 33 31 
30 31 30 32 31 32 32 31 32 29 29 30 30 31 30 30 31 30 31 30 31 34 34 33 
32 31 32 33 33 31 72 117 69 219 237 216 229 224 222 232 229 225 232 229 225 235 224 228 
235 204 196 227 142 96 229 54 48 237 40 38 237 40 38 242 40 38 242 40 38 237 40 38 
237 40 38 229 54 48 227 142 96 231 213 171 233 226 216 230 227 223 229 224 222 230 227 223 
229 224 222 229 224 222 229 224 222 230 227 223 230 227 223 228 228 227 230 227 223 230 227 223 
229 224 222 232 229 225 229 224 222 230 227 223 230 227 223 232 229 225 229 224 222 230 227 223 
230 227 223 229 224 222 230 227 223 229 224 222 235 224 228 235 204 196 227 142 96 229 54 48 
237 40 38 237 40 38 242 40 38 237 40 38 237 40 38 237 40 38 229 54 48 227 142 96 
231 213 171 233 226 216 230 227 223 230 227 223 230 227 223 235 224 228 129 89 121 32 31 32 
31 29 26 31 29 26 34 34 33 33 32 33 29 29 30 33 32 33 26 33 27 136 171 132 
225 231 219 230 227 223 230 227 223 230 227 223 235 224 228 193 156 189 13 1 13 42 72 41 
10 13 10 11 11 11 11 11 11 10 10 10 9 9 9 11 11 11 13 13 13 10 10 10 
11 11 11 11 11 11 10 10 10 13 13 13 10 10 10 14 14 14 11 11 11 11 11 11 

10 10 10 10 10 10 11 11 11 11 11 11 11 11 11 10 10 10 9 9 9 11 11 11 
10 10 10 11 11 11 11 11 11 11 11 11 11 11 11 11 11 11 10 10 10 11 11 11 
7 7 7 2 3 1 118 150 120 193 196 199 197 195 201 193 196 199 193 192 198 204 180 205 
72 44 75 35 34 34 33 32 33 33 32 33 32 31 32 34 34 33 31 30 31 31 30 31 
29 29 30 31 30 31 32 31 32 32 31 32 29 29 30 33 33 31 34 34 33 31 30 31 
33 32 33 31 30 31 31 30 31 30 31 30 35 34 34 100 136 98 216 214 214 193 156 189 
54 26 46 31 30 31 33 32 33 35 30 27 22 15 15 2 3 1 2 3 1 9 9 9 
31 29 26 30 31 30 32 31 32 26 33 27 100 136 98 205 205 207 171 129 167 33 32 33 
31 30 31 32 31 32 33 32 33 33 32 33 33 32 33 34 34 33 34 34 33 35 34 34 
35 34 34 31 30 31 30 31 30 35 35 37 32 31 32 31 30 31 32 31 32 33 32 33 
29 29 30 35 34 34 33 32 33 34 38 34 33 32 33 32 31 32 28 27 29 30 30 34 
33 32 35 30 30 34 31 30 31 28 27 29 30 30 34 31 30 31 32 31 32 28 27 29 
30 30 34 30 30 34 33 32 35 30 30 34 31 30 31 31 30 31 32 31 32 29 29 30 
29 29 30 28 27 29 29 29 30 28 27 29 33 32 35 33 32 35 30 30 34 33 32 35 
33 32 33 35 37 41 30 30 34 35 35 37 33 32 35 33 32 35 33 32 35 31 30 31 
31 30 31 31 30 31 31 30 31 31 30 31 32 31 32 33 32 33 30 30 34 31 30 31 
33 32 33 30 30 34 35 34 34 32 31 32 32 31 32 32 31 32 32 31 32 31 30 31 
29 29 30 30 30 34 35 35 37 32 31 32 31 30 31 29 29 30 34 34 33 34 34 33 
34 34 33 34 34 33 72 117 69 219 237 216 232 229 225 232 229 225 233 226 216 228 174 187 
220 70 81 237 40 38 242 40 38 237 40 38 242 40 38 242 40 38 242 40 38 242 40 38 
242 40 38 242 40 38 237 40 38 222 94 55 234 180 133 237 225 202 229 224 222 230 227 223 
230 227 223 230 227 223 230 227 223 230 227 223 229 224 222 230 227 223 229 224 222 230 227 223 
230 227 223 230 227 223 230 227 223 229 224 222 230 227 223 230 227 223 230 227 223 229 224 222 
230 227 223 232 229 225 229 224 222 235 224 228 228 174 187 220 70 81 237 40 38 237 40 38 
242 40 38 242 40 38 242 40 38 242 40 38 242 40 38 242 40 38 242 40 38 237 40 38 
222 94 55 234 180 133 237 225 202 230 227 223 232 229 225 235 224 228 129 89 121 29 29 30 
30 31 30 27 26 26 32 31 32 33 32 33 33 32 33 37 37 38 26 33 27 136 171 132 
225 231 219 230 227 223 229 224 222 230 227 223 235 224 228 193 156 189 13 1 13 42 72 41 
7 7 7 11 9 10 11 11 11 11 11 11 10 10 10 11 11 11 11 11 11 11 11 11 
10 10 10 11 11 11 14 14 14 11 11 11 11 11 11 15 15 15 11 11 11 11 11 11 

11 11 11 9 9 9 9 9 9 11 11 11 9 9 9 11 11 11 10 10 10 11 11 11 
10 10 10 11 11 11 11 11 11 9 9 9 11 11 11 10 10 10 11 11 11 11 11 11 
10 10 10 2 3 1 118 150 120 193 192 198 193 192 198 193 192 198 197 195 201 204 180 205 
72 44 75 31 30 31 35 34 34 33 32 33 29 29 30 33 32 33 32 31 32 31 30 31 
32 31 32 33 32 33 35 34 34 33 32 33 31 30 31 33 32 33 34 34 33 32 31 32 
32 31 32 32 31 32 29 29 30 33 32 33 33 33 31 100 136 98 216 214 214 193 156 189 
54 26 46 33 33 31 31 29 26 22 15 15 2 3 1 2 3 1 2 3 1 2 3 1 
13 13 10 31 29 26 30 31 30 26 33 27 100 136 98 205 205 207 171 129 167 30 30 34 
32 31 32 32 31 32 29 29 30 32 31 32 33 33 31 34 34 33 35 34 34 34 34 33 
29 29 30 29 29 30 32 31 32 30 31 30 34 34 33 35 34 34 32 31 32 33 32 33 
27 26 26 31 30 31 31 30 31 31 30 31 33 32 33 34 34 33 28 33 48 54 68 89 
54 68 89 54 68 89 54 68 89 54 68 89 54 68 89 54 68 89 54 68 89 54 68 89 
54 68 89 54 68 89 54 68 89 54 68 89 54 68 89 54 68 89 54 68 89 54 68 89 
54 68 89 54 68 89 54 68 89 54 68 89 54 68 89 54 68 89 54 68 89 54 68 89 
54 68 89 54 68 89 54 68 89 54 68 89 54 68 89 54 68 89 54 68 89 54 68 89 
54 68 89 54 68 89 54 68 89 54 68 89 54 68 89 54 68 89 54 68 89 54 68 89 
54 68 89 54 68 89 54 68 89 54 68 89 54 68 89 54 68 89 54 68 89 54 68 89 
54 68 89 54 68 89 54 68 89 54 68 89 30 42 84 33 32 35 32 31 32 35 34 34 
31 30 31 29 29 30 72 117 69 219 237 216 230 227 223 235 224 228 228 174 187 229 54 48 
242 40 38 242 40 38 242 40 38 242 40 38 242 40 38 242 40 38 242 40 38 242 40 38 
242 40 38 242 40 38 242 40 38 242 40 38 222 94 55 234 180 133 233 226 216 230 227 223 
230 227 223 230 227 223 230 227 223 232 229 225 232 229 225 229 224 222 232 229 225 230 227 223 
229 224 222 230 227 223 230 227 223 230 227 223 230 227 223 230 227 223 229 224 222 232 229 225 
232 229 225 232 229 225 230 227 223 228 174 187 229 54 48 242 40 38 242 40 38 242 40 38 
242 40 38 237 40 38 242 40 38 242 40 38 242 40 38 242 40 38 242 40 38 242 40 38 
237 40 38 222 94 55 234 180 133 233 226 216 230 227 223 235 224 228 129 89 121 29 29 30 
37 37 38 33 32 33 31 30 31 35 34 34 31 30 31 35 34 34 26 33 27 136 171 132 
225 231 219 230 227 223 230 227 223 230 227 223 235 224 228 193 156 189 13 1 13 42 72 41 
9 9 9 13 10 11 10 10 10 11 11 11 7 7 7 9 9 9 10 10 10 9 9 9 
11 11 11 11 11 11 13 13 13 11 11 11 11 11 11 11 11 11 10 10 10 11 11 11 

10 10 10 10 10 10 11 11 11 13 13 13 11 11 11 10 10 10 13 13 13 10 10 10 
10 10 10 10 10 10 11 11 11 11 11 11 11 11 11 11 11 11 11 11 11 11 11 11 
10 10 10 2 3 1 118 150 120 193 196 199 193 192 198 197 195 201 193 192 198 204 180 205 
72 44 75 32 31 32 31 30 31 31 30 31 29 29 30 34 34 33 34 34 33 31 30 31 
37 37 38 33 32 33 33 32 33 35 34 34 30 31 30 32 31 32 31 30 31 32 31 32 
32 31 32 30 31 30 35 34 34 27 26 26 30 31 30 100 136 98 216 214 214 193 156 189 
54 26 46 33 32 33 25 24 25 13 1 13 2 3 1 2 3 1 2 3 1 2 3 1 
2 3 1 18 18 19 32 31 32 26 33 27 100 136 98 205 205 207 171 129 167 33 32 35 
30 31 30 33 32 33 31 30 31 31 30 31 32 31 32 32 31 32 31 30 31 30 31 30 
33 32 33 29 29 30 27 26 26 31 30 31 32 31 32 35 34 34 30 31 30 27 26 26 
30 31 30 30 31 30 31 30 31 35 34 34 35 35 37 34 38 34 99 111 124 126 132 133 
126 132 133 126 132 133 126 132 133 126 132 133 126 132 133 126 132 133 126 132 133 126 132 133 
126 132 133 126 132 133 126 132 133 126 132 133 126 132 133 126 132 133 126 132 133 126 132 133 
126 132 133 126 132 133 126 132 133 126 132 133 126 132 133 126 132 133 130 128 126 126 132 133 
126 132 133 126 132 133 126 132 133 126 132 133 126 132 133 126 132 133 126 132 133 126 132 133 
126 132 133 126 132 133 126 132 133 126 132 133 126 132 133 126 132 133 126 132 133 126 132 133 
126 132 133 126 132 133 126 132 133 126 132 133 126 132 133 126 132 133 126 132 133 126 132 133 
126 132 133 133 132 130 126 132 133 126 132 133 126 118 124 54 26 46 30 31 30 30 31 30 
33 32 33 30 30 34 72 117 69 219 237 216 229 224 222 232 200 224 220 70 81 242 40 38 
242 40 38 242 40 38 237 40 38 223 37 37 237 40 38 242 40 38 242 40 38 242 40 38 
223 37 37 237 40 38 242 40 38 237 40 38 237 40 38 222 94 55 231 213 171 229 224 222 
232 229 225 230 227 223 230 227 223 229 224 222 230 227 223 230 227 223 230 227 223 230 227 223 
229 224 222 229 224 222 232 229 225 229 224 222 229 224 222 230 227 223 230 227 223 229 224 222 
232 229 225 232 229 225 232 200 224 220 70 81 237 40 38 242 40 38 242 40 38 242 40 38 
242 40 38 242 40 38 242 40 38 206 31 34 237 40 38 242 40 38 242 40 38 237 40 38 
242 40 38 237 40 38 222 94 55 224 207 160 225 231 219 235 224 228 129 89 121 33 33 31 
33 33 31 27 26 26 30 31 30 31 30 31 33 33 31 33 32 33 26 33 27 136 171 132 
225 231 219 230 227 223 229 224 222 229 224 222 235 224 228 193 156 189 13 1 13 42 72 41 
10 13 10 11 11 11 11 11 11 11 11 11 10 10 10 13 13 13 11 11 11 11 11 11 
11 11 11 11 11 11 11 11 11 11 11 11 11 11 11 10 10 10 11 11 11 10 10 10 

11 11 11 7 7 7 10 10 10 11 11 11 11 11 11 11 11 11 10 10 10 11 11 11 
9 9 9 11 11 11 11 11 11 11 11 11 10 10 10 11 11 11 11 11 11 9 9 9 
11 11 11 2 3 1 118 150 120 193 196 199 193 192 198 193 192 198 193 192 198 204 180 205 
72 44 75 33 32 33 28 27 29 32 31 32 34 34 33 30 31 30 32 31 32 32 31 32 
29 29 30 31 30 31 32 31 32 35 34 34 31 30 31 37 36 36 33 32 33 30 31 30 
31 30 31 30 31 30 33 32 33 31 30 31 30 31 30 100 136 98 216 214 214 193 156 189 
54 26 46 31 30 31 33 32 33 14 15 19 2 3 1 2 3 1 2 3 1 2 3 1 
7 7 7 26 33 27 30 31 30 26 33 27 100 136 98 205 205 207 171 129 167 33 32 35 
29 29 30 33 32 33 32 31 32 31 30 31 33 32 33 33 32 33 32 31 32 33 32 33 
29 29 30 30 31 30 34 34 33 33 32 33 31 30 31 30 31 30 35 34 34 32 31 32 
28 27 29 32 31 32 32 31 32 33 33 31 33 32 35 42 72 41 126 132 133 134 129 113 
132 121 101 132 121 101 132 121 101 134 129 113 134 129 113 132 121 101 132 121 101 132 121 101 
134 129 113 130 128 126 130 128 126 132 129 128 134 129 113 132 121 101 132 121 101 132 121 101 
134 129 113 134 129 113 132 121 101 132 121 101 132 121 101 132 121 101 132 121 101 134 129 113 
134 129 113 133 132 130 130 128 126 130 128 126 132 129 128 134 129 113 132 121 101 132 121 101 
132 121 101 134 129 113 132 121 101 132 121 101 132 121 101 134 129 113 132 129 128 134 129 113 
134 129 113 132 129 128 130 128 126 132 121 101 132 121 101 132 121 101 134 129 113 134 129 113 
132 121 101 132 121 101 132 121 101 134 129 113 132 129 128 93 65 93 33 33 31 32 31 32 
32 31 32 30 31 30 72 117 69 219 237 216 235 224 228 220 145 156 237 40 38 237 40 38 
242 40 38 242 40 38 223 37 37 193 22 30 206 31 34 237 40 38 242 40 38 223 37 37 
193 22 30 206 31 34 237 40 38 242 40 38 242 40 38 237 40 38 227 142 96 225 220 201 
230 227 223 230 227 223 230 227 223 230 227 223 230 227 223 230 227 223 230 227 223 230 227 223 
232 229 225 230 227 223 230 227 223 230 227 223 230 227 223 230 227 223 232 229 225 232 229 225 
232 229 225 235 224 228 220 145 156 237 40 38 242 40 38 242 40 38 242 40 38 242 40 38 
242 40 38 237 40 38 206 31 34 181 22 29 206 31 34 237 40 38 242 40 38 242 40 38 
242 40 38 242 40 38 237 40 38 227 142 96 225 220 201 235 224 228 129 89 121 31 30 31 
33 33 31 32 31 32 32 31 32 28 27 29 30 31 30 33 32 33 26 33 27 136 171 132 
225 231 219 229 224 222 229 224 222 229 224 222 235 224 228 193 156 189 13 1 13 42 72 41 
10 13 10 13 10 11 10 10 10 11 11 11 11 11 11 11 11 11 13 13 13 10 10 10 
13 13 13 11 11 11 13 13 13 11 11 11 9 9 9 11 11 11 11 11 11 10 10 10 

10 10 10 11 11 11 10 10 10 9 9 9 9 9 9 13 13 13 11 11 11 11 11 11 
10 10 10 10 10 10 7 7 7 11 11 11 11 11 11 9 9 9 11 11 11 11 11 11 
9 9 9 2 3 1 118 150 120 193 196 199 197 195 201 193 192 198 197 195 201 204 180 205 
72 44 75 33 32 33 30 31 30 33 32 33 32 31 32 33 32 33 34 34 33 33 32 33 
33 32 33 30 31 30 30 31 30 34 34 33 31 30 31 35 34 34 31 30 31 30 31 30 
33 32 33 31 30 31 30 31 30 33 32 33 26 33 27 90 124 91 213 211 212 193 156 189 
54 26 46 29 29 30 32 31 32 14 15 19 2 3 1 2 3 1 2 3 1 2 3 1 
7 7 7 26 33 27 31 29 26 26 33 27 100 136 98 203 201 197 171 129 167 33 32 35 
30 31 30 34 34 33 35 34 34 30 31 30 31 30 31 32 31 32 30 31 30 33 32 33 
33 32 33 30 31 30 33 32 33 35 34 34 30 31 30 30 31 30 33 32 33 37 37 38 
31 30 31 32 31 32 30 31 30 34 34 33 29 29 30 42 72 41 132 129 128 143 64 61 
139 42 45 139 42 45 139 42 45 137 108 95 139 42 45 139 42 45 139 42 45 143 64 61 
139 42 45 132 121 101 130 128 126 132 129 128 139 42 45 139 42 45 139 42 45 139 83 82 
143 64 61 139 42 45 139 42 45 143 64 61 143 64 61 139 42 45 143 21 40 139 42 45 
137 108 95 130 128 126 132 129 128 130 128 126 132 129 128 139 42 45 139 42 45 139 42 45 
139 42 45 139 83 82 139 42 45 139 42 45 139 42 45 139 83 82 137 108 95 139 42 45 
143 64 61 134 129 113 129 89 121 139 42 45 139 42 45 139 42 45 143 64 61 143 64 61 
139 42 45 139 42 45 139 42 45 137 108 95 130 128 126 93 65 93 33 32 33 33 33 31 
32 31 32 31 30 31 72 117 69 219 237 216 232 200 224 220 70 81 242 40 38 237 40 38 
242 40 38 242 40 38 237 40 38 193 22 30 193 22 30 237 40 38 242 40 38 206 31 34 
193 22 30 223 37 37 237 40 38 237 40 38 242 40 38 242 40 38 222 94 55 214 201 160 
230 227 223 230 227 223 230 227 223 230 227 223 232 229 225 230 227 223 230 227 223 230 227 223 
232 229 225 230 227 223 232 229 225 229 224 222 230 227 223 230 227 223 230 227 223 230 227 223 
229 224 222 235 224 228 215 64 101 242 40 38 242 40 38 242 40 38 237 40 38 242 40 38 
242 40 38 237 40 38 193 22 30 181 22 29 193 22 30 237 40 38 242 40 38 242 40 38 
242 40 38 242 40 38 237 40 38 222 94 55 214 201 160 235 224 228 129 89 121 31 30 31 
30 31 30 30 31 30 34 34 33 33 32 33 33 32 33 31 30 31 26 33 27 136 171 132 
225 231 219 232 229 225 230 227 223 230 227 223 235 224 228 193 156 189 13 1 13 42 72 41 
9 9 9 11 9 10 11 11 11 10 10 10 10 10 10 10 10 10 11 11 11 7 7 7 
11 11 11 11 11 11 9 9 9 11 11 11 9 9 9 10 10 10 10 10 10 11 11 11 

11 11 11 10 10 10 11 11 11 10 10 10 11 11 11 11 11 11 10 10 10 11 11 11 
11 11 11 11 11 11 11 11 11 11 11 11 10 10 10 9 9 9 9 9 9 10 10 10 
7 7 7 2 3 1 118 150 120 193 192 198 193 192 198 193 192 198 197 195 201 204 180 205 
72 44 75 33 32 33 34 34 33 34 34 33 33 32 33 29 29 30 33 32 33 33 32 33 
30 31 30 35 34 34 30 30 34 35 37 41 30 30 34 28 33 48 28 33 48 30 30 34 
33 32 35 30 30 34 30 30 34 28 33 48 30 30 34 100 136 98 213 211 212 193 156 189 
54 26 46 31 30 31 32 31 32 22 21 22 20 20 21 14 15 19 20 20 21 20 20 21 
20 20 21 29 29 30 30 31 30 26 33 27 100 136 98 203 201 197 171 129 167 35 37 41 
28 33 48 35 37 41 30 30 34 28 33 48 30 30 34 33 32 35 30 30 34 35 37 41 
30 30 34 35 37 41 34 34 33 34 34 33 34 34 33 34 34 33 35 35 37 32 31 32 
33 32 33 31 30 31 33 32 33 29 29 30 30 31 30 54 81 55 132 129 128 131 32 68 
143 64 61 143 64 61 143 64 61 139 83 82 139 42 45 143 64 61 143 64 61 139 83 82 
139 42 45 137 108 95 130 128 126 126 118 124 139 42 45 143 64 61 143 64 61 139 83 82 
139 42 45 139 83 82 128 89 98 120 109 112 120 109 112 128 89 98 139 42 45 128 89 98 
120 109 112 130 128 126 132 129 128 130 128 126 126 118 124 139 42 45 143 64 61 143 64 61 
143 64 61 137 108 95 129 89 121 139 42 45 139 83 82 120 109 112 139 83 82 139 42 45 
139 42 45 137 108 95 129 89 121 139 42 45 143 64 61 139 42 45 143 64 61 120 109 112 
128 89 98 139 42 45 128 89 98 120 109 112 130 128 126 93 65 93 30 30 34 35 34 34 
34 34 33 30 30 34 72 117 69 219 237 216 228 174 187 229 54 48 237 40 38 242 40 38 
242 40 38 242 40 38 237 40 38 223 37 37 181 22 29 223 37 37 223 37 37 181 22 29 
206 31 34 237 40 38 242 40 38 237 40 38 242 40 38 242 40 38 229 54 48 205 191 151 
233 226 216 230 227 223 229 224 222 230 227 223 229 224 222 232 229 225 230 227 223 230 227 223 
230 227 223 230 227 223 230 227 223 229 224 222 230 227 223 230 227 223 230 227 223 230 227 223 
232 229 225 221 188 211 226 45 75 242 40 38 242 40 38 237 40 38 242 40 38 242 40 38 
242 40 38 223 37 37 181 22 29 206 31 34 193 22 30 223 37 37 242 40 38 242 40 38 
242 40 38 242 40 38 242 40 38 229 54 48 204 175 134 229 224 222 129 89 121 29 29 30 
33 33 31 34 34 33 30 31 30 27 26 26 32 31 32 35 34 34 26 33 27 136 171 132 
225 231 219 230 227 223 230 227 223 230 227 223 235 224 228 193 156 189 13 1 13 42 72 41 
9 9 9 11 11 11 11 11 11 13 13 13 11 11 11 10 10 10 13 13 13 10 10 10 
11 11 11 10 10 10 11 11 11 10 10 10 10 10 10 10 10 10 11 11 11 11 11 11 

10 10 10 11 11 11 9 9 9 11 11 11 11 11 11 9 9 9 9 9 9 10 10 10 
9 9 9 9 9 9 9 9 9 10 10 10 11 11 11 11 11 11 10 10 10 9 9 9 
7 7 7 2 3 1 118 150 120 193 192 198 193 192 198 197 195 201 199 198 204 204 180 205 
72 44 75 29 29 30 34 34 33 33 32 33 33 32 33 29 29 30 34 34 33 34 34 33 
35 34 34 26 33 27 99 111 124 123 145 182 123 145 182 123 145 182 123 145 182 123 145 182 
123 145 182 123 145 182 123 145 182 123 145 182 123 145 182 136 164 191 213 211 212 193 156 189 
54 26 46 29 29 30 32 31 32 31 30 31 29 29 30 32 31 32 34 34 33 34 34 33 
33 33 31 33 32 33 32 31 32 26 33 27 100 136 98 203 201 197 179 171 192 136 164 191 
136 164 191 136 164 191 136 164 191 136 164 191 136 164 191 136 164 191 136 164 191 136 164 191 
136 164 191 99 119 146 28 33 48 34 34 33 33 32 35 32 31 32 34 34 33 31 30 31 
35 34 34 32 31 32 33 32 33 31 29 26 33 32 33 54 81 55 132 129 128 129 89 121 
138 59 86 138 59 86 139 42 45 139 83 82 139 42 45 143 64 61 138 59 86 139 83 82 
139 42 45 137 108 95 130 128 126 126 118 124 139 42 45 143 64 61 138 59 86 139 83 82 
139 42 45 139 83 82 126 118 124 126 118 124 130 128 126 128 89 98 139 42 45 120 109 112 
126 118 124 132 129 128 132 129 128 132 129 128 126 118 124 128 89 98 138 59 86 138 59 86 
139 42 45 137 108 95 126 118 124 131 32 68 139 83 82 120 109 112 139 42 45 143 64 61 
143 21 40 132 102 61 128 89 98 139 42 45 138 59 86 138 59 86 143 64 61 120 109 112 
128 89 98 143 64 61 120 109 112 126 118 124 133 132 130 93 65 93 33 32 35 32 31 32 
32 31 32 32 31 32 72 117 69 225 231 219 228 174 187 237 40 38 242 40 38 242 40 38 
242 40 38 237 40 38 242 40 38 237 40 38 193 22 30 193 22 30 206 31 34 193 22 30 
237 40 38 242 40 38 242 40 38 242 40 38 242 40 38 237 40 38 229 54 48 204 175 134 
221 217 216 230 227 223 230 227 223 232 229 225 230 227 223 229 224 222 230 227 223 229 224 222 
230 227 223 232 229 225 230 227 223 230 227 223 230 227 223 230 227 223 229 224 222 230 227 223 
230 227 223 228 174 187 229 54 48 242 40 38 242 40 38 242 40 38 242 40 38 242 40 38 
237 40 38 206 31 34 193 22 30 223 37 37 193 22 30 206 31 34 242 40 38 242 40 38 
242 40 38 242 40 38 237 40 38 237 40 38 194 162 123 223 220 219 129 89 121 28 27 29 
34 34 33 31 29 26 33 32 33 33 32 33 30 31 30 31 30 31 26 33 27 136 171 132 
225 231 219 230 227 223 230 227 223 232 229 225 235 224 228 193 156 189 13 1 13 42 72 41 
10 13 10 11 11 11 9 9 9 10 10 10 9 9 9 10 10 10 7 7 7 11 11 11 
9 9 9 10 10 10 10 10 10 11 11 11 9 9 9 9 9 9 11 11 11 11 11 11 

11 11 11 10 10 10 11 11 11 7 7 7 11 11 11 11 11 11 11 11 11 10 10 10 
11 11 11 11 11 11 10 10 10 9 9 9 14 14 14 11 11 11 11 11 11 9 9 9 
10 10 10 2 3 1 118 150 120 193 196 199 193 192 198 193 192 198 193 192 198 204 180 205 
72 44 75 35 34 34 32 31 32 32 31 32 34 34 33 33 32 33 33 32 35 33 32 33 
32 31 32 64 96 64 184 197 214 209 208 211 205 205 207 209 208 211 209 208 211 209 208 211 
209 208 211 209 208 211 213 211 212 209 208 211 209 208 211 213 211 212 213 211 212 193 156 189 
54 26 46 29 29 30 32 31 32 30 31 30 32 31 32 29 29 30 30 31 30 30 31 30 
30 31 30 35 34 34 30 31 30 26 33 27 100 136 98 203 201 197 221 217 216 223 220 219 
223 220 219 221 217 216 223 220 219 223 220 219 223 220 219 229 224 222 223 220 219 228 228 227 
229 224 222 210 220 234 93 65 93 33 32 35 34 34 33 30 31 30 31 30 31 32 31 32 
29 29 30 33 32 33 34 34 33 33 32 33 33 32 33 54 81 55 130 128 126 137 108 95 
119 87 59 139 83 82 139 42 45 143 64 61 139 42 45 119 87 59 119 87 59 139 83 82 
139 42 45 132 102 61 132 102 61 137 108 95 139 42 45 119 87 59 119 87 59 128 89 98 
139 42 45 143 64 61 137 108 95 137 108 95 134 129 113 129 89 121 143 64 61 120 109 112 
130 128 126 130 128 126 132 129 128 132 129 128 132 129 128 137 108 95 119 87 59 139 83 82 
139 42 45 137 108 95 130 128 126 131 32 68 139 83 82 128 89 98 139 42 45 143 64 61 
147 26 71 143 64 61 139 83 82 143 64 61 128 89 98 128 89 98 143 64 61 132 121 101 
129 89 121 143 64 61 132 121 101 130 128 126 132 129 128 93 65 93 31 30 31 30 31 30 
33 32 33 31 30 31 72 117 69 225 231 219 228 174 187 229 54 48 242 40 38 237 40 38 
242 40 38 242 40 38 242 40 38 242 40 38 223 37 37 181 22 29 181 22 29 206 31 34 
237 40 38 242 40 38 237 40 38 242 40 38 242 40 38 242 40 38 237 40 38 194 162 123 
216 214 214 228 228 227 230 227 223 230 227 223 230 227 223 230 227 223 229 224 222 230 227 223 
230 227 223 230 227 223 232 229 225 230 227 223 229 224 222 232 229 225 229 224 222 232 229 225 
235 224 228 228 174 187 229 54 48 242 40 38 242 40 38 242 40 38 242 40 38 242 40 38 
237 40 38 193 22 30 206 31 34 223 37 37 193 22 30 193 22 30 237 40 38 237 40 38 
242 40 38 242 40 38 242 40 38 237 40 38 194 162 123 221 217 216 129 89 121 29 29 30 
33 32 33 33 32 33 31 30 31 31 30 31 34 34 33 32 31 32 26 33 27 136 171 132 
225 231 219 230 227 223 232 229 225 230 227 223 235 224 228 193 156 189 13 1 13 42 72 41 
9 9 9 7 7 7 10 10 10 13 13 13 11 11 11 10 10 10 11 11 11 9 9 9 
11 11 11 11 11 11 11 11 11 11 11 11 9 9 9 11 11 11 10 10 10 11 11 11 

11 11 11 7 7 7 11 11 11 11 11 11 11 11 11 11 11 11 11 11 11 10 10 10 
9 9 9 11 11 11 11 11 11 10 10 10 9 9 9 10 10 10 10 10 10 10 10 10 
10 10 10 2 3 1 118 150 120 193 196 199 193 192 198 193 196 199 197 195 201 204 180 205 
72 44 75 33 32 33 31 30 31 33 32 33 35 34 34 35 34 34 30 31 30 33 33 31 
26 33 27 90 124 91 203 201 197 205 205 207 203 201 197 214 201 160 214 201 160 214 201 160 
214 201 160 214 201 160 214 201 160 214 201 160 214 201 160 214 201 160 214 201 160 179 168 151 
46 30 29 32 31 32 32 31 32 35 34 34 32 31 32 32 31 32 30 31 30 29 29 30 
32 31 32 31 30 31 30 31 30 26 33 27 100 136 98 205 191 151 231 213 171 231 213 171 
231 213 171 231 213 171 231 213 171 231 213 171 231 213 171 231 213 171 231 213 171 231 213 171 
225 220 201 229 224 222 153 110 150 33 32 35 29 29 30 32 31 32 30 31 30 33 32 33 
27 26 26 33 32 33 30 31 30 30 31 30 26 33 27 42 72 41 130 128 126 138 59 86 
138 59 86 138 59 86 138 59 86 128 89 98 138 59 86 143 64 61 138 59 86 139 83 82 
138 59 86 143 64 61 138 59 86 139 83 82 138 59 86 143 64 61 138 59 86 139 83 82 
138 59 86 138 59 86 143 64 61 138 59 86 134 129 113 120 109 112 139 83 82 120 109 112 
130 128 126 130 128 126 132 129 128 132 129 128 132 129 128 138 59 86 138 59 86 138 59 86 
138 59 86 137 108 95 126 118 124 138 59 86 137 108 95 128 89 98 139 83 82 120 109 112 
120 109 112 138 59 86 139 83 82 139 83 82 120 109 112 120 109 112 139 83 82 120 109 112 
129 89 121 139 83 82 120 109 112 130 128 126 133 132 130 93 65 93 35 35 37 32 31 32 
33 32 33 32 31 32 72 117 69 219 237 216 228 174 187 226 45 75 242 40 38 242 40 38 
242 40 38 242 40 38 242 40 38 242 40 38 237 40 38 206 31 34 193 22 30 237 40 38 
237 40 38 242 40 38 242 40 38 242 40 38 242 40 38 237 40 38 229 54 48 194 162 123 
216 214 214 229 224 222 229 224 222 230 227 223 230 227 223 230 227 223 229 224 222 230 227 223 
232 229 225 230 227 223 230 227 223 230 227 223 230 227 223 230 227 223 230 227 223 230 227 223 
229 224 222 221 188 211 226 45 75 242 40 38 242 40 38 242 40 38 242 40 38 242 40 38 
223 37 37 181 22 29 163 20 42 181 22 29 163 20 42 181 22 29 223 37 37 242 40 38 
242 40 38 242 40 38 242 40 38 229 54 48 194 162 123 221 217 216 129 89 121 35 34 34 
33 32 33 33 32 35 30 31 30 32 31 32 34 34 33 32 31 32 26 33 27 136 171 132 
225 231 219 229 224 222 230 227 223 230 227 223 235 224 228 193 156 189 13 1 13 42 72 41 
10 13 10 9 9 9 10 10 10 11 11 11 10 10 10 11 11 11 9 9 9 11 11 11 
11 11 11 10 10 10 11 11 11 11 11 11 11 11 11 14 14 14 11 11 11 11 11 11 

11 11 11 11 11 11 9 9 9 10 10 10 11 11 11 11 11 11 9 9 9 11 11 11 
9 9 9 10 10 10 13 13 13 11 11 11 11 11 11 9 9 9 11 11 11 11 11 11 
10 10 10 2 3 1 118 150 120 193 196 199 193 192 198 193 192 198 197 195 201 204 180 205 
72 44 75 33 32 35 33 32 33 32 31 32 33 32 33 35 34 34 33 32 33 33 32 33 
30 31 30 90 124 91 203 201 197 204 180 205 119 87 59 75 55 39 75 55 39 75 55 39 
75 55 39 75 55 39 75 55 39 75 55 39 75 55 39 75 55 39 75 55 39 75 55 39 
35 30 27 29 29 30 32 31 32 32 31 32 33 32 33 30 31 30 29 29 30 31 30 31 
29 29 30 30 31 30 31 29 26 32 31 32 40 38 33 75 55 39 75 55 39 75 55 39 
75 55 39 75 55 39 75 55 39 75 55 39 75 55 39 75 55 39 75 55 39 88 67 43 
179 168 151 221 217 216 153 110 150 33 32 35 31 30 31 30 31 30 32 31 32 32 31 32 
32 31 32 31 30 31 31 30 31 33 32 33 32 31 32 42 72 41 134 129 113 126 118 124 
120 109 112 120 109 112 120 109 112 120 109 112 120 109 112 120 109 112 120 109 112 120 109 112 
120 109 112 120 109 112 120 109 112 120 109 112 120 109 112 120 109 112 120 109 112 120 109 112 
120 109 112 120 109 112 120 109 112 120 109 112 126 118 124 126 118 124 120 109 112 126 118 124 
130 128 126 130 128 126 133 132 130 133 132 130 130 128 126 126 118 124 120 109 112 120 109 112 
120 109 112 126 118 124 130 128 126 126 118 124 126 118 124 126 118 124 120 109 112 126 118 124 
126 118 124 120 109 112 120 109 112 120 109 112 126 118 124 130 128 126 126 118 124 126 118 124 
130 128 126 126 118 124 126 118 124 130 128 126 132 129 128 93 65 93 33 32 33 35 34 34 
29 29 30 35 34 34 72 117 69 219 237 216 221 188 211 215 64 101 237 40 38 242 40 38 
242 40 38 242 40 38 242 40 38 242 40 38 242 40 38 206 31 34 193 22 30 237 40 38 
242 40 38 242 40 38 242 40 38 242 40 38 242 40 38 237 40 38 222 94 55 179 168 151 
221 217 216 230 227 223 230 227 223 230 227 223 230 227 223 229 224 222 229 224 222 230 227 223 
230 227 223 230 227 223 232 229 225 230 227 223 230 227 223 230 227 223 230 227 223 230 227 223 
232 229 225 232 200 224 215 64 101 242 40 38 242 40 38 237 40 38 242 40 38 237 40 38 
206 31 34 181 22 29 206 31 34 223 37 37 206 31 34 193 22 30 206 31 34 237 40 38 
237 40 38 242 40 38 242 40 38 222 94 55 179 168 151 221 217 216 129 89 121 33 32 33 
33 32 33 35 34 34 32 31 32 31 29 26 32 31 32 30 31 30 26 33 27 136 171 132 
225 231 219 232 229 225 230 227 223 229 224 222 235 224 228 193 156 189 13 1 13 42 72 41 
10 13 10 9 9 9 11 11 11 11 11 11 7 7 7 9 9 9 11 11 11 11 11 11 
7 7 7 9 9 9 9 9 9 11 11 11 10 10 10 10 10 10 11 11 11 10 10 10 

10 10 10 7 7 7 10 10 10 11 11 11 11 11 11 11 11 11 10 10 10 11 11 11 
13 13 13 10 10 10 13 13 13 10 10 10 11 11 11 11 11 11 13 13 13 11 11 11 
10 10 10 2 3 1 118 150 120 193 192 198 197 195 201 193 192 198 197 195 201 204 180 205 
72 44 75 35 35 37 32 31 32 28 27 29 33 32 33 33 32 33 33 32 33 33 32 33 
30 31 30 90 124 91 203 201 197 193 156 189 35 30 27 31 30 31 31 30 31 32 31 32 
32 31 32 28 27 29 31 30 31 31 30 31 30 31 30 31 30 31 32 31 32 30 31 30 
32 31 32 32 31 32 29 29 30 34 34 33 32 31 32 31 30 31 32 31 32 32 31 32 
32 31 32 32 31 32 33 33 31 31 30 31 30 31 30 32 31 32 33 33 31 31 30 31 
33 33 31 33 32 33 33 33 31 33 32 33 29 29 30 32 31 32 31 30 31 33 33 31 
72 117 69 203 201 197 153 110 150 32 31 32 34 34 33 30 31 30 33 32 35 35 34 34 
32 31 32 32 31 32 29 29 30 33 32 33 30 31 30 33 33 31 72 117 69 132 121 101 
132 121 101 132 121 101 132 121 101 132 121 101 132 121 101 132 121 101 132 121 101 132 121 101 
132 121 101 132 121 101 132 121 101 132 121 101 132 121 101 132 121 101 132 121 101 132 121 101 
132 121 101 132 121 101 132 121 101 132 121 101 132 121 101 132 121 101 132 121 101 132 121 101 
132 121 101 132 121 101 132 121 101 134 129 113 132 121 101 132 121 101 132 121 101 132 121 101 
132 121 101 132 121 101 132 121 101 132 121 101 132 121 101 132 121 101 132 121 101 132 121 101 
134 129 113 132 121 101 132 121 101 132 121 101 132 121 101 134 129 113 132 121 101 132 121 101 
132 121 101 132 121 101 134 129 113 132 121 101 128 89 98 46 30 29 35 34 34 30 31 30 
32 31 32 31 30 31 72 117 69 219 237 216 222 207 217 213 104 148 237 40 38 242 40 38 
242 40 38 242 40 38 242 40 38 242 40 38 237 40 38 206 31 34 193 22 30 237 40 38 
242 40 38 242 40 38 242 40 38 242 40 38 237 40 38 237 40 38 211 97 97 178 189 183 
225 231 219 230 227 223 229 224 222 230 227 223 230 227 223 230 227 223 230 227 223 230 227 223 
230 227 223 230 227 223 229 224 222 232 229 225 230 227 223 229 224 222 229 224 222 230 227 223 
232 229 225 229 224 222 213 104 148 237 40 38 242 40 38 237 40 38 242 40 38 237 40 38 
193 22 30 206 31 34 237 40 38 242 40 38 237 40 38 206 31 34 193 22 30 237 40 38 
242 40 38 242 40 38 237 40 38 211 97 97 178 189 183 229 224 222 129 89 121 31 30 31 
33 33 31 33 33 31 34 34 33 31 30 31 31 30 31 30 31 30 26 33 27 136 171 132 
225 231 219 230 227 223 229 224 222 230 227 223 229 224 222 193 156 189 13 1 13 42 72 41 
10 13 10 9 9 9 11 11 11 7 7 7 10 10 10 11 11 11 11 11 11 11 11 11 
14 14 14 11 11 11 11 11 11 11 11 11 11 11 11 11 11 11 13 13 13 11 11 11 

10 10 10 14 14 14 11 11 11 11 11 11 10 10 10 11 11 11 11 11 11 10 10 10 
11 11 11 11 11 11 10 10 10 10 10 10 9 9 9 10 10 10 11 11 11 10 10 10 
11 11 11 2 3 1 118 150 120 193 192 198 193 196 199 197 195 201 193 192 198 204 180 205 
72 44 75 35 35 37 31 30 31 33 32 35 34 34 33 35 34 34 32 31 32 34 34 33 
33 33 31 90 124 91 203 201 197 171 129 167 33 32 35 33 32 33 32 31 32 32 31 32 
33 33 31 31 29 26 31 29 26 33 33 31 31 29 26 31 30 31 33 32 33 30 31 30 
32 31 32 32 31 32 32 31 32 29 29 30 32 31 32 32 31 32 33 32 33 30 31 30 
30 31 30 32 31 32 33 32 33 32 31 32 32 31 32 32 31 32 33 33 31 31 30 31 
33 33 31 35 30 27 31 30 31 31 29 26 33 33 31 32 31 32 32 31 32 33 33 31 
64 96 64 199 189 185 153 110 150 33 32 35 34 34 33 35 34 34 35 34 34 32 31 32 
32 31 32 31 30 31 33 32 33 30 31 30 34 34 33 33 32 35 35 30 27 46 30 29 
51 37 23 51 37 23 51 37 23 46 30 29 51 37 23 51 37 23 46 30 29 51 37 23 
51 37 23 51 37 23 46 30 29 51 37 23 46 30 29 51 37 23 51 37 23 51 37 23 
46 30 29 51 37 23 46 30 29 51 37 23 51 37 23 46 30 29 51 37 23 51 37 23 
46 30 29 51 37 23 51 37 23 51 37 23 51 37 23 46 30 29 51 37 23 51 37 23 
51 37 23 51 37 23 51 37 23 51 37 23 46 30 29 51 37 23 51 37 23 51 37 23 
51 37 23 51 37 23 51 37 23 51 37 23 51 37 23 51 37 23 51 37 23 51 37 23 
51 37 23 51 37 23 51 37 23 51 37 23 46 30 29 33 33 31 33 32 35 33 33 31 
35 34 34 35 34 34 72 117 69 219 237 216 229 224 222 204 180 205 215 64 101 242 40 38 
242 40 38 242 40 38 242 40 38 242 40 38 242 40 38 206 31 34 193 22 30 237 40 38 
242 40 38 242 40 38 242 40 38 242 40 38 242 40 38 220 70 81 166 151 124 205 205 207 
230 227 223 230 227 223 230 227 223 230 227 223 232 229 225 232 229 225 230 227 223 232 229 225 
230 227 223 230 227 223 229 224 222 232 229 225 230 227 223 230 227 223 230 227 223 229 224 222 
229 224 222 235 224 228 204 180 205 215 64 101 242 40 38 242 40 38 237 40 38 223 37 37 
181 22 29 223 37 37 242 40 38 242 40 38 242 40 38 223 37 37 181 22 29 223 37 37 
242 40 38 242 40 38 229 54 48 166 151 124 205 205 207 235 224 228 129 89 121 31 30 31 
30 31 30 31 30 31 32 31 32 33 32 33 32 31 32 33 33 31 26 33 27 136 171 132 
225 231 219 230 227 223 229 224 222 229 224 222 235 224 228 193 156 189 13 1 13 42 72 41 
10 13 10 9 9 9 9 9 9 13 13 13 11 11 11 10 10 10 11 11 11 11 11 11 
11 11 11 15 15 15 11 11 11 9 9 9 10 10 10 13 13 13 7 7 7 11 11 11 

11 11 11 11 11 11 9 9 9 11 11 11 11 11 11 11 11 11 13 13 13 10 10 10 
11 11 11 11 11 11 11 11 11 11 11 11 9 9 9 14 14 14 10 10 10 10 10 10 
9 9 9 2 3 1 118 150 120 193 196 199 193 192 198 193 196 199 193 192 198 204 180 205 
72 44 75 33 32 33 35 34 34 31 30 31 32 31 32 29 29 30 31 30 31 33 33 31 
33 33 31 90 124 91 203 201 197 171 129 167 33 32 35 31 30 31 31 30 31 33 32 33 
21 21 18 9 9 9 21 21 18 21 21 18 25 24 25 30 31 30 33 32 35 33 32 33 
31 30 31 31 30 31 32 31 32 31 30 31 33 32 33 31 30 31 31 30 31 31 30 31 
31 30 31 30 31 30 31 30 31 30 31 30 30 31 30 32 31 32 30 31 30 32 31 32 
23 18 20 21 21 18 22 15 15 9 9 9 31 29 26 30 31 30 34 34 33 32 31 32 
64 96 64 178 189 183 126 118 124 33 32 35 35 34 34 32 31 32 29 29 30 32 31 32 
35 34 34 32 31 32 31 30 31 31 30 31 33 33 31 35 34 34 33 32 33 33 32 33 
35 37 41 30 30 34 35 35 37 30 30 34 35 35 37 33 32 35 30 30 34 30 30 34 
30 30 34 30 30 34 30 30 34 30 30 34 30 30 34 30 30 34 30 30 34 30 30 34 
30 30 34 28 27 29 33 32 35 33 32 35 30 30 34 33 32 35 33 32 35 33 32 35 
30 30 34 35 35 37 30 30 34 35 35 37 30 30 34 30 30 34 30 30 34 30 30 34 
30 30 34 30 30 34 33 32 35 28 27 29 28 27 29 30 30 34 30 30 34 30 30 34 
30 30 34 30 30 34 30 30 34 30 30 34 30 30 34 30 30 34 35 35 37 33 32 35 
33 32 35 30 30 34 35 35 37 30 30 34 34 34 33 30 31 30 34 34 33 32 31 32 
34 34 33 33 32 33 72 117 69 219 237 216 230 227 223 222 207 217 206 139 176 226 45 75 
242 40 38 242 40 38 242 40 38 242 40 38 237 40 38 237 40 38 223 37 37 242 40 38 
242 40 38 242 40 38 242 40 38 237 40 38 229 54 48 181 99 112 178 189 183 223 220 219 
232 229 225 230 227 223 229 224 222 230 227 223 230 227 223 230 227 223 230 227 223 232 229 225 
230 227 223 230 227 223 230 227 223 230 227 223 232 229 225 230 227 223 229 224 222 232 229 225 
230 227 223 229 224 222 222 207 217 206 139 176 226 45 75 242 40 38 242 40 38 237 40 38 
237 40 38 237 40 38 242 40 38 242 40 38 242 40 38 242 40 38 223 37 37 237 40 38 
242 40 38 229 54 48 181 99 112 170 180 172 223 220 219 235 224 228 129 89 121 33 32 35 
35 34 34 31 30 31 33 32 33 33 32 33 35 34 34 33 33 31 26 33 27 136 171 132 
225 231 219 230 227 223 230 227 223 230 227 223 235 224 228 193 156 189 13 1 13 42 72 41 
9 9 9 11 11 11 11 11 11 11 11 11 11 11 11 9 9 9 11 11 11 11 11 11 
11 11 11 11 11 11 11 11 11 10 10 10 10 10 10 11 11 11 7 7 7 10 10 10 

11 11 11 11 11 11 10 10 10 11 11 11 11 11 11 10 10 10 11 11 11 11 11 11 
11 11 11 10 10 10 11 11 11 9 9 9 10 10 10 13 13 13 11 11 11 7 7 7 
10 10 10 2 3 1 118 150 120 193 196 199 193 192 198 193 192 198 193 192 198 204 180 205 
72 44 75 33 32 33 34 34 33 32 31 32 34 34 33 34 34 33 27 26 26 32 31 32 
26 33 27 90 124 91 203 201 197 171 129 167 30 30 34 31 30 31 33 33 31 23 18 20 
2 3 1 2 3 1 2 3 1 2 3 1 17 18 16 30 31 30 31 30 31 35 34 34 
32 31 32 30 31 30 33 32 33 31 30 31 32 31 32 31 30 31 34 34 33 32 31 32 
32 31 32 30 31 30 30 31 30 33 32 33 32 31 32 33 33 31 30 31 30 31 30 31 
7 7 7 2 3 1 2 3 1 2 3 1 9 9 9 31 29 26 31 29 26 31 30 31 
64 96 64 178 189 183 153 110 150 33 32 33 33 33 31 33 32 33 32 31 32 29 29 30 
31 30 31 32 31 32 30 31 30 31 29 26 34 34 33 29 29 30 28 33 48 58 83 119 
58 83 119 58 83 119 58 83 119 58 83 119 58 83 119 58 83 119 58 83 119 58 83 119 
58 83 119 58 83 119 58 83 119 58 83 119 58 83 119 58 83 119 58 83 119 58 83 119 
58 83 119 58 83 119 58 83 119 58 83 119 58 83 119 58 83 119 58 83 119 58 83 119 
58 83 119 58 83 119 58 83 119 58 83 119 58 83 119 58 83 119 58 83 119 58 83 119 
58 83 119 58 83 119 58 83 119 58 83 119 58 83 119 58 83 119 58 83 119 58 83 119 
58 83 119 58 83 119 58 83 119 58 83 119 58 83 119 58 83 119 58 83 119 58 83 119 
58 83 119 58 83 119 58 83 119 58 83 119 30 42 84 35 37 41 33 32 33 29 29 30 
30 31 30 34 34 33 72 117 69 219 237 216 230 227 223 229 224 222 221 188 211 176 97 145 
226 45 75 242 40 38 242 40 38 237 40 38 242 40 38 242 40 38 242 40 38 242 40 38 
242 40 38 242 40 38 237 40 38 229 54 48 181 99 112 159 162 175 213 211 212 228 228 227 
232 229 225 229 224 222 230 227 223 230 227 223 230 227 223 232 229 225 230 227 223 230 227 223 
232 229 225 230 227 223 230 227 223 230 227 223 230 227 223 230 227 223 229 224 222 230 227 223 
230 227 223 230 227 223 229 224 222 221 188 211 176 97 145 226 45 75 242 40 38 242 40 38 
242 40 38 242 40 38 242 40 38 242 40 38 242 40 38 242 40 38 242 40 38 237 40 38 
229 54 48 181 99 112 159 162 175 209 208 211 229 224 222 235 224 228 129 89 121 33 32 33 
32 31 32 32 31 32 34 34 33 34 34 33 33 32 33 31 29 26 33 33 31 136 171 132 
225 231 219 230 227 223 232 229 225 232 229 225 235 224 228 193 156 189 13 1 13 42 72 41 
9 9 9 11 9 10 7 7 7 10 10 10 9 9 9 11 11 11 9 9 9 11 11 11 
10 10 10 11 11 11 10 10 10 11 11 11 10 10 10 10 10 10 11 11 11 11 11 11 

11 11 11 11 11 11 10 10 10 11 11 11 11 11 11 11 11 11 11 11 11 10 10 10 
11 11 11 9 9 9 10 10 10 10 10 10 10 10 10 11 11 11 11 11 11 9 9 9 
9 9 9 2 3 1 118 150 120 193 196 199 193 192 198 193 196 199 193 192 198 204 180 205 
72 44 75 27 26 26 33 33 31 32 31 32 32 31 32 32 31 32 31 30 31 32 31 32 
30 31 30 90 124 91 203 201 197 171 129 167 32 31 32 29 29 30 23 18 20 2 3 1 
2 3 1 2 3 1 2 3 1 2 3 1 17 18 16 30 31 30 31 30 31 33 33 31 
32 31 32 33 32 33 31 30 31 33 32 33 33 32 33 31 30 31 32 31 32 31 30 31 
30 31 30 30 31 30 31 30 31 30 31 30 30 31 30 32 31 32 30 31 30 29 29 30 
7 7 7 2 3 1 2 3 1 2 3 1 2 3 1 9 9 9 31 29 26 31 29 26 
64 96 64 178 189 183 126 118 124 33 32 35 33 33 31 31 30 31 32 31 32 33 32 33 
30 31 30 33 32 33 35 34 34 32 31 32 31 29 26 35 58 32 136 164 191 215 234 246 
215 234 246 215 234 246 215 234 246 215 234 246 215 234 246 215 234 246 215 234 246 215 234 246 
215 234 246 215 234 246 215 234 246 215 234 246 215 234 246 215 234 246 215 234 246 215 234 246 
215 234 246 215 234 246 215 234 246 215 234 246 215 234 246 215 234 246 215 234 246 215 234 246 
215 234 246 215 234 246 215 234 246 215 234 246 215 234 246 215 234 246 215 234 246 215 234 246 
215 234 246 215 234 246 215 234 246 215 234 246 215 234 246 215 234 246 215 234 246 215 234 246 
215 234 246 215 234 246 215 234 246 215 234 246 215 234 246 215 234 246 215 234 246 215 234 246 
215 234 246 215 234 246 215 234 246 215 234 246 182 192 213 30 42 84 32 31 32 28 27 29 
33 32 33 32 31 32 72 117 69 219 237 216 230 227 223 232 229 225 229 224 222 197 195 201 
171 129 167 215 64 101 226 45 75 237 40 38 242 40 38 237 40 38 242 40 38 237 40 38 
242 40 38 229 54 48 220 70 81 181 99 112 159 162 175 209 208 211 225 231 219 230 227 223 
230 227 223 230 227 223 232 229 225 230 227 223 230 227 223 229 224 222 232 229 225 232 229 225 
230 227 223 230 227 223 229 224 222 229 224 222 232 229 225 230 227 223 232 229 225 232 229 225 
230 227 223 229 224 222 230 227 223 229 224 222 204 180 205 171 129 167 215 64 101 226 45 75 
237 40 38 242 40 38 242 40 38 237 40 38 242 40 38 237 40 38 229 54 48 220 70 81 
181 99 112 159 162 175 205 205 207 229 224 222 228 228 227 235 224 228 129 89 121 29 29 30 
32 31 32 30 31 30 30 31 30 29 29 30 33 32 33 33 33 31 34 38 34 136 171 132 
225 231 219 230 227 223 230 227 223 230 227 223 229 224 222 193 156 189 13 1 13 42 72 41 
10 13 10 9 9 9 10 10 10 11 11 11 7 7 7 13 13 13 10 10 10 10 10 10 
10 10 10 10 10 10 11 11 11 9 9 9 11 11 11 10 10 10 11 11 11 11 11 11 

11 11 11 10 10 10 11 11 11 10 10 10 13 13 13 11 11 11 7 7 7 10 10 10 
11 11 11 11 11 11 13 13 13 10 10 10 11 11 11 10 10 10 10 10 10 9 9 9 
7 7 7 2 3 1 118 150 120 193 196 199 193 192 198 197 195 201 193 192 198 204 180 205 
72 44 75 31 30 31 30 31 30 29 29 30 31 30 31 31 29 26 32 31 32 32 31 32 
33 33 31 90 124 91 203 201 197 171 129 167 33 32 35 28 27 29 7 7 7 2 3 1 
2 3 1 2 3 1 2 3 1 2 3 1 17 18 16 30 31 30 33 32 33 32 31 32 
32 31 32 31 30 31 33 32 33 29 29 30 31 30 31 32 31 32 31 30 31 31 30 31 
33 32 33 32 31 32 31 30 31 31 30 31 33 32 33 32 31 32 34 34 33 33 32 35 
7 7 7 2 3 1 2 3 1 2 3 1 2 3 1 2 3 1 17 18 16 30 31 30 
64 96 64 178 189 183 126 118 124 33 32 35 33 32 33 35 34 34 31 30 31 33 32 33 
32 31 32 34 38 34 35 34 34 30 31 30 33 33 31 64 96 64 219 237 216 241 239 241 
241 239 241 241 239 241 241 239 241 237 237 238 240 238 237 237 237 238 237 237 238 240 238 237 
241 239 241 240 238 237 241 239 241 240 238 237 237 237 238 241 239 241 241 239 241 241 239 241 
241 239 241 240 238 237 241 239 241 241 239 241 237 237 238 241 239 241 241 239 241 240 238 237 
241 239 241 241 239 241 241 239 241 237 237 238 241 239 241 241 239 241 241 239 241 240 238 237 
240 238 237 240 238 237 240 238 237 241 239 241 237 237 238 240 238 237 240 238 237 237 237 238 
237 237 238 240 238 237 240 238 237 237 237 238 241 239 241 241 239 241 241 239 241 241 239 241 
241 239 241 240 238 237 240 238 237 241 239 241 241 239 241 153 110 150 32 31 32 30 31 30 
32 31 32 29 29 30 72 117 69 219 237 216 230 227 223 230 227 223 230 227 223 223 220 219 
202 201 206 179 171 192 176 97 145 181 99 112 215 64 101 220 70 81 220 70 81 215 64 101 
181 99 112 181 99 112 149 132 147 178 189 183 213 211 212 223 220 219 230 227 223 232 229 225 
230 227 223 232 229 225 230 227 223 232 229 225 232 229 225 229 224 222 230 227 223 232 229 225 
230 227 223 230 227 223 229 224 222 230 227 223 230 227 223 230 227 223 230 227 223 229 224 222 
229 224 222 232 229 225 230 227 223 230 227 223 229 224 222 209 208 211 179 171 192 153 110 150 
181 99 112 215 64 101 220 70 81 220 70 81 215 64 101 211 97 97 181 99 112 149 132 147 
178 189 183 209 208 211 229 224 222 232 229 225 230 227 223 235 224 228 129 89 121 32 31 32 
31 30 31 32 31 32 31 30 31 33 32 33 31 30 31 34 34 33 26 33 27 136 171 132 
225 231 219 229 224 222 230 227 223 230 227 223 235 224 228 193 156 189 13 1 13 42 72 41 
9 9 9 9 9 9 11 11 11 11 11 11 13 13 13 11 11 11 10 10 10 11 11 11 
11 11 11 11 11 11 13 13 13 9 9 9 11 11 11 10 10 10 10 10 10 7 7 7 

11 11 11 9 9 9 10 10 10 7 7 7 11 11 11 10 10 10 10 10 10 11 11 11 
11 11 11 11 11 11 11 11 11 9 9 9 11 11 11 11 11 11 11 11 11 10 10 10 
10 10 10 2 3 1 118 150 120 193 192 198 193 196 199 193 192 198 197 195 201 204 180 205 
72 44 75 35 34 34 32 31 32 31 30 31 33 32 33 30 31 30 32 31 32 35 34 34 
26 33 27 90 124 91 203 201 197 171 129 167 33 32 35 33 32 35 28 27 29 7 7 7 
2 3 1 2 3 1 2 3 1 2 3 1 17 18 16 30 31 30 33 32 33 34 34 33 
32 31 32 32 31 32 31 30 31 32 31 32 31 30 31 31 30 31 31 30 31 30 31 30 
33 32 33 32 31 32 32 31 32 32 31 32 29 29 30 31 30 31 32 31 32 33 32 35 
7 7 7 2 3 1 2 3 1 2 3 1 2 3 1 14 15 19 30 30 34 32 31 32 
64 96 64 178 189 183 126 118 124 33 32 35 29 29 30 33 32 33 31 30 31 33 32 33 
32 31 32 33 32 33 33 33 31 32 31 32 34 34 33 64 96 64 219 237 216 237 237 238 
240 238 237 241 239 241 240 238 237 237 237 238 240 238 237 240 238 237 240 238 237 241 239 241 
241 239 241 240 238 237 240 238 237 240 238 237 237 237 238 241 239 241 240 238 237 240 238 237 
241 239 241 240 238 237 240 238 237 240 238 237 241 239 241 241 239 241 240 238 237 241 239 241 
240 238 237 240 238 237 240 238 237 241 239 241 241 239 241 241 239 241 240 238 237 240 238 237 
240 238 237 240 238 237 237 237 238 240 238 237 240 238 237 237 237 238 241 239 241 237 237 238 
240 238 237 240 238 237 240 238 237 237 237 238 240 238 237 240 238 237 241 239 241 237 237 238 
240 238 237 237 237 238 237 237 238 241 239 241 241 239 241 153 110 150 33 32 35 35 30 27 
32 31 32 30 31 30 72 117 69 219 237 216 230 227 223 230 227 223 230 227 223 232 229 225 
229 224 222 223 220 219 199 198 204 179 171 192 159 162 175 152 144 164 152 144 164 152 144 164 
159 162 175 178 189 183 192 206 221 223 220 219 229 224 222 230 227 223 232 229 225 230 227 223 
230 227 223 229 224 222 230 227 223 232 229 225 230 227 223 232 229 225 229 224 222 229 224 222 
232 229 225 232 229 225 230 227 223 229 224 222 229 224 222 230 227 223 229 224 222 230 227 223 
229 224 222 229 224 222 230 227 223 230 227 223 232 229 225 229 224 222 216 214 214 199 198 204 
179 171 192 159 162 175 152 144 164 152 144 164 152 144 164 159 162 175 178 189 183 192 206 221 
223 220 219 230 227 223 232 229 225 230 227 223 229 224 222 235 224 228 129 89 121 33 33 31 
30 31 30 33 33 31 33 32 33 35 34 34 32 31 32 30 31 30 26 33 27 136 171 132 
225 231 219 229 224 222 232 229 225 230 227 223 235 224 228 193 156 189 13 1 13 42 72 41 
10 13 10 11 11 11 11 11 11 11 11 11 11 11 11 10 10 10 11 11 11 9 9 9 
11 11 11 11 11 11 13 13 13 10 10 10 11 11 11 10 10 10 11 11 11 11 11 11 

11 11 11 11 11 11 11 11 11 10 10 10 10 10 10 11 11 11 11 11 11 10 10 10 
10 10 10 11 11 11 10 10 10 11 11 11 9 9 9 11 11 11 11 11 11 11 11 11 
7 7 7 2 3 1 118 150 120 193 196 199 193 192 198 193 196 199 193 192 198 204 180 205 
72 44 75 28 27 29 35 34 34 34 34 33 32 31 32 33 33 31 31 30 31 30 31 30 
34 34 33 90 124 91 203 201 197 171 129 167 33 32 35 31 30 31 32 31 32 30 30 34 
7 7 7 2 3 1 2 3 1 2 3 1 18 18 19 32 31 32 29 29 30 30 31 30 
33 32 33 31 30 31 30 31 30 31 30 31 31 30 31 30 31 30 31 30 31 32 31 32 
32 31 32 33 32 33 31 30 31 30 31 30 31 30 31 30 31 30 33 33 31 33 32 35 
7 7 7 2 3 1 2 3 1 7 7 7 14 15 19 30 30 34 31 30 31 30 31 30 
64 96 64 178 189 183 126 118 124 35 35 37 30 31 30 31 30 31 32 31 32 31 30 31 
29 29 30 34 34 33 30 31 30 32 31 32 33 32 35 64 96 64 219 237 216 241 239 241 
240 238 237 237 237 238 241 239 241 237 237 238 240 238 237 241 239 241 237 237 238 241 239 241 
241 239 241 241 239 241 240 238 237 241 239 241 237 237 238 241 239 241 240 238 237 240 238 237 
241 239 241 241 239 241 240 238 237 241 239 241 240 238 237 241 239 241 241 239 241 241 239 241 
237 237 238 240 238 237 240 238 237 240 238 237 241 239 241 240 238 237 240 238 237 237 237 238 
240 238 237 241 239 241 241 239 241 240 238 237 241 239 241 240 238 237 241 239 241 240 238 237 
241 239 241 237 237 238 240 238 237 240 238 237 241 239 241 241 239 241 240 238 237 240 238 237 
240 238 237 241 239 241 237 237 238 237 237 238 241 239 241 153 110 150 30 30 34 31 29 26 
32 31 32 31 30 31 42 72 41 207 221 166 237 225 202 237 225 202 237 225 202 237 225 202 
237 225 202 237 225 202 237 225 202 225 220 201 225 220 201 225 220 201 225 220 201 225 220 201 
225 220 201 225 220 201 237 225 202 237 225 202 237 225 202 237 225 202 225 231 219 232 229 225 
230 227 223 229 224 222 232 229 225 229 224 222 232 229 225 230 227 223 233 226 216 233 226 216 
233 226 216 237 225 202 233 226 216 233 226 216 230 227 223 230 227 223 230 227 223 230 227 223 
229 224 222 229 224 222 235 224 228 233 226 216 237 225 202 237 225 202 237 225 202 237 225 202 
225 220 201 225 220 201 225 220 201 203 201 197 225 220 201 225 220 201 237 225 202 237 225 202 
237 225 202 237 225 202 237 225 202 237 225 202 237 225 202 231 213 171 75 32 51 29 29 30 
31 30 31 30 31 30 33 32 33 34 34 33 31 30 31 30 31 30 34 38 34 136 171 132 
225 231 219 230 227 223 230 227 223 230 227 223 235 224 228 193 156 189 13 1 13 42 72 41 
10 13 10 11 11 11 10 10 10 10 10 10 11 11 11 10 10 10 13 13 13 10 10 10 
11 11 11 7 7 7 10 10 10 10 10 10 10 10 10 11 11 11 9 9 9 11 11 11 

11 11 11 11 11 11 10 10 10 14 14 14 9 9 9 14 14 14 9 9 9 11 11 11 
11 11 11 10 10 10 9 9 9 13 13 13 11 11 11 11 11 11 10 10 10 9 9 9 
11 11 11 2 3 1 118 150 120 193 196 199 193 192 198 193 196 199 197 195 201 204 180 205 
72 44 75 31 30 31 31 30 31 34 34 33 34 34 33 30 31 30 31 30 31 31 30 31 
27 26 26 90 124 91 193 196 199 171 129 167 33 32 35 31 30 31 31 30 31 33 32 35 
28 27 29 14 15 19 28 27 29 28 27 29 30 31 30 33 32 33 32 31 32 33 33 31 
31 30 31 32 31 32 30 31 30 33 32 33 31 30 31 31 30 31 33 32 33 33 32 33 
30 31 30 31 30 31 31 30 31 32 31 32 34 34 33 33 33 31 33 33 31 30 30 34 
29 29 30 28 27 29 28 27 29 18 18 19 30 31 30 32 31 32 33 32 33 32 31 32 
64 96 64 178 189 183 129 89 121 30 30 34 28 27 29 34 34 33 29 29 30 31 29 26 
32 31 32 32 31 32 31 30 31 35 34 34 31 30 31 64 96 64 219 237 216 240 238 237 
240 238 237 240 238 237 241 239 241 241 239 241 240 238 237 241 239 241 240 238 237 241 239 241 
240 238 237 240 238 237 240 238 237 240 238 237 240 238 237 240 238 237 240 238 237 240 238 237 
240 238 237 240 238 237 240 238 237 240 238 237 240 238 237 241 239 241 241 239 241 240 238 237 
240 238 237 241 239 241 240 238 237 241 239 241 240 238 237 240 238 237 241 239 241 240 238 237 
240 238 237 240 238 237 241 239 241 240 238 237 240 238 237 241 239 241 241 239 241 240 238 237 
240 238 237 240 238 237 237 237 238 241 239 241 241 239 241 241 239 241 237 237 238 240 238 237 
237 237 238 240 238 237 240 238 237 241 239 241 241 239 241 153 110 150 33 32 33 35 30 27 
32 31 32 33 33 31 34 34 33 88 67 43 132 102 61 132 102 61 132 102 61 132 102 61 
132 102 61 132 102 61 132 102 61 132 102 61 132 102 61 132 102 61 132 102 61 132 102 61 
132 102 61 132 102 61 132 102 61 132 102 61 132 102 61 156 123 86 225 220 201 232 229 225 
230 227 223 232 229 225 230 227 223 233 226 216 237 225 202 231 213 171 234 180 133 227 142 96 
227 142 96 227 142 96 234 180 133 224 207 160 237 225 202 233 226 216 232 229 225 230 227 223 
230 227 223 232 229 225 232 229 225 171 129 167 119 87 59 119 87 59 119 87 59 119 87 59 
119 87 59 119 87 59 119 87 59 119 87 59 119 87 59 119 87 59 119 87 59 119 87 59 
119 87 59 119 87 59 119 87 59 119 87 59 119 87 59 75 18 34 25 24 25 31 30 31 
27 26 26 32 31 32 30 31 30 30 31 30 31 30 31 33 33 31 26 33 27 136 171 132 
225 231 219 230 227 223 230 227 223 229 224 222 235 224 228 193 156 189 13 1 13 42 72 41 
9 9 9 11 11 11 13 13 13 11 11 11 10 10 10 9 9 9 11 11 11 11 11 11 
11 11 11 10 10 10 11 11 11 11 11 11 11 11 11 11 11 11 9 9 9 11 11 11 

11 11 11 10 10 10 10 10 10 13 13 13 11 11 11 11 11 11 9 9 9 13 13 13 
9 9 9 13 13 13 9 9 9 11 11 11 9 9 9 11 11 11 11 11 11 10 10 10 
11 11 11 2 3 1 118 150 120 193 196 199 193 192 198 193 192 198 197 195 201 204 180 205 
72 44 75 28 27 29 33 32 33 29 29 30 33 32 33 33 32 33 31 30 31 28 27 29 
33 33 31 90 124 91 193 196 199 171 129 167 35 37 41 32 31 32 31 30 31 33 32 33 
30 31 30 31 30 31 30 31 30 30 31 30 33 32 33 30 31 30 32 31 32 34 34 33 
33 32 33 34 34 33 32 31 32 32 31 32 32 31 32 34 34 33 30 31 30 31 30 31 
33 32 33 33 32 33 31 30 31 33 33 31 32 31 32 33 32 35 32 31 32 30 31 30 
30 30 34 33 32 33 30 30 34 33 32 33 33 32 33 33 32 33 32 31 32 33 32 33 
64 96 64 178 189 183 126 118 124 33 32 33 29 29 30 35 35 37 30 31 30 33 33 31 
32 31 32 35 34 34 32 31 32 31 30 31 25 24 25 64 96 64 219 237 216 241 239 241 
241 239 241 237 237 238 240 238 237 237 237 238 237 237 238 240 238 237 240 238 237 241 239 241 
240 238 237 240 238 237 237 237 238 240 238 237 240 238 237 241 239 241 241 239 241 237 237 238 
240 238 237 240 238 237 237 237 238 241 239 241 241 239 241 240 238 237 241 239 241 240 238 237 
237 237 238 240 238 237 237 237 238 241 239 241 241 239 241 241 239 241 241 239 241 241 239 241 
241 239 241 237 237 238 241 239 241 240 238 237 240 238 237 240 238 237 240 238 237 241 239 241 
241 239 241 241 239 241 240 238 237 237 237 238 237 237 238 240 238 237 241 239 241 240 238 237 
241 239 241 240 238 237 241 239 241 240 238 237 241 239 241 153 110 150 32 31 32 30 31 30 
30 31 30 29 29 30 31 30 31 28 27 29 25 24 25 28 27 29 25 24 25 28 27 29 
25 24 25 25 24 25 25 24 25 28 27 29 29 29 30 25 24 25 25 24 25 28 27 29 
25 24 25 25 24 25 25 24 25 25 24 25 25 24 25 35 58 32 200 225 194 230 227 223 
230 227 223 230 227 223 233 226 216 228 174 187 211 97 97 229 54 48 237 40 38 242 40 38 
242 40 38 242 40 38 237 40 38 223 37 37 222 94 55 234 180 133 237 225 202 230 227 223 
230 227 223 232 229 225 235 224 228 153 110 150 22 21 22 28 27 29 28 27 29 25 24 25 
28 27 29 28 27 29 28 27 29 28 27 29 25 24 25 28 27 29 25 24 25 29 29 30 
29 29 30 29 29 30 27 26 26 25 24 25 29 29 30 27 26 26 29 29 30 35 34 34 
30 31 30 31 30 31 30 31 30 34 34 33 31 30 31 30 31 30 26 33 27 136 171 132 
225 231 219 230 227 223 230 227 223 232 229 225 235 224 228 193 156 189 13 1 13 42 72 41 
10 13 10 11 11 11 11 11 11 11 11 11 11 11 11 11 11 11 11 11 11 9 9 9 
11 11 11 11 11 11 11 11 11 11 11 11 10 10 10 11 11 11 11 11 11 11 11 11 

9 9 9 11 11 11 11 11 11 11 11 11 11 11 11 11 11 11 13 13 13 9 9 9 
11 11 11 11 11 11 11 11 11 11 11 11 10 10 10 10 10 10 11 11 11 10 10 10 
9 9 9 2 3 1 118 150 120 193 196 199 193 192 198 193 196 199 193 192 198 204 180 205 
72 44 75 33 32 33 27 26 26 34 34 33 35 34 34 33 32 33 29 29 30 31 30 31 
30 31 30 90 124 91 193 196 199 179 171 192 54 68 89 28 33 48 28 33 48 28 33 48 
28 33 48 28 33 48 28 33 48 28 33 48 28 33 48 28 33 48 28 33 48 28 33 48 
28 33 48 30 31 30 32 31 32 33 33 31 32 31 32 31 30 31 32 31 32 32 31 32 
31 30 31 33 32 33 33 32 33 30 31 30 33 33 31 28 33 48 28 33 48 28 33 48 
28 33 48 28 33 48 28 33 48 28 33 48 28 33 48 28 33 48 28 33 48 28 33 48 
90 124 91 193 192 198 126 118 124 30 30 34 33 33 31 33 32 35 32 31 32 32 31 32 
31 30 31 31 30 31 30 31 30 35 34 34 33 33 31 64 96 64 219 237 216 241 239 241 
240 238 237 237 237 238 240 238 237 237 237 238 240 238 237 240 238 237 240 238 237 240 238 237 
240 238 237 240 238 237 246 240 222 240 238 237 246 240 222 240 238 237 240 238 237 246 240 222 
246 240 222 240 238 237 237 237 238 240 238 237 241 239 241 241 239 241 240 238 237 240 238 237 
240 238 237 240 238 237 240 238 237 240 238 237 240 238 237 237 237 238 237 237 238 237 237 238 
240 238 237 241 239 241 240 238 237 240 238 237 240 238 237 240 238 237 240 238 237 240 238 237 
246 240 222 240 238 237 240 238 237 246 240 222 240 238 237 240 238 237 240 238 237 241 239 241 
241 239 241 241 239 241 240 238 237 240 238 237 241 239 241 153 110 150 32 31 32 34 34 33 
33 32 33 33 32 33 29 29 30 31 30 31 31 30 31 32 31 32 27 26 26 30 31 30 
33 33 31 33 33 31 29 29 30 32 31 32 33 32 33 33 32 33 30 30 34 34 34 33 
30 31 30 29 29 30 34 34 33 33 32 35 30 31 30 35 58 32 200 225 194 230 227 223 
230 227 223 233 226 216 220 145 156 229 54 48 242 40 38 237 40 38 237 40 38 242 40 38 
242 40 38 237 40 38 242 40 38 242 40 38 242 40 38 229 54 48 227 142 96 231 213 171 
233 226 216 230 227 223 235 224 228 153 110 150 28 27 29 29 29 30 29 29 30 29 29 30 
34 34 33 33 33 31 33 32 33 28 27 29 31 30 31 31 30 31 35 34 34 29 29 30 
34 34 33 33 33 31 33 32 33 32 31 32 30 31 30 28 27 29 30 31 30 34 34 33 
31 30 31 29 29 30 30 31 30 30 31 30 33 32 33 34 34 33 26 33 27 136 171 132 
225 231 219 230 227 223 230 227 223 230 227 223 229 224 222 193 156 189 13 1 13 42 72 41 
10 13 10 11 11 11 11 11 11 9 9 9 13 13 13 11 11 11 10 10 10 11 11 11 
10 10 10 11 11 11 10 10 10 10 10 10 10 10 10 11 11 11 13 13 13 9 9 9 

9 9 9 11 11 11 11 11 11 11 11 11 11 11 11 11 11 11 11 11 11 9 9 9 
11 11 11 13 13 13 11 11 11 11 11 11 11 11 11 11 11 11 10 10 10 10 10 10 
10 10 10 2 3 1 118 150 120 193 196 199 197 195 201 193 192 198 197 195 201 204 180 205 
72 44 75 34 34 33 31 30 31 33 32 33 33 33 31 34 34 33 33 33 31 31 29 26 
30 31 30 90 124 91 203 201 197 193 192 198 152 144 164 99 119 146 99 119 146 99 111 124 
99 119 146 99 119 146 99 111 124 99 119 146 99 119 146 99 119 146 99 119 146 99 119 146 
54 26 46 33 33 31 32 31 32 30 31 30 31 30 31 29 29 30 30 31 30 34 34 33 
32 31 32 31 30 31 33 32 33 34 34 33 42 72 41 99 111 124 99 119 146 99 119 146 
99 119 146 99 119 146 99 119 146 99 119 146 99 119 146 99 119 146 99 119 146 99 119 146 
159 162 175 205 205 207 126 118 124 33 32 35 32 31 32 31 30 31 30 31 30 34 34 33 
34 34 33 32 31 32 28 27 29 33 32 33 33 33 31 64 96 64 219 237 216 237 237 238 
240 238 237 240 238 237 237 237 238 240 238 237 237 225 202 205 191 151 204 175 134 204 175 134 
204 175 134 204 175 134 204 175 134 204 175 134 204 175 134 204 175 134 204 175 134 204 175 134 
205 191 151 237 225 202 246 240 222 240 238 237 241 239 241 241 239 241 241 239 241 240 238 237 
240 238 237 241 239 241 240 238 237 241 239 241 240 238 237 237 237 238 240 238 237 240 238 237 
240 238 237 237 225 202 205 191 151 204 175 134 204 175 134 204 175 134 204 175 134 204 175 134 
204 175 134 204 175 134 204 175 134 204 175 134 204 175 134 204 175 134 231 213 171 246 240 222 
240 238 237 240 238 237 240 238 237 237 237 238 241 239 241 153 110 150 33 32 33 33 32 33 
35 34 34 29 29 30 29 29 30 32 31 32 31 30 31 31 30 31 27 26 26 33 32 33 
29 29 30 32 31 32 31 30 31 33 32 33 32 31 32 32 31 32 34 34 33 32 31 32 
31 30 31 31 30 31 31 30 31 33 33 31 31 29 26 35 58 32 200 225 194 232 229 225 
233 226 216 220 145 156 237 40 38 237 40 38 242 40 38 242 40 38 242 40 38 242 40 38 
242 40 38 242 40 38 242 40 38 242 40 38 242 40 38 242 40 38 223 37 37 227 142 96 
231 213 171 230 227 223 235 224 228 153 110 150 32 31 32 32 31 32 29 29 30 30 31 30 
31 29 26 33 33 31 31 29 26 31 29 26 35 34 34 31 30 31 33 32 33 32 31 32 
35 34 34 33 32 35 32 31 32 35 34 34 34 34 33 31 30 31 32 31 32 31 30 31 
31 30 31 29 29 30 32 31 32 37 36 36 32 31 32 32 31 32 26 33 27 136 171 132 
225 231 219 229 224 222 230 227 223 229 224 222 229 224 222 193 156 189 13 1 13 42 72 41 
10 13 10 11 11 11 11 11 11 11 11 11 9 9 9 10 10 10 11 11 11 11 11 11 
11 11 11 14 14 14 9 9 9 11 11 11 9 9 9 11 11 11 13 13 13 11 11 11 

11 11 11 11 11 11 11 11 11 11 11 11 9 9 9 7 7 7 11 11 11 11 11 11 
11 11 11 14 14 14 10 10 10 11 11 11 10 10 10 11 11 11 13 13 13 13 13 13 
10 10 10 2 3 1 118 150 120 193 192 198 193 192 198 197 195 201 197 195 201 204 180 205 
72 44 75 32 31 32 33 32 33 32 31 32 30 31 30 32 31 32 32 31 32 30 30 34 
33 33 31 42 72 41 196 185 148 199 189 185 199 189 185 178 189 183 170 180 172 178 189 183 
170 180 172 178 189 183 178 189 183 178 189 183 178 189 183 170 180 172 178 189 183 179 171 192 
93 65 93 31 30 31 30 31 30 31 30 31 33 32 33 32 31 32 31 30 31 33 32 33 
30 31 30 32 31 32 31 30 31 29 29 30 54 81 55 159 162 175 178 189 183 199 189 185 
199 189 185 178 189 183 199 189 185 178 189 183 199 189 185 199 189 185 199 189 185 199 189 185 
203 201 197 228 174 187 94 33 58 35 30 27 34 34 33 30 31 30 33 32 33 28 27 29 
35 34 34 33 33 31 31 30 31 32 31 32 33 33 31 64 96 64 219 237 216 237 237 238 
241 239 241 237 237 238 241 239 241 228 174 187 88 67 43 46 30 29 31 29 26 35 30 27 
35 30 27 35 30 27 35 30 27 31 29 26 35 30 27 35 30 27 33 33 31 35 30 27 
31 29 26 119 87 59 207 221 166 240 238 237 237 237 238 241 239 241 240 238 237 240 238 237 
240 238 237 241 239 241 241 239 241 240 238 237 241 239 241 241 239 241 241 239 241 241 239 241 
232 200 224 119 87 59 46 30 29 31 29 26 35 30 27 35 30 27 35 30 27 35 30 27 
31 29 26 35 30 27 31 29 26 31 29 26 33 33 31 35 30 27 88 67 43 205 191 151 
246 240 222 240 238 237 241 239 241 241 239 241 241 239 241 153 110 150 32 31 32 29 29 30 
31 30 31 33 32 33 31 30 31 31 30 31 33 33 31 30 31 30 33 32 35 28 27 29 
33 32 33 33 32 33 30 31 30 33 32 33 31 30 31 32 31 32 32 31 32 32 31 32 
33 32 35 31 30 31 33 33 31 30 31 30 30 31 30 35 58 32 200 225 194 230 227 223 
228 174 187 229 54 48 242 40 38 242 40 38 242 40 38 242 40 38 242 40 38 237 40 38 
237 40 38 237 40 38 242 40 38 242 40 38 237 40 38 242 40 38 242 40 38 229 54 48 
227 142 96 225 220 201 235 224 228 153 110 150 27 26 26 32 31 32 28 27 29 29 29 30 
32 31 32 31 30 31 31 30 31 31 30 31 34 34 33 33 32 33 33 32 33 32 31 32 
33 32 33 33 32 33 35 34 34 29 29 30 32 31 32 31 30 31 32 31 32 29 29 30 
33 33 31 34 34 33 32 31 32 33 32 33 34 34 33 33 32 33 26 33 27 136 171 132 
225 231 219 230 227 223 230 227 223 230 227 223 235 224 228 193 156 189 13 1 13 42 72 41 
10 13 10 9 9 9 10 10 10 11 11 11 10 10 10 9 9 9 10 10 10 11 11 11 
11 11 11 9 9 9 9 9 9 11 11 11 11 11 11 11 11 11 13 13 13 11 11 11 

10 10 10 11 11 11 10 10 10 9 9 9 11 11 11 10 10 10 11 11 11 13 13 13 
11 11 11 9 9 9 11 11 11 10 10 10 11 11 11 11 11 11 11 11 11 11 11 11 
11 11 11 2 3 1 118 150 120 193 196 199 197 195 201 193 196 199 197 195 201 204 180 205 
72 44 75 33 32 35 32 31 32 29 29 30 30 31 30 34 34 33 33 33 31 33 32 33 
31 29 26 30 31 30 75 55 39 119 87 59 119 87 59 119 87 59 119 87 59 119 87 59 
119 87 59 119 87 59 119 87 59 119 87 59 132 102 61 134 129 113 202 201 206 204 180 205 
93 65 93 33 32 35 33 33 31 32 31 32 32 31 32 32 31 32 31 30 31 33 33 31 
32 31 32 31 30 31 33 32 33 33 33 31 54 81 55 170 180 172 171 129 167 132 102 61 
132 102 61 132 102 61 132 102 61 132 102 61 132 102 61 132 102 61 132 102 61 132 102 61 
132 102 61 88 67 43 35 30 27 31 30 31 33 32 33 34 34 33 31 29 26 29 29 30 
30 31 30 29 29 30 27 26 26 29 29 30 33 33 31 64 96 64 219 237 216 240 238 237 
241 239 241 241 239 241 235 224 228 93 65 93 35 30 27 31 30 31 34 34 33 32 31 32 
33 32 35 32 31 32 31 30 31 32 31 32 31 30 31 30 31 30 31 30 31 31 30 31 
31 30 31 27 26 26 90 124 91 225 220 201 240 238 237 240 238 237 240 238 237 240 238 237 
237 237 238 241 239 241 240 238 237 241 239 241 241 239 241 240 238 237 241 239 241 240 238 237 
129 89 121 35 30 27 31 30 31 30 31 30 31 30 31 33 33 31 33 33 31 28 27 29 
32 31 32 33 33 31 33 33 31 29 29 30 32 31 32 31 29 26 33 33 31 54 81 55 
207 221 166 240 238 237 240 238 237 237 237 238 241 239 241 153 110 150 33 32 35 32 31 32 
33 33 31 32 31 32 32 31 32 31 29 26 33 33 31 32 31 32 29 29 30 32 31 32 
32 31 32 29 29 30 27 26 26 29 29 30 35 34 34 35 35 37 31 30 31 33 32 33 
34 34 33 30 31 30 27 26 26 34 34 33 30 31 30 35 58 32 200 225 194 235 224 228 
220 70 81 242 40 38 242 40 38 242 40 38 242 40 38 242 40 38 223 37 37 193 22 30 
181 22 29 181 22 29 193 22 30 237 40 38 242 40 38 242 40 38 242 40 38 242 40 38 
222 94 55 214 201 160 232 229 225 153 110 150 32 31 32 30 31 30 33 32 33 32 31 32 
33 32 33 33 32 35 31 30 31 31 30 31 29 29 30 33 32 33 31 30 31 28 27 29 
31 30 31 33 32 33 30 31 30 34 34 33 32 31 32 30 31 30 33 32 35 33 32 35 
33 33 31 35 34 34 32 31 32 33 32 33 35 34 34 29 29 30 26 33 27 136 171 132 
225 231 219 229 224 222 229 224 222 229 224 222 235 224 228 193 156 189 13 1 13 42 72 41 
10 13 10 11 9 10 9 9 9 10 10 10 11 11 11 9 9 9 11 11 11 10 10 10 
9 9 9 9 9 9 10 10 10 9 9 9 7 7 7 9 9 9 10 10 10 10 10 10 

7 7 7 11 11 11 11 11 11 11 11 11 10 10 10 7 7 7 9 9 9 9 9 9 
11 11 11 11 11 11 10 10 10 10 10 10 9 9 9 11 11 11 11 11 11 11 11 11 
9 9 9 2 3 1 118 150 120 193 196 199 197 195 201 193 192 198 193 192 198 204 180 205 
72 44 75 33 32 33 33 33 31 33 32 35 31 30 31 33 32 35 33 32 35 33 33 31 
30 31 30 33 32 33 33 32 33 30 31 30 35 34 34 33 33 31 27 26 26 33 33 31 
33 33 31 33 33 31 32 31 32 33 32 33 30 31 30 90 124 91 202 201 206 204 180 205 
93 65 93 32 31 32 33 33 31 31 30 31 33 33 31 30 31 30 32 31 32 32 31 32 
33 33 31 33 33 31 31 30 31 33 33 31 54 81 55 170 180 172 153 110 150 35 34 34 
31 30 31 33 32 33 34 34 33 31 30 31 35 34 34 30 31 30 30 31 30 34 34 33 
30 31 30 33 32 33 32 31 32 33 32 33 34 34 33 35 34 34 35 34 34 35 34 34 
31 30 31 33 32 33 31 30 31 33 32 33 33 33 31 64 96 64 219 237 216 240 238 237 
241 239 241 241 239 241 221 188 211 54 26 46 31 30 31 32 31 32 30 31 30 32 31 32 
34 34 33 31 30 31 33 32 33 29 29 30 33 32 33 30 31 30 31 30 31 32 31 32 
31 29 26 30 31 30 35 58 32 178 189 183 237 237 238 237 237 238 240 238 237 240 238 237 
240 238 237 240 238 237 237 237 238 240 238 237 240 238 237 240 238 237 241 239 241 235 224 228 
72 44 75 33 33 31 32 31 32 32 31 32 34 34 33 30 31 30 32 31 32 31 30 31 
33 32 33 33 32 33 31 30 31 31 30 31 30 30 34 32 31 32 30 30 34 26 33 27 
136 171 132 232 229 225 241 239 241 241 239 241 241 239 241 153 110 150 29 29 30 34 34 33 
35 34 34 31 30 31 35 34 34 35 34 34 31 30 31 30 31 30 32 31 32 30 31 30 
29 29 30 29 29 30 30 31 30 34 34 33 30 31 30 34 34 33 33 32 33 31 30 31 
32 31 32 33 32 33 32 31 32 30 31 30 32 31 32 35 58 32 200 225 194 228 174 187 
237 40 38 242 40 38 242 40 38 242 40 38 237 40 38 242 40 38 206 31 34 181 22 29 
193 22 30 193 22 30 181 22 29 206 31 34 237 40 38 237 40 38 242 40 38 242 40 38 
229 54 48 227 142 96 225 220 201 153 110 150 31 30 31 29 29 30 31 30 31 31 30 31 
35 34 34 32 31 32 33 32 33 30 31 30 33 32 33 32 31 32 30 31 30 32 31 32 
32 31 32 31 30 31 31 30 31 30 31 30 33 33 31 30 31 30 32 31 32 32 31 32 
34 34 33 29 29 30 30 31 30 32 31 32 30 31 30 34 34 33 26 33 27 136 171 132 
225 231 219 229 224 222 229 224 222 230 227 223 235 224 228 193 156 189 13 1 13 42 72 41 
10 13 10 11 11 11 10 10 10 11 11 11 11 11 11 11 11 11 9 9 9 13 13 13 
9 9 9 10 10 10 10 10 10 10 10 10 11 11 11 11 11 11 11 11 11 11 11 11 

9 9 9 10 10 10 10 10 10 11 11 11 9 9 9 14 14 14 11 11 11 10 10 10 
11 11 11 13 13 13 10 10 10 11 11 11 9 9 9 11 11 11 11 11 11 9 9 9 
10 10 10 2 3 1 118 150 120 193 196 199 193 192 198 193 196 199 193 192 198 204 180 205 
72 44 75 30 30 34 30 30 34 33 32 33 34 34 33 32 31 32 35 34 34 33 32 33 
33 33 31 32 31 32 33 33 31 31 29 26 33 33 31 31 30 31 30 31 30 28 27 29 
34 34 33 32 31 32 31 30 31 35 34 34 27 26 26 100 136 98 205 205 207 204 180 205 
93 65 93 33 32 33 31 30 31 29 29 30 22 15 15 18 14 10 22 15 15 18 14 10 
22 15 15 31 29 26 30 31 30 31 29 26 54 81 55 170 180 172 153 110 150 33 32 35 
34 34 33 32 31 32 31 30 31 30 31 30 35 34 34 32 31 32 34 34 33 34 34 33 
34 34 33 32 31 32 30 31 30 35 34 34 30 31 30 35 34 34 33 33 31 30 31 30 
32 31 32 33 32 33 32 31 32 29 29 30 33 33 31 64 96 64 219 237 216 240 238 237 
241 239 241 240 238 237 221 188 211 54 26 46 34 34 33 30 31 30 32 31 32 32 31 32 
32 31 32 32 31 32 30 31 30 30 31 30 31 30 31 32 31 32 32 31 32 33 32 33 
32 31 32 32 31 32 35 58 32 170 180 172 232 229 225 240 238 237 240 238 237 240 238 237 
240 238 237 240 238 237 240 238 237 240 238 237 240 238 237 240 238 237 240 238 237 232 200 224 
72 44 75 29 29 30 33 32 33 30 31 30 33 32 33 30 31 30 30 31 30 30 31 30 
29 29 30 32 31 32 30 31 30 32 31 32 33 32 33 30 31 30 33 33 31 26 33 27 
136 171 132 225 231 219 241 239 241 241 239 241 241 239 241 153 110 150 30 30 34 32 31 32 
33 33 31 34 34 33 31 30 31 32 31 32 30 31 30 32 31 32 29 29 30 33 32 33 
32 31 32 33 33 31 32 31 32 32 31 32 29 29 30 33 32 33 29 29 30 34 34 33 
35 34 34 31 30 31 30 31 30 33 32 33 32 31 32 35 58 32 200 225 194 220 145 156 
237 40 38 242 40 38 242 40 38 242 40 38 242 40 38 237 40 38 206 31 34 193 22 30 
237 40 38 237 40 38 206 31 34 193 22 30 237 40 38 242 40 38 242 40 38 242 40 38 
237 40 38 222 94 55 203 201 197 153 110 150 27 26 26 31 29 26 33 32 33 31 30 31 
27 26 26 31 30 31 35 34 34 35 34 34 33 32 33 31 30 31 30 31 30 35 34 34 
27 26 26 29 29 30 35 34 34 33 32 33 33 32 33 30 31 30 33 33 31 33 32 33 
32 31 32 35 34 34 30 31 30 35 34 34 32 31 32 29 29 30 26 33 27 136 171 132 
225 231 219 230 227 223 230 227 223 229 224 222 235 224 228 193 156 189 13 1 13 42 72 41 
10 13 10 13 13 13 10 10 10 11 11 11 7 7 7 9 9 9 11 11 11 11 11 11 
13 13 13 9 9 9 11 11 11 13 13 13 9 9 9 11 11 11 11 11 11 11 11 11 

9 9 9 10 10 10 11 11 11 11 11 11 9 9 9 10 10 10 11 11 11 10 10 10 
10 10 10 11 11 11 11 11 11 13 13 13 11 11 11 11 11 11 11 11 11 10 10 10 
9 9 9 2 3 1 118 150 120 193 196 199 193 192 198 197 195 201 193 192 198 204 180 205 
72 44 75 33 32 33 35 34 34 35 34 34 32 31 32 35 34 34 34 34 33 32 31 32 
29 29 30 30 31 30 27 26 26 35 34 34 34 34 33 30 31 30 32 31 32 31 30 31 
29 29 30 33 32 33 33 32 35 32 31 32 34 34 33 90 124 91 202 201 206 204 180 205 
93 65 93 31 30 31 32 31 32 25 21 24 2 3 1 2 3 1 2 3 1 2 3 1 
2 3 1 23 23 23 33 33 31 30 31 30 54 81 55 170 180 172 153 110 150 30 30 34 
30 31 30 33 32 33 33 33 31 33 32 33 34 34 33 30 31 30 33 33 31 33 33 31 
33 33 31 33 33 31 30 31 30 34 34 33 30 31 30 31 30 31 32 31 32 34 34 33 
34 34 33 32 31 32 32 31 32 34 34 33 27 26 26 64 96 64 219 237 216 237 237 238 
241 239 241 237 237 238 232 200 224 93 65 93 33 32 35 30 31 30 30 30 34 32 31 32 
30 31 30 31 30 31 29 29 30 29 29 30 31 30 31 33 32 33 31 29 26 30 31 30 
31 30 31 30 30 34 64 96 64 178 189 183 237 237 238 241 239 241 237 237 238 240 238 237 
237 237 238 241 239 241 240 238 237 241 239 241 240 238 237 237 237 238 241 239 241 235 224 228 
153 110 150 28 33 48 33 32 33 30 31 30 32 31 32 31 30 31 32 31 32 33 32 33 
32 31 32 29 29 30 32 31 32 33 32 33 33 32 33 32 31 32 29 29 30 54 81 55 
170 180 172 228 228 227 241 239 241 240 238 237 241 239 241 153 110 150 33 32 35 32 31 32 
32 31 32 33 32 33 30 31 30 34 34 33 33 32 33 30 31 30 32 31 32 34 34 33 
32 31 32 29 29 30 35 34 34 35 34 34 29 29 30 30 31 30 32 31 32 33 32 33 
31 30 31 32 31 32 31 30 31 30 31 30 31 29 26 35 58 32 200 225 194 213 104 148 
242 40 38 242 40 38 242 40 38 242 40 38 242 40 38 242 40 38 206 31 34 193 22 30 
223 37 37 223 37 37 193 22 30 193 22 30 237 40 38 242 40 38 242 40 38 242 40 38 
242 40 38 222 94 55 199 189 185 153 110 150 26 33 27 34 34 33 31 30 31 30 31 30 
30 31 30 31 30 31 33 32 33 30 31 30 32 31 32 31 30 31 32 31 32 31 30 31 
32 31 32 30 31 30 33 32 33 35 34 34 33 32 33 31 30 31 27 26 26 33 33 31 
34 34 33 32 31 32 31 30 31 33 32 33 33 32 33 31 30 31 26 33 27 136 171 132 
225 231 219 229 224 222 229 224 222 229 224 222 235 224 228 193 156 189 13 1 13 42 72 41 
10 13 10 11 11 11 11 11 11 10 10 10 11 11 11 11 11 11 11 11 11 11 11 11 
10 10 10 11 11 11 10 10 10 11 11 11 10 10 10 7 7 7 11 11 11 10 10 10 

9 9 9 9 9 9 9 9 9 10 10 10 10 10 10 7 7 7 10 10 10 10 10 10 
10 10 10 10 10 10 9 9 9 10 10 10 11 11 11 11 11 11 11 11 11 11 11 11 
10 10 10 2 3 1 118 150 120 193 196 199 193 192 198 193 196 199 197 195 201 204 180 205 
72 44 75 33 32 33 34 34 33 31 29 26 33 32 33 29 29 30 32 31 32 34 34 33 
31 30 31 35 34 34 32 31 32 31 30 31 33 32 33 33 32 33 32 31 32 35 34 34 
33 33 31 32 31 32 33 32 33 30 31 30 34 34 33 100 136 98 202 201 206 204 180 205 
93 65 93 33 32 33 32 31 32 28 27 29 2 3 1 2 3 1 2 3 1 2 3 1 
2 3 1 23 23 23 30 31 30 33 33 31 54 81 55 170 180 172 153 110 150 33 32 35 
35 34 34 33 32 33 30 31 30 33 32 33 33 33 31 30 31 30 32 31 32 30 31 30 
34 34 33 33 32 33 34 34 33 34 34 33 32 31 32 35 34 34 31 30 31 32 31 32 
37 36 36 33 32 33 32 31 32 32 31 32 29 29 30 64 96 64 219 237 216 240 238 237 
237 237 238 241 239 241 237 237 238 179 171 192 58 83 119 28 33 48 28 33 48 28 33 48 
28 33 48 28 33 48 28 33 48 30 30 34 28 33 48 30 30 34 28 33 48 28 33 48 
28 33 48 54 68 89 137 146 161 209 208 211 237 237 238 237 237 238 240 238 237 240 238 237 
240 238 237 240 238 237 241 239 241 241 239 241 241 239 241 240 238 237 240 238 237 237 237 238 
204 180 205 58 83 119 28 33 48 28 33 48 28 33 48 28 33 48 28 33 48 28 33 48 
28 33 48 28 33 48 28 33 48 28 33 48 28 33 48 28 33 48 54 68 89 99 119 146 
193 196 199 237 237 238 241 239 241 241 239 241 241 239 241 153 110 150 29 29 30 29 29 30 
30 31 30 31 30 31 32 31 32 33 32 33 32 31 32 34 34 33 29 29 30 33 32 33 
34 34 33 34 34 33 35 34 34 35 34 34 31 30 31 30 31 30 32 31 32 31 30 31 
34 34 33 32 31 32 27 26 26 33 32 33 30 31 30 35 58 32 200 225 194 213 104 148 
237 40 38 242 40 38 242 40 38 237 40 38 242 40 38 242 40 38 206 31 34 181 22 29 
181 22 29 181 22 29 181 22 29 206 31 34 242 40 38 242 40 38 242 40 38 242 40 38 
242 40 38 222 94 55 199 189 185 153 110 150 31 29 26 35 34 34 30 31 30 29 29 30 
32 31 32 34 34 33 32 31 32 30 31 30 33 32 33 30 31 30 34 34 33 31 30 31 
33 32 33 30 31 30 30 31 30 30 31 30 33 33 31 27 26 26 31 30 31 34 34 33 
30 31 30 34 34 33 32 31 32 34 34 33 33 32 33 31 30 31 26 33 27 136 171 132 
225 231 219 229 224 222 230 227 223 229 224 222 235 224 228 193 156 189 13 1 13 42 72 41 
10 13 10 11 9 10 11 11 11 13 13 13 11 11 11 11 11 11 10 10 10 13 13 13 
11 11 11 10 10 10 11 11 11 11 11 11 11 11 11 11 11 11 10 10 10 10 10 10 

11 11 11 9 9 9 7 7 7 13 13 13 9 9 9 13 13 13 11 11 11 14 14 14 
10 10 10 11 11 11 11 11 11 11 11 11 11 11 11 10 10 10 10 10 10 11 11 11 
9 9 9 2 3 1 118 150 120 193 196 199 193 192 198 193 196 199 197 195 201 204 180 205 
72 44 75 33 33 31 33 33 31 31 30 31 32 31 32 32 31 32 32 31 32 34 34 33 
33 33 31 33 33 31 32 31 32 32 31 32 33 32 33 34 34 33 33 32 33 33 32 35 
32 31 32 31 30 31 28 27 29 30 31 30 34 34 33 100 136 98 202 201 206 204 180 205 
93 65 93 33 32 33 32 31 32 18 10 13 2 3 1 2 3 1 2 3 1 2 3 1 
2 3 1 10 13 10 30 31 30 33 33 31 54 81 55 170 180 172 153 110 150 33 32 33 
35 34 34 32 31 32 31 30 31 31 30 31 32 31 32 31 30 31 33 32 33 35 34 34 
34 34 33 33 32 33 30 31 30 29 29 30 32 31 32 33 32 33 33 32 33 32 31 32 
31 29 26 30 31 30 31 30 31 32 31 32 32 31 32 64 96 64 219 237 216 240 238 237 
240 238 237 240 238 237 241 239 241 228 228 227 179 171 192 123 145 182 99 119 146 99 119 146 
99 119 146 99 119 146 99 119 146 99 119 146 99 119 146 99 119 146 99 119 146 99 119 146 
99 119 146 137 146 161 192 206 221 237 237 238 237 237 238 241 239 241 240 238 237 241 239 241 
240 238 237 241 239 241 240 238 237 240 238 237 237 237 238 240 238 237 241 239 241 237 237 238 
235 224 228 182 192 213 123 145 182 99 119 146 99 119 146 99 119 146 99 119 146 99 119 146 
99 119 146 99 119 146 99 119 146 99 119 146 99 119 146 99 119 146 137 146 161 182 192 213 
228 228 227 237 237 238 240 238 237 240 238 237 241 239 241 153 110 150 33 32 35 30 31 30 
34 34 33 34 34 33 31 30 31 33 32 33 33 32 33 30 31 30 34 34 33 33 32 33 
33 32 33 33 32 33 33 32 33 33 32 35 30 31 30 31 30 31 33 32 33 30 31 30 
32 31 32 30 31 30 29 29 30 34 34 33 33 32 33 35 58 32 200 225 194 213 104 148 
237 40 38 242 40 38 242 40 38 242 40 38 242 40 38 242 40 38 206 31 34 193 22 30 
206 31 34 206 31 34 181 22 29 193 22 30 237 40 38 242 40 38 237 40 38 242 40 38 
237 40 38 222 94 55 199 189 185 153 110 150 31 29 26 31 30 31 32 31 32 33 32 33 
30 31 30 32 31 32 32 31 32 34 34 33 31 30 31 33 32 33 34 34 33 32 31 32 
33 32 33 33 32 33 32 31 32 32 31 32 32 31 32 32 31 32 29 29 30 33 32 33 
33 32 33 34 34 33 35 34 34 32 31 32 32 31 32 30 31 30 26 33 27 136 171 132 
225 231 219 230 227 223 229 224 222 229 224 222 229 224 222 193 156 189 13 1 13 42 72 41 
10 13 10 7 7 7 9 9 9 9 9 9 7 7 7 11 11 11 11 11 11 10 10 10 
11 11 11 7 7 7 9 9 9 11 11 11 11 11 11 11 11 11 11 11 11 9 9 9 

13 13 13 10 10 10 11 11 11 13 13 13 11 11 11 11 11 11 9 9 9 11 11 11 
11 11 11 13 13 13 11 11 11 10 10 10 11 11 11 10 10 10 7 7 7 9 9 9 
11 11 11 2 3 1 118 150 120 193 192 198 193 192 198 197 195 201 193 192 198 204 180 205 
72 44 75 34 34 33 35 34 34 35 34 34 33 32 33 35 34 34 32 31 32 33 32 33 
30 31 30 31 30 31 33 32 33 33 32 33 32 31 32 35 34 34 35 34 34 29 29 30 
31 30 31 34 34 33 29 29 30 33 33 31 34 34 33 90 124 91 199 198 204 204 180 205 
93 65 93 33 32 35 33 32 35 28 27 29 7 7 7 2 3 1 2 3 1 2 3 1 
7 7 7 26 33 27 29 29 30 33 32 33 54 81 55 170 180 172 153 110 150 32 31 32 
33 32 35 31 30 31 35 34 34 30 31 30 33 33 31 34 34 33 30 31 30 28 27 29 
35 34 34 34 34 33 30 31 30 30 31 30 33 32 33 32 31 32 31 30 31 31 30 31 
30 31 30 30 31 30 35 34 34 33 32 33 29 29 30 64 96 64 219 237 216 240 238 237 
237 237 238 237 237 238 237 237 238 241 239 241 228 228 227 200 214 229 192 206 221 192 206 221 
192 206 221 192 206 221 192 206 221 192 206 221 192 206 221 192 206 221 192 206 221 192 206 221 
192 206 221 210 220 234 237 237 238 237 237 238 240 238 237 241 239 241 241 239 241 240 238 237 
237 237 238 240 238 237 241 239 241 240 238 237 241 239 241 240 238 237 240 238 237 241 239 241 
237 237 238 237 237 238 210 220 234 192 206 221 192 206 221 192 206 221 192 206 221 192 206 221 
192 206 221 192 206 221 192 206 221 192 206 221 192 206 221 192 206 221 200 214 229 237 237 238 
241 239 241 237 237 238 241 239 241 241 239 241 241 239 241 153 110 150 33 32 35 30 31 30 
33 32 33 30 31 30 29 29 30 34 34 33 35 34 34 35 34 34 32 31 32 32 31 32 
31 30 31 30 31 30 32 31 32 33 32 33 33 33 31 32 31 32 32 31 32 33 32 33 
30 31 30 31 30 31 33 32 33 35 34 34 29 29 30 35 58 32 200 225 194 206 139 176 
226 45 75 242 40 38 242 40 38 242 40 38 242 40 38 242 40 38 206 31 34 206 31 34 
237 40 38 237 40 38 223 37 37 193 22 30 223 37 37 242 40 38 242 40 38 242 40 38 
237 40 38 211 97 97 199 189 185 153 110 150 31 30 31 31 30 31 30 31 30 29 29 30 
33 32 33 29 29 30 30 31 30 28 27 29 32 31 32 32 31 32 29 29 30 31 30 31 
31 30 31 35 34 34 33 32 33 33 32 33 35 34 34 30 31 30 31 29 26 33 33 31 
32 31 32 31 30 31 31 30 31 33 32 33 30 31 30 31 30 31 26 33 27 136 171 132 
225 231 219 230 227 223 229 224 222 230 227 223 229 224 222 193 156 189 13 1 13 42 72 41 
10 13 10 10 10 10 10 10 10 10 10 10 10 10 10 11 11 11 10 10 10 10 10 10 
7 7 7 11 11 11 11 11 11 13 13 13 11 11 11 10 10 10 10 10 10 11 11 11 

11 11 11 7 7 7 7 7 7 9 9 9 11 11 11 11 11 11 11 11 11 10 10 10 
9 9 9 11 11 11 9 9 9 10 10 10 11 11 11 10 10 10 10 10 10 11 11 11 
9 9 9 2 3 1 118 150 120 193 196 199 197 195 201 193 192 198 193 192 198 204 180 205 
72 44 75 34 34 33 32 31 32 31 30 31 34 34 33 32 31 32 31 30 31 33 32 33 
31 30 31 34 34 33 34 34 33 33 33 31 34 34 33 33 32 33 31 30 31 33 32 33 
34 34 33 33 33 31 32 31 32 30 31 30 34 34 33 90 124 91 193 196 199 204 180 205 
93 65 93 31 30 31 33 33 31 33 32 33 25 24 25 7 7 7 2 3 1 7 7 7 
25 24 25 33 32 33 33 32 33 30 31 30 54 81 55 170 180 172 153 110 150 33 32 33 
32 31 32 33 32 33 34 34 33 31 29 26 29 29 30 35 34 34 30 31 30 33 32 33 
33 32 33 33 32 33 34 34 33 30 31 30 32 31 32 32 31 32 30 31 30 30 31 30 
31 30 31 31 30 31 31 30 31 30 31 30 30 31 30 64 96 64 219 237 216 240 238 237 
240 238 237 241 239 241 241 239 241 240 238 237 240 238 237 237 237 238 241 239 241 241 239 241 
237 237 238 237 237 238 237 237 238 237 237 238 237 237 238 237 237 238 237 237 238 237 237 238 
241 239 241 237 237 238 241 239 241 240 238 237 237 237 238 241 239 241 240 238 237 240 238 237 
240 238 237 237 237 238 240 238 237 237 237 238 241 239 241 241 239 241 241 239 241 237 237 238 
240 238 237 240 238 237 237 237 238 237 237 238 237 237 238 237 237 238 237 237 238 241 239 241 
241 239 241 237 237 238 237 237 238 237 237 238 237 237 238 237 237 238 237 237 238 237 237 238 
237 237 238 240 238 237 240 238 237 237 237 238 241 239 241 153 110 150 32 31 32 28 27 29 
33 32 33 31 30 31 29 29 30 30 31 30 33 32 33 31 30 31 33 32 33 32 31 32 
31 30 31 33 32 33 31 30 31 34 34 33 33 33 31 31 30 31 33 32 33 33 32 33 
30 31 30 32 31 32 32 31 32 35 34 34 30 31 30 35 58 32 200 225 194 221 188 211 
215 64 101 242 40 38 242 40 38 242 40 38 242 40 38 242 40 38 206 31 34 193 22 30 
237 40 38 237 40 38 206 31 34 181 22 29 223 37 37 242 40 38 242 40 38 242 40 38 
229 54 48 174 146 114 205 205 207 153 110 150 32 31 32 31 29 26 32 31 32 28 27 29 
32 31 32 32 31 32 32 31 32 29 29 30 34 34 33 32 31 32 32 31 32 31 30 31 
32 31 32 27 26 26 35 34 34 34 34 33 33 33 31 31 30 31 30 31 30 33 32 33 
33 32 33 29 29 30 33 32 33 34 34 33 30 31 30 30 31 30 33 33 31 136 171 132 
225 231 219 229 224 222 229 224 222 230 227 223 235 224 228 193 156 189 13 1 13 42 72 41 
9 9 9 11 11 11 11 11 11 11 11 11 10 10 10 10 10 10 10 10 10 13 13 13 
11 11 11 11 11 11 10 10 10 10 10 10 11 11 11 11 11 11 11 11 11 9 9 9 

11 11 11 10 10 10 7 7 7 11 11 11 9 9 9 7 7 7 9 9 9 11 11 11 
10 10 10 11 11 11 11 11 11 11 11 11 11 11 11 11 11 11 10 10 10 11 11 11 
11 11 11 2 3 1 118 150 120 193 196 199 193 196 199 193 192 198 193 192 198 204 180 205 
72 44 75 33 32 33 29 29 30 31 30 31 33 32 33 30 31 30 30 31 30 35 34 34 
31 30 31 28 27 29 30 31 30 31 30 31 32 31 32 34 34 33 32 31 32 32 31 32 
33 33 31 33 33 31 29 29 30 34 34 33 34 34 33 90 124 91 199 198 204 204 180 205 
93 65 93 33 32 33 32 31 32 32 31 32 33 32 35 25 24 25 7 7 7 23 23 23 
30 30 34 30 31 30 33 32 33 33 33 31 54 81 55 170 180 172 153 110 150 31 30 31 
37 36 36 31 30 31 32 31 32 31 30 31 34 34 33 35 34 34 30 31 30 32 31 32 
33 32 33 35 35 37 32 31 32 32 31 32 30 31 30 32 31 32 28 27 29 32 31 32 
32 31 32 31 30 31 32 31 32 31 30 31 33 33 31 64 96 64 219 237 216 237 237 238 
240 238 237 237 237 238 241 239 241 241 239 241 240 238 237 240 238 237 241 239 241 241 239 241 
241 239 241 241 239 241 241 239 241 241 239 241 241 239 241 240 238 237 241 239 241 241 239 241 
241 239 241 241 239 241 241 239 241 237 237 238 240 238 237 240 238 237 240 238 237 241 239 241 
241 239 241 240 238 237 240 238 237 237 237 238 240 238 237 237 237 238 240 238 237 241 239 241 
240 238 237 240 238 237 241 239 241 241 239 241 241 239 241 241 239 241 237 237 238 240 238 237 
240 238 237 241 239 241 240 238 237 237 237 238 240 238 237 240 238 237 240 238 237 240 238 237 
241 239 241 240 238 237 240 238 237 241 239 241 241 239 241 153 110 150 33 32 35 30 31 30 
32 31 32 32 31 32 32 31 32 30 31 30 29 29 30 29 29 30 33 32 33 33 32 33 
30 31 30 29 29 30 34 34 33 33 32 33 31 30 31 29 29 30 31 30 31 30 31 30 
34 34 33 33 32 33 30 31 30 33 32 33 26 33 27 35 58 32 200 225 194 222 207 217 
213 104 148 226 45 75 242 40 38 237 40 38 242 40 38 242 40 38 206 31 34 181 22 29 
181 22 29 181 22 29 181 22 29 181 22 29 237 40 38 237 40 38 242 40 38 237 40 38 
211 97 97 170 180 172 223 220 219 153 110 150 31 30 31 30 31 30 27 26 26 29 29 30 
30 31 30 33 33 31 32 31 32 32 31 32 34 34 33 29 29 30 29 29 30 32 31 32 
30 31 30 32 31 32 32 31 32 31 29 26 37 36 36 33 32 33 31 30 31 30 31 30 
34 34 33 33 32 33 33 32 33 32 31 32 27 26 26 31 29 26 34 38 34 136 171 132 
225 231 219 229 224 222 229 224 222 229 224 222 235 224 228 193 156 189 13 1 13 42 72 41 
10 13 10 11 11 11 11 11 11 11 11 11 10 10 10 10 10 10 11 11 11 11 11 11 
10 10 10 7 7 7 9 9 9 11 11 11 10 10 10 11 11 11 10 10 10 10 10 10 

11 11 11 9 9 9 11 11 11 11 11 11 11 11 11 10 10 10 10 10 10 14 14 14 
10 10 10 11 11 11 10 10 10 13 13 13 11 11 11 13 13 13 15 15 15 9 9 9 
11 11 11 2 3 1 118 150 120 193 196 199 193 192 198 193 192 198 197 195 201 204 180 205 
72 44 75 32 31 32 34 34 33 31 30 31 33 32 33 30 31 30 30 31 30 33 33 31 
31 30 31 33 32 33 31 30 31 32 31 32 29 29 30 32 31 32 31 30 31 27 26 26 
27 26 26 31 30 31 30 31 30 33 32 33 35 34 34 90 124 91 199 198 204 204 180 205 
93 65 93 33 32 35 33 32 35 31 30 31 30 30 34 35 35 37 30 30 34 30 30 34 
31 30 31 30 31 30 32 31 32 30 31 30 54 81 55 170 180 172 153 110 150 33 32 33 
31 30 31 32 31 32 33 32 33 29 29 30 31 30 31 33 33 31 33 32 33 30 31 30 
34 34 33 35 34 34 35 34 34 31 30 31 32 31 32 32 31 32 30 31 30 34 34 33 
33 32 33 35 34 34 29 29 30 31 30 31 30 31 30 64 96 64 219 237 216 240 238 237 
241 239 241 241 239 241 240 238 237 241 239 241 237 237 238 240 238 237 240 238 237 241 239 241 
241 239 241 241 239 241 240 238 237 241 239 241 240 238 237 237 237 238 241 239 241 240 238 237 
240 238 237 237 237 238 240 238 237 241 239 241 237 237 238 240 238 237 240 238 237 240 238 237 
240 238 237 240 238 237 240 238 237 240 238 237 240 238 237 241 239 241 241 239 241 240 238 237 
241 239 241 240 238 237 241 239 241 241 239 241 241 239 241 240 238 237 240 238 237 241 239 241 
240 238 237 240 238 237 240 238 237 240 238 237 241 239 241 240 238 237 240 238 237 241 239 241 
241 239 241 241 239 241 237 237 238 241 239 241 241 239 241 153 110 150 35 35 37 29 29 30 
33 33 31 33 32 33 31 30 31 27 26 26 27 26 26 34 34 33 33 32 33 30 31 30 
27 26 26 28 27 29 29 29 30 33 32 33 33 32 33 30 31 30 35 34 34 29 29 30 
29 29 30 33 32 33 31 30 31 30 31 30 30 30 34 35 58 32 200 225 194 229 224 222 
204 180 205 207 62 126 237 40 38 242 40 38 242 40 38 242 40 38 223 37 37 193 22 30 
193 22 30 193 22 30 223 37 37 237 40 38 237 40 38 242 40 38 237 40 38 220 70 81 
166 151 124 193 196 199 229 224 222 153 110 150 30 31 30 32 31 32 33 32 33 33 32 33 
30 31 30 33 33 31 35 35 37 33 32 35 30 31 30 30 31 30 33 33 31 32 31 32 
31 30 31 30 31 30 34 34 33 33 33 31 34 34 33 32 31 32 33 32 35 29 29 30 
35 34 34 33 32 33 32 31 32 29 29 30 32 31 32 31 30 31 26 33 27 136 171 132 
225 231 219 229 224 222 230 227 223 229 224 222 229 224 222 193 156 189 13 1 13 42 72 41 
10 13 10 13 10 11 10 10 10 13 13 13 11 11 11 11 11 11 11 11 11 13 13 13 
10 10 10 10 10 10 9 9 9 13 13 13 11 11 11 10 10 10 9 9 9 10 10 10 

11 11 11 11 11 11 11 11 11 11 11 11 9 9 9 9 9 9 10 10 10 11 11 11 
11 11 11 9 9 9 11 11 11 10 10 10 10 10 10 11 11 11 9 9 9 9 9 9 
10 10 10 2 3 1 118 150 120 193 196 199 193 192 198 197 195 201 193 192 198 204 180 205 
72 44 75 35 34 34 31 30 31 32 31 32 31 30 31 31 30 31 30 31 30 29 29 30 
33 32 33 33 33 31 31 30 31 30 31 30 30 31 30 31 30 31 30 31 30 32 31 32 
35 34 34 33 32 33 31 30 31 35 34 34 34 34 33 90 124 91 199 198 204 197 195 201 
153 110 150 30 42 84 28 33 48 28 33 48 28 33 48 28 33 48 28 33 48 28 33 48 
28 33 48 28 33 48 28 33 48 28 33 48 90 124 91 170 180 172 153 110 150 37 37 38 
31 30 31 30 31 30 31 30 31 29 29 30 30 31 30 33 32 33 35 35 37 35 34 34 
31 30 31 30 31 30 33 32 33 35 34 34 32 31 32 29 29 30 32 31 32 33 32 33 
33 32 33 34 34 33 29 29 30 28 27 29 30 31 30 35 58 32 207 221 166 246 240 222 
246 240 222 246 240 222 246 240 222 246 240 222 246 240 222 246 240 222 246 240 222 246 240 222 
246 240 222 246 240 222 246 240 222 246 240 222 246 240 222 246 240 222 246 240 222 246 240 222 
246 240 222 246 240 222 246 240 222 246 240 222 246 240 222 246 240 222 246 240 222 246 240 222 
246 240 222 246 240 222 246 240 222 246 240 222 246 240 222 246 240 222 246 240 222 246 240 222 
246 240 222 246 240 222 246 240 222 246 240 222 246 240 222 246 240 222 246 240 222 246 240 222 
246 240 222 246 240 222 246 240 222 246 240 222 246 240 222 246 240 222 246 240 222 246 240 222 
246 240 222 246 240 222 246 240 222 246 240 222 235 204 196 94 33 58 33 33 31 29 29 30 
30 31 30 33 32 33 33 32 33 32 31 32 32 31 32 30 31 30 32 31 32 29 29 30 
32 31 32 32 31 32 31 30 31 32 31 32 34 34 33 32 31 32 33 33 31 30 31 30 
31 30 31 33 32 33 31 30 31 29 29 30 30 31 30 35 58 32 200 225 194 229 224 222 
223 220 219 193 156 189 207 62 126 229 54 48 242 40 38 242 40 38 242 40 38 237 40 38 
237 40 38 242 40 38 242 40 38 242 40 38 237 40 38 242 40 38 220 70 81 174 146 114 
178 189 183 223 220 219 235 224 228 153 110 150 28 27 29 35 34 34 28 27 29 32 31 32 
35 34 34 34 34 33 31 30 31 33 32 33 31 30 31 31 30 31 32 31 32 30 31 30 
32 31 32 32 31 32 32 31 32 30 31 30 32 31 32 28 27 29 33 32 33 32 31 32 
28 27 29 29 29 30 32 31 32 32 31 32 33 32 33 31 30 31 26 33 27 136 171 132 
225 231 219 230 227 223 229 224 222 229 224 222 235 224 228 193 156 189 13 1 13 42 72 41 
9 9 9 11 11 11 9 9 9 10 10 10 11 11 11 11 11 11 11 11 11 11 11 11 
9 9 9 11 11 11 11 11 11 13 13 13 10 10 10 10 10 10 11 11 11 9 9 9 

11 11 11 9 9 9 11 11 11 10 10 10 11 11 11 11 11 11 11 11 11 10 10 10 
10 10 10 11 11 11 11 11 11 11 11 11 11 11 11 10 10 10 11 11 11 9 9 9 
9 9 9 2 3 1 118 150 120 193 196 199 193 192 198 193 196 199 193 196 199 204 180 205 
72 44 75 34 38 34 34 34 33 33 32 33 33 32 33 29 29 30 30 31 30 35 34 34 
32 31 32 29 29 30 31 30 31 29 29 30 32 31 32 31 30 31 31 30 31 32 31 32 
32 31 32 32 31 32 34 34 33 33 32 33 26 33 27 90 124 91 199 189 185 199 198 204 
179 171 192 137 146 161 99 119 146 99 111 124 99 119 146 99 119 146 99 111 124 99 119 146 
99 119 146 99 119 146 99 119 146 99 119 146 137 146 161 193 192 198 153 110 150 37 37 38 
31 30 31 35 34 34 29 29 30 32 31 32 31 30 31 32 31 32 33 32 33 35 34 34 
31 30 31 31 30 31 31 30 31 32 31 32 27 26 26 32 31 32 30 31 30 33 33 31 
29 29 30 31 30 31 32 31 32 31 30 31 31 29 26 31 29 26 75 55 39 156 123 86 
156 123 86 156 123 86 156 123 86 156 123 86 156 123 86 156 123 86 156 123 86 156 123 86 
156 123 86 156 123 86 156 123 86 156 123 86 156 123 86 156 123 86 156 123 86 156 123 86 
156 123 86 156 123 86 156 123 86 156 123 86 156 123 86 156 123 86 156 123 86 156 123 86 
156 123 86 156 123 86 156 123 86 156 123 86 156 123 86 156 123 86 156 123 86 156 123 86 
156 123 86 156 123 86 156 123 86 156 123 86 156 123 86 156 123 86 156 123 86 156 123 86 
156 123 86 156 123 86 156 123 86 156 123 86 156 123 86 156 123 86 156 123 86 156 123 86 
156 123 86 156 123 86 156 123 86 156 123 86 88 67 43 35 30 27 28 27 29 27 26 26 
33 32 33 31 29 26 33 33 31 32 31 32 31 30 31 31 30 31 30 31 30 33 32 33 
31 30 31 33 32 33 31 30 31 35 34 34 31 30 31 31 30 31 32 31 32 34 34 33 
32 31 32 35 34 34 34 34 33 33 32 33 30 31 30 35 58 32 200 225 194 230 227 223 
228 228 227 222 207 217 193 156 189 176 97 145 226 45 75 237 40 38 237 40 38 242 40 38 
242 40 38 242 40 38 237 40 38 242 40 38 229 54 48 211 97 97 149 132 147 178 189 183 
216 214 214 228 228 227 229 224 222 153 110 150 31 30 31 32 31 32 33 32 33 32 31 32 
32 31 32 32 31 32 31 29 26 27 26 26 31 30 31 35 35 37 32 31 32 31 29 26 
32 31 32 30 31 30 31 30 31 32 31 32 34 34 33 30 31 30 35 34 34 33 32 33 
28 27 29 33 32 33 35 34 34 30 31 30 32 31 32 29 29 30 26 33 27 136 171 132 
225 231 219 229 224 222 229 224 222 232 229 225 229 224 222 193 156 189 13 1 13 42 72 41 
10 13 10 10 10 10 10 10 10 11 11 11 11 11 11 11 11 11 11 11 11 11 11 11 
9 9 9 11 11 11 9 9 9 11 11 11 11 11 11 11 11 11 11 11 11 11 11 11 

10 10 10 11 11 11 10 10 10 11 11 11 11 11 11 11 11 11 10 10 10 11 11 11 
10 10 10 11 11 11 11 11 11 11 11 11 11 11 11 10 10 10 11 11 11 10 10 10 
7 7 7 2 3 1 118 150 120 193 196 199 193 192 198 193 192 198 193 196 199 204 180 205 
72 44 75 35 34 34 30 31 30 32 31 32 30 31 30 31 30 31 35 35 37 30 31 30 
32 31 32 33 32 33 29 29 30 32 31 32 31 30 31 31 30 31 33 32 33 35 34 34 
32 31 32 31 29 26 31 30 31 29 29 30 35 34 34 35 58 32 166 151 124 199 181 160 
199 181 160 179 168 151 179 168 151 179 168 151 179 168 151 179 168 151 179 168 151 179 168 151 
179 168 151 179 168 151 179 168 151 179 168 151 199 181 160 179 168 151 75 32 51 33 33 31 
31 29 26 33 32 35 32 31 32 32 31 32 33 32 33 30 31 30 33 33 31 32 31 32 
34 34 33 31 30 31 27 26 26 31 30 31 35 34 34 29 29 30 29 29 30 31 30 31 
33 32 33 34 34 33 31 30 31 32 31 32 28 27 29 29 29 30 26 33 27 31 29 26 
33 33 31 32 31 32 35 34 34 33 33 31 33 33 31 34 34 33 31 29 26 33 33 31 
33 33 31 35 34 34 30 31 30 31 29 26 31 30 31 31 29 26 33 33 31 30 31 30 
33 33 31 33 33 31 33 33 31 33 33 31 30 31 30 35 34 34 30 31 30 35 34 34 
35 34 34 35 34 34 35 34 34 30 31 30 33 33 31 33 33 31 31 29 26 34 34 33 
31 30 31 35 34 34 34 34 33 33 33 31 34 34 33 33 33 31 31 29 26 33 33 31 
31 29 26 31 29 26 33 33 31 31 29 26 35 34 34 27 26 26 33 33 31 33 33 31 
30 31 30 30 31 30 30 31 30 31 30 31 29 29 30 32 31 32 31 30 31 31 29 26 
31 30 31 33 32 33 33 33 31 32 31 32 29 29 30 34 34 33 27 26 26 31 30 31 
32 31 32 30 31 30 32 31 32 32 31 32 29 29 30 34 34 33 30 31 30 33 32 33 
34 34 33 34 34 33 34 34 33 33 32 35 33 32 33 35 58 32 200 225 194 230 227 223 
232 229 225 230 227 223 216 214 214 179 171 192 171 129 167 181 99 112 215 64 101 220 70 81 
220 70 81 220 70 81 220 70 81 181 99 112 153 110 150 137 146 161 193 196 199 221 217 216 
228 228 227 230 227 223 235 224 228 153 110 150 27 26 26 33 33 31 30 31 30 29 29 30 
34 34 33 33 32 33 27 26 26 32 31 32 31 30 31 32 31 32 29 29 30 30 31 30 
31 30 31 30 31 30 33 32 33 31 30 31 30 31 30 31 30 31 34 34 33 29 29 30 
29 29 30 30 31 30 31 30 31 33 32 33 32 31 32 31 30 31 26 33 27 136 171 132 
225 231 219 229 224 222 229 224 222 229 224 222 229 224 222 193 156 189 13 1 13 42 72 41 
10 13 10 11 11 11 11 11 11 13 13 13 11 11 11 10 10 10 13 13 13 11 11 11 
10 10 10 9 9 9 13 13 13 11 11 11 10 10 10 11 11 11 9 9 9 10 10 10 

13 13 13 11 11 11 11 11 11 9 9 9 11 11 11 11 11 11 11 11 11 10 10 10 
10 10 10 11 11 11 10 10 10 11 11 11 10 10 10 11 11 11 11 11 11 11 11 11 
9 9 9 2 3 1 118 150 120 193 196 199 193 196 199 193 192 198 193 192 198 204 180 205 
72 44 75 35 34 34 31 30 31 29 29 30 31 30 31 30 31 30 32 31 32 32 31 32 
32 31 32 34 34 33 30 31 30 30 31 30 32 31 32 31 30 31 32 31 32 33 32 33 
34 34 33 32 31 32 32 31 32 35 34 34 33 33 31 31 29 26 46 30 29 51 37 23 
51 37 23 51 37 23 75 55 39 51 37 23 51 37 23 51 37 23 51 37 23 51 37 23 
51 37 23 51 37 23 51 37 23 51 37 23 51 37 23 51 37 23 33 32 33 27 26 26 
30 31 30 34 34 33 32 31 32 35 34 34 31 30 31 30 31 30 33 33 31 30 31 30 
34 34 33 32 31 32 33 32 33 33 32 33 33 32 33 31 30 31 27 26 26 33 32 33 
33 32 33 31 30 31 30 31 30 33 32 35 29 29 30 32 31 32 30 30 34 28 33 48 
28 33 48 28 33 48 28 33 48 28 33 48 28 33 48 28 33 48 28 33 48 28 33 48 
28 33 48 28 33 48 28 33 48 30 30 34 28 33 48 28 33 48 28 33 48 30 30 34 
28 33 48 30 30 34 28 33 48 28 33 48 28 33 48 28 33 48 28 33 48 35 37 41 
28 33 48 28 33 48 28 33 48 28 33 48 28 33 48 30 30 34 28 33 48 30 30 34 
28 33 48 30 30 34 28 33 48 28 33 48 28 33 48 28 33 48 28 33 48 28 33 48 
28 33 48 28 33 48 28 33 48 28 33 48 28 33 48 28 33 48 28 33 48 28 33 48 
30 30 34 28 33 48 28 33 48 28 33 48 30 30 34 29 29 30 30 31 30 29 29 30 
33 32 35 30 31 30 34 34 33 31 30 31 35 34 34 27 26 26 34 34 33 32 31 32 
33 32 33 32 31 32 33 32 33 30 31 30 30 31 30 30 31 30 31 30 31 34 34 33 
35 34 34 31 30 31 32 31 32 30 31 30 32 31 32 35 58 32 207 221 166 233 226 216 
229 224 222 230 227 223 229 224 222 229 224 222 209 208 211 179 171 192 159 162 175 152 144 164 
149 132 147 149 132 147 137 146 161 159 162 175 193 192 198 213 211 212 223 220 219 230 227 223 
229 224 222 232 229 225 235 224 228 129 89 121 31 29 26 33 32 33 31 30 31 30 31 30 
34 34 33 31 30 31 32 31 32 33 32 33 31 30 31 27 26 26 34 34 33 33 32 33 
33 32 33 34 34 33 31 30 31 31 29 26 30 31 30 34 34 33 33 32 35 32 31 32 
33 33 31 33 32 33 32 31 32 28 27 29 32 31 32 34 34 33 26 33 27 136 171 132 
225 231 219 223 220 219 229 224 222 223 220 219 229 224 222 193 156 189 13 1 13 42 72 41 
9 9 9 11 11 11 11 11 11 9 9 9 9 9 9 13 13 13 11 11 11 11 11 11 
11 11 11 9 9 9 9 9 9 11 11 11 10 10 10 14 14 14 11 11 11 11 11 11 

10 10 10 11 11 11 11 11 11 11 11 11 10 10 10 11 11 11 11 11 11 11 11 11 
10 10 10 13 13 13 11 11 11 11 11 11 11 11 11 11 11 11 13 13 13 10 10 10 
9 9 9 2 3 1 118 150 120 193 196 199 197 195 201 193 196 199 193 196 199 204 180 205 
72 44 75 31 30 31 30 31 30 33 32 33 31 30 31 32 31 32 32 31 32 35 34 34 
32 31 32 34 34 33 31 30 31 29 29 30 30 31 30 32 31 32 30 31 30 32 31 32 
30 31 30 29 29 30 30 31 30 33 32 33 30 31 30 33 33 31 30 31 30 35 34 34 
33 32 33 33 33 31 34 34 33 33 32 33 28 27 29 31 30 31 34 34 33 33 32 33 
30 31 30 31 29 26 32 31 32 31 30 31 35 34 34 32 31 32 30 31 30 33 32 33 
33 32 33 27 26 26 32 31 32 33 32 33 33 32 33 30 31 30 31 29 26 27 26 26 
32 31 32 33 32 33 32 31 32 34 34 33 34 34 33 29 29 30 34 34 33 30 31 30 
33 32 33 35 34 34 32 31 32 30 31 30 34 34 33 34 38 34 58 83 119 99 111 124 
99 111 124 99 111 124 99 111 124 99 111 124 99 111 124 99 111 124 99 111 124 99 111 124 
99 111 124 99 111 124 99 111 124 99 111 124 99 111 124 99 111 124 99 111 124 99 111 124 
99 111 124 99 111 124 99 111 124 99 111 124 99 111 124 99 111 124 99 111 124 99 111 124 
99 111 124 99 111 124 99 111 124 99 111 124 99 111 124 99 111 124 99 111 124 99 111 124 
99 111 124 99 111 124 99 111 124 99 111 124 99 111 124 99 111 124 99 111 124 99 111 124 
99 111 124 99 111 124 99 111 124 99 111 124 99 111 124 99 111 124 99 111 124 99 111 124 
99 111 124 99 111 124 99 111 124 99 111 124 54 68 89 35 37 41 33 32 35 33 33 31 
33 32 33 32 31 32 30 31 30 30 31 30 32 31 32 31 30 31 34 34 33 32 31 32 
32 31 32 32 31 32 31 29 26 30 31 30 34 34 33 33 32 33 35 34 34 35 34 34 
31 30 31 30 31 30 32 31 32 30 31 30 37 36 36 27 26 26 132 121 101 204 175 134 
204 175 134 205 191 151 204 175 134 204 175 134 204 175 134 204 175 134 204 175 134 194 162 123 
194 162 123 179 168 151 194 162 123 204 175 134 204 175 134 205 191 151 205 191 151 205 191 151 
204 175 134 205 191 151 174 146 114 64 16 32 31 30 31 35 34 34 30 31 30 31 30 31 
33 32 33 33 32 33 32 31 32 29 29 30 34 34 33 33 33 31 33 32 33 34 34 33 
32 31 32 35 34 34 29 29 30 30 31 30 33 32 33 28 27 29 30 31 30 32 31 32 
34 34 33 30 31 30 35 34 34 32 31 32 33 32 33 27 26 26 26 33 27 136 171 132 
225 231 219 229 224 222 229 224 222 229 224 222 229 224 222 193 156 189 13 1 13 42 72 41 
10 13 10 11 11 13 11 11 11 10 10 10 9 9 9 11 11 11 11 11 11 11 11 11 
10 10 10 11 11 11 11 11 11 10 10 10 10 10 10 13 13 13 11 11 11 11 11 11 

11 11 11 10 10 10 11 11 11 11 11 11 11 11 11 10 10 10 10 10 10 11 11 11 
11 11 11 9 9 9 10 10 10 11 11 11 10 10 10 9 9 9 7 7 7 11 11 11 
10 10 10 2 3 1 118 150 120 193 196 199 193 192 198 193 192 198 197 195 201 204 180 205 
72 44 75 34 34 33 35 35 37 30 31 30 33 33 31 32 31 32 34 34 33 33 32 33 
32 31 32 32 31 32 33 32 33 33 32 33 30 31 30 33 32 33 27 26 26 33 33 31 
30 31 30 32 31 32 32 31 32 32 31 32 32 31 32 29 29 30 29 29 30 33 32 33 
33 32 33 34 34 33 33 32 33 30 31 30 32 31 32 31 30 31 30 31 30 29 29 30 
33 32 33 35 34 34 35 34 34 34 34 33 33 32 33 33 32 33 30 31 30 32 31 32 
33 32 33 33 33 31 34 34 33 27 26 26 30 31 30 32 31 32 33 33 31 33 32 33 
33 32 33 33 32 33 35 34 34 31 30 31 34 34 33 34 34 33 33 32 33 32 31 32 
30 31 30 33 33 31 29 29 30 28 27 29 30 31 30 54 81 55 126 132 133 130 128 126 
130 128 126 132 129 128 132 129 128 133 132 130 130 128 126 132 129 128 132 129 128 130 128 126 
133 132 130 132 129 128 130 128 126 133 132 130 133 132 130 133 132 130 130 128 126 130 128 126 
132 129 128 132 129 128 133 132 130 133 132 130 132 129 128 132 129 128 130 128 126 130 128 126 
133 132 130 133 132 130 130 128 126 130 128 126 130 128 126 132 129 128 130 128 126 126 132 133 
130 128 126 130 128 126 133 132 130 133 132 130 132 129 128 132 129 128 130 128 126 132 129 128 
133 132 130 130 128 126 130 128 126 132 129 128 133 132 130 130 128 126 133 132 130 133 132 130 
132 129 128 133 132 130 130 128 126 132 129 128 132 129 128 72 44 75 33 32 33 30 31 30 
27 26 26 28 27 29 30 31 30 33 32 33 35 34 34 32 31 32 34 34 33 30 31 30 
27 26 26 31 30 31 34 34 33 35 34 34 34 34 33 32 31 32 30 31 30 31 30 31 
30 31 30 33 32 33 32 31 32 31 29 26 32 31 32 31 30 31 31 30 31 25 21 24 
22 15 15 23 18 20 22 15 15 23 18 20 23 18 20 23 18 20 23 18 20 23 18 20 
23 18 20 25 21 24 23 18 20 23 18 20 23 18 20 25 21 24 23 18 20 23 18 20 
23 18 20 23 18 20 25 21 24 28 27 29 33 33 31 30 30 34 32 31 32 33 32 33 
33 32 33 31 30 31 29 29 30 33 32 35 29 29 30 31 30 31 32 31 32 34 34 33 
34 34 33 31 30 31 25 24 25 30 31 30 35 34 34 33 32 33 33 32 33 34 34 33 
32 31 32 32 31 32 30 31 30 32 31 32 29 29 30 32 31 32 26 33 27 136 171 132 
225 231 219 223 220 219 229 224 222 229 224 222 229 224 222 193 156 189 13 1 13 42 72 41 
10 13 10 10 10 10 10 10 10 10 10 10 11 11 11 13 13 13 9 9 9 11 11 11 
11 11 11 11 11 11 10 10 10 11 11 11 11 11 11 11 11 11 11 11 11 10 10 10 

11 11 11 11 11 11 9 9 9 11 11 11 10 10 10 11 11 11 10 10 10 10 10 10 
10 10 10 13 13 13 10 10 10 10 10 10 10 10 10 10 10 10 9 9 9 11 11 11 
11 11 11 2 3 1 118 150 120 193 192 198 197 195 201 193 192 198 193 192 198 204 180 205 
72 44 75 34 34 33 33 32 33 34 34 33 34 34 33 30 31 30 33 32 33 33 32 33 
34 34 33 31 30 31 29 29 30 31 30 31 33 32 33 30 31 30 32 31 32 30 31 30 
28 27 29 33 32 33 31 30 31 31 30 31 30 31 30 31 30 31 35 34 34 35 34 34 
32 31 32 33 32 33 32 31 32 29 29 30 31 30 31 33 32 33 35 34 34 34 34 33 
30 31 30 33 32 33 31 30 31 34 34 33 34 34 33 33 32 33 33 32 33 30 31 30 
35 34 34 33 32 33 33 33 31 34 34 33 33 32 33 33 32 33 30 31 30 31 30 31 
32 31 32 35 34 34 35 34 34 30 31 30 29 29 30 33 32 33 31 30 31 33 32 33 
33 32 33 32 31 32 35 34 34 32 31 32 35 30 27 64 96 64 130 128 126 132 129 128 
130 128 126 132 129 128 132 129 128 132 129 128 132 129 128 132 129 128 132 129 128 133 132 130 
132 129 128 132 129 128 130 128 126 132 129 128 130 128 126 130 128 126 133 132 130 132 129 128 
130 128 126 132 129 128 133 132 130 132 129 128 132 129 128 132 129 128 130 128 126 132 129 128 
130 128 126 132 129 128 132 129 128 132 129 128 130 128 126 132 129 128 133 132 130 132 129 128 
130 128 126 132 129 128 132 129 128 130 128 126 130 128 126 132 129 128 133 132 130 133 132 130 
132 129 128 130 128 126 130 128 126 130 128 126 132 129 128 130 128 126 132 129 128 133 132 130 
133 132 130 130 128 126 132 129 128 130 128 126 133 132 130 72 44 75 31 29 26 29 29 30 
30 30 34 33 32 35 33 32 35 29 29 30 32 31 32 35 34 34 33 32 33 32 31 32 
32 31 32 30 31 30 28 27 29 29 29 30 33 32 33 34 34 33 34 34 33 33 32 33 
32 31 32 33 32 33 30 31 30 27 26 26 33 33 31 35 35 37 32 31 32 30 31 30 
32 31 32 28 27 29 29 29 30 29 29 30 29 29 30 28 27 29 33 32 35 30 30 34 
31 30 31 30 31 30 33 32 33 30 30 34 30 30 34 31 30 31 29 29 30 27 26 26 
28 27 29 28 27 29 30 30 34 30 30 34 31 30 31 34 34 33 29 29 30 29 29 30 
32 31 32 31 30 31 31 30 31 32 31 32 34 34 33 32 31 32 31 29 26 29 29 30 
34 34 33 31 30 31 31 30 31 30 31 30 34 34 33 32 31 32 33 33 31 33 32 33 
32 31 32 35 35 37 33 32 33 30 31 30 31 30 31 30 31 30 26 33 27 136 171 132 
225 231 219 229 224 222 229 224 222 229 224 222 229 224 222 193 156 189 13 1 13 42 72 41 
9 9 9 10 10 10 10 10 10 9 9 9 13 13 13 10 10 10 10 10 10 10 10 10 
11 11 11 11 11 11 10 10 10 11 11 11 7 7 7 10 10 10 9 9 9 10 10 10 

9 9 9 10 10 10 10 10 10 11 11 11 11 11 11 11 11 11 11 11 11 11 11 11 
11 11 11 10 10 10 11 11 11 10 10 10 11 11 11 11 11 11 11 11 11 11 11 11 
7 7 7 2 3 1 118 150 120 193 192 198 193 192 198 193 192 198 197 195 201 204 180 205 
72 44 75 37 37 38 32 31 32 33 33 31 35 34 34 29 29 30 29 29 30 30 31 30 
33 32 33 33 32 33 31 30 31 29 29 30 30 31 30 32 31 32 34 34 33 34 34 33 
32 31 32 29 29 30 33 32 33 27 26 26 30 31 30 34 34 33 32 31 32 34 34 33 
34 34 33 35 34 34 32 31 32 35 34 34 35 34 34 33 32 33 33 32 33 32 31 32 
32 31 32 31 30 31 32 31 32 32 31 32 33 33 31 32 31 32 34 34 33 31 30 31 
30 31 30 34 34 33 33 32 33 31 30 31 33 32 33 32 31 32 29 29 30 32 31 32 
28 27 29 30 31 30 32 31 32 31 30 31 30 31 30 34 34 33 30 31 30 31 30 31 
30 31 30 33 33 31 32 31 32 34 34 33 27 26 26 64 96 64 130 128 126 133 132 130 
132 129 128 132 129 128 132 129 128 133 132 130 132 129 128 132 129 128 133 132 130 132 129 128 
132 129 128 132 129 128 133 132 130 132 129 128 130 128 126 132 129 128 133 132 130 132 129 128 
130 128 126 132 129 128 133 132 130 133 132 130 132 129 128 132 129 128 130 128 126 130 128 126 
132 129 128 130 128 126 132 129 128 132 129 128 130 128 126 132 129 128 130 128 126 133 132 130 
130 128 126 130 128 126 130 128 126 130 128 126 130 128 126 132 129 128 130 128 126 132 129 128 
133 132 130 132 129 128 132 129 128 132 129 128 130 128 126 132 129 128 130 128 126 130 128 126 
132 129 128 132 129 128 132 129 128 133 132 130 132 129 128 72 44 75 30 31 30 33 32 35 
31 30 31 29 29 30 33 32 33 30 30 34 29 29 30 31 29 26 31 30 31 33 32 33 
32 31 32 33 32 33 31 30 31 33 32 33 33 32 33 32 31 32 33 33 31 33 32 33 
35 34 34 29 29 30 29 29 30 29 29 30 34 34 33 33 32 33 33 32 33 29 29 30 
32 31 32 30 31 30 33 32 33 27 26 26 26 33 27 34 34 33 34 34 33 33 33 31 
30 31 30 33 33 31 34 34 33 33 32 33 32 31 32 33 33 31 31 30 31 33 32 33 
29 29 30 31 30 31 34 34 33 33 33 31 35 34 34 30 31 30 31 30 31 31 30 31 
34 34 33 30 31 30 32 31 32 32 31 32 33 32 35 33 32 33 30 31 30 30 31 30 
37 37 38 35 34 34 32 31 32 34 34 33 29 29 30 34 34 33 33 33 31 32 31 32 
30 31 30 33 32 35 29 29 30 35 34 34 33 32 33 33 33 31 26 33 27 136 171 132 
223 220 219 229 224 222 223 220 219 229 224 222 229 224 222 193 156 189 13 1 13 42 72 41 
9 9 9 11 11 11 11 11 11 10 10 10 7 7 7 9 9 9 10 10 10 9 9 9 
11 11 11 10 10 10 10 10 10 10 10 10 10 10 10 10 10 10 11 11 11 13 13 13 

11 11 11 10 10 10 7 7 7 11 11 11 9 9 9 10 10 10 9 9 9 10 10 10 
9 9 9 10 10 10 10 10 10 10 10 10 9 9 9 9 9 9 9 9 9 10 10 10 
9 9 9 2 3 1 118 150 120 193 192 198 193 192 198 193 192 198 193 192 198 204 180 205 
72 44 75 34 34 33 32 31 32 33 32 33 32 31 32 33 32 33 32 31 32 32 31 32 
29 29 30 35 34 34 35 34 34 31 30 31 32 31 32 32 31 32 31 30 31 31 30 31 
34 34 33 34 34 33 33 32 33 33 32 33 31 30 31 31 30 31 30 31 30 35 34 34 
35 34 34 35 34 34 35 34 34 32 31 32 33 32 33 35 34 34 33 32 33 35 34 34 
35 34 34 33 32 33 33 32 33 31 30 31 27 26 26 31 30 31 33 32 33 34 34 33 
31 30 31 34 34 33 33 32 33 32 31 32 33 32 33 30 31 30 32 31 32 29 29 30 
29 29 30 31 30 31 32 31 32 32 31 32 30 31 30 30 31 30 30 31 30 32 31 32 
29 29 30 31 30 31 34 34 33 31 30 31 32 31 32 64 96 64 130 128 126 130 128 126 
133 132 130 130 128 126 132 129 128 133 132 130 132 129 128 130 128 126 130 128 126 130 128 126 
130 128 126 132 129 128 132 129 128 132 129 128 132 129 128 130 128 126 130 128 126 132 129 128 
130 128 126 132 129 128 130 128 126 130 128 126 132 129 128 130 128 126 133 132 130 130 128 126 
132 129 128 130 128 126 132 129 128 133 132 130 132 129 128 133 132 130 130 128 126 130 128 126 
132 129 128 132 129 128 130 128 126 132 129 128 132 129 128 132 129 128 130 128 126 130 128 126 
132 129 128 132 129 128 130 128 126 130 128 126 130 128 126 130 128 126 132 129 128 132 129 128 
130 128 126 130 128 126 132 129 128 132 129 128 132 129 128 72 44 75 33 32 35 30 31 30 
31 29 26 32 31 32 33 32 33 35 34 34 32 31 32 30 31 30 31 30 31 33 32 35 
28 27 29 33 33 31 35 34 34 33 32 33 31 30 31 32 31 32 30 31 30 33 33 31 
34 34 33 32 31 32 32 31 32 35 34 34 31 30 31 30 31 30 35 34 34 33 32 33 
33 32 33 33 32 33 32 31 32 35 34 34 33 32 33 32 31 32 27 26 26 31 30 31 
32 31 32 33 32 33 33 32 33 32 31 32 31 30 31 34 34 33 35 34 34 30 31 30 
32 31 32 35 34 34 32 31 32 32 31 32 29 29 30 30 30 34 29 29 30 32 31 32 
33 32 33 32 31 32 31 30 31 30 31 30 35 34 34 33 32 33 30 31 30 30 31 30 
34 34 33 33 32 33 32 31 32 30 31 30 34 34 33 30 31 30 31 30 31 33 32 33 
31 29 26 31 30 31 31 30 31 30 31 30 33 32 33 32 31 32 26 33 27 136 171 132 
225 231 219 229 224 222 223 220 219 229 224 222 235 224 228 193 156 189 13 1 13 42 72 41 
10 13 10 11 11 11 11 11 11 11 11 11 11 11 11 11 11 11 10 10 10 10 10 10 
11 11 11 9 9 9 11 11 11 11 11 11 10 10 10 9 9 9 10 10 10 11 11 11 

10 10 10 11 11 11 11 11 11 9 9 9 10 10 10 11 11 11 11 11 11 9 9 9 
11 11 11 13 13 13 11 11 11 13 13 13 11 11 11 11 11 11 11 11 11 11 11 11 
7 7 7 2 3 1 118 150 120 193 196 199 193 192 198 193 192 198 193 192 198 204 180 205 
72 44 75 33 32 33 34 34 33 33 32 33 35 34 34 29 29 30 32 31 32 33 32 33 
29 29 30 28 27 29 32 31 32 33 33 31 33 32 33 35 34 34 31 30 31 29 29 30 
30 31 30 34 34 33 30 31 30 33 33 31 33 32 33 29 29 30 29 29 30 33 32 33 
34 34 33 30 31 30 29 29 30 34 34 33 35 34 34 30 31 30 30 31 30 34 38 34 
37 37 38 29 29 30 34 34 33 32 31 32 27 26 26 28 27 29 34 34 33 35 34 34 
34 34 33 34 34 33 34 34 33 32 31 32 33 32 33 35 34 34 34 34 33 32 31 32 
30 31 30 32 31 32 33 32 33 32 31 32 33 32 33 31 30 31 30 31 30 30 31 30 
30 31 30 34 34 33 32 31 32 34 34 33 33 32 33 64 96 64 133 132 130 132 129 128 
132 129 128 132 129 128 130 128 126 130 128 126 133 132 130 132 129 128 132 129 128 132 129 128 
132 129 128 132 129 128 132 129 128 133 132 130 132 129 128 130 128 126 132 129 128 132 129 128 
132 129 128 130 128 126 132 129 128 132 129 128 133 132 130 132 129 128 133 132 130 133 132 130 
130 128 126 133 132 130 130 128 126 132 129 128 132 129 128 130 128 126 132 129 128 130 128 126 
130 128 126 130 128 126 132 129 128 133 132 130 132 129 128 130 128 126 133 132 130 132 129 128 
132 129 128 132 129 128 132 129 128 132 129 128 130 128 126 133 132 130 130 128 126 130 128 126 
130 128 126 130 128 126 133 132 130 130 128 126 133 132 130 72 44 75 33 32 33 34 34 33 
33 33 31 30 31 30 34 34 33 32 31 32 30 31 30 29 29 30 33 33 31 30 31 30 
30 31 30 31 29 26 27 26 26 35 34 34 31 30 31 33 33 31 34 34 33 35 34 34 
33 33 31 30 31 30 30 31 30 30 31 30 32 31 32 35 34 34 32 31 32 33 33 31 
30 31 30 34 34 33 30 31 30 34 34 33 30 31 30 30 31 30 30 31 30 30 31 30 
32 31 32 32 31 32 35 34 34 35 34 34 33 32 33 29 29 30 30 31 30 35 34 34 
30 31 30 30 31 30 31 30 31 29 29 30 33 32 33 33 32 33 33 33 31 28 27 29 
33 33 31 31 29 26 32 31 32 29 29 30 32 31 32 27 26 26 31 30 31 37 36 36 
31 29 26 32 31 32 30 31 30 33 32 33 33 32 35 35 35 37 30 30 34 32 31 32 
32 31 32 32 31 32 32 31 32 29 29 30 30 31 30 33 33 31 26 33 27 136 171 132 
223 220 219 229 224 222 229 224 222 229 224 222 223 220 219 193 156 189 13 1 13 42 72 41 
9 9 9 7 7 7 11 11 11 10 10 10 11 11 11 9 9 9 11 11 11 9 9 9 
11 11 11 9 9 9 11 11 11 11 11 11 10 10 10 10 10 10 11 11 11 13 13 13 

11 11 11 11 11 11 11 11 11 11 11 11 11 11 11 10 10 10 11 11 11 11 11 11 
11 11 11 9 9 9 10 10 10 11 11 11 11 11 11 10 10 10 11 11 11 10 10 10 
10 10 10 2 3 1 118 150 120 193 196 199 193 192 198 197 195 201 193 192 198 204 180 205 
72 44 75 30 30 34 28 27 29 30 30 34 33 32 35 29 29 30 29 29 30 33 32 33 
29 29 30 30 30 34 31 30 31 31 30 31 35 35 37 33 32 35 33 32 35 30 30 34 
28 27 29 32 31 32 33 32 35 28 27 29 33 32 35 35 35 37 30 30 34 30 30 34 
35 35 37 30 30 34 33 32 35 30 30 34 33 32 35 35 35 37 32 31 32 31 30 31 
33 32 35 32 31 32 33 32 35 30 30 34 30 30 34 33 32 35 35 35 37 33 32 35 
30 30 34 32 31 32 32 31 32 29 29 30 33 32 35 30 30 34 33 32 35 30 30 34 
33 32 35 35 35 37 33 32 35 30 30 34 33 32 35 35 35 37 33 32 35 33 32 33 
33 32 35 30 30 34 33 32 35 33 32 35 35 35 37 64 96 64 130 128 126 132 129 128 
132 129 128 133 132 130 132 129 128 133 132 130 132 129 128 130 128 126 133 132 130 130 128 126 
133 132 130 133 132 130 133 132 130 132 129 128 132 129 128 132 129 128 133 132 130 132 129 128 
130 128 126 130 128 126 132 129 128 132 129 128 133 132 130 130 128 126 132 129 128 132 129 128 
132 129 128 133 132 130 133 132 130 132 129 128 132 129 128 132 129 128 130 128 126 132 129 128 
130 128 126 133 132 130 130 128 126 132 129 128 132 129 128 133 132 130 133 132 130 133 132 130 
126 132 133 132 129 128 130 128 126 132 129 128 132 129 128 132 129 128 133 132 130 132 129 128 
132 129 128 130 128 126 132 129 128 133 132 130 133 132 130 72 44 75 33 32 35 30 30 34 
30 30 34 30 30 34 35 35 37 30 30 34 35 37 41 30 30 34 30 30 34 30 30 34 
33 32 35 33 32 35 30 30 34 33 32 33 35 35 37 30 30 34 30 30 34 33 32 35 
33 32 35 30 30 34 30 30 34 33 32 35 33 32 35 30 30 34 30 30 34 35 35 37 
35 35 37 30 30 34 33 32 35 30 30 34 30 30 34 33 32 35 35 35 37 35 35 37 
30 30 34 33 32 35 33 32 33 37 37 38 30 30 34 33 32 35 30 30 34 33 32 35 
30 30 34 28 27 29 30 30 34 33 32 35 30 30 34 33 32 35 30 30 34 30 30 34 
30 30 34 33 32 35 33 32 35 30 30 34 29 29 30 30 30 34 33 32 35 29 29 30 
30 30 34 33 32 35 35 35 37 30 30 34 33 32 35 35 35 37 35 35 37 35 35 37 
33 32 35 35 35 37 35 37 41 30 30 34 33 32 35 35 35 37 30 30 34 136 171 132 
225 231 219 223 220 219 223 220 219 223 220 219 229 224 222 193 156 189 13 1 13 42 72 41 
10 13 10 14 14 14 10 10 10 11 11 11 10 10 10 11 11 11 11 11 11 11 11 11 
10 10 10 10 10 10 10 10 10 11 11 11 11 11 11 11 11 11 11 11 11 11 11 11 

11 11 11 10 10 10 11 11 11 7 7 7 11 11 11 10 10 10 10 10 10 11 11 11 
13 13 13 11 11 11 11 11 11 9 9 9 10 10 10 11 11 11 11 11 11 11 11 11 
10 10 10 2 3 1 118 150 120 193 196 199 197 195 201 193 192 198 193 196 199 197 195 201 
99 119 146 58 83 119 58 83 119 58 83 119 58 83 119 58 83 119 58 83 119 58 83 119 
58 83 119 58 83 119 58 83 119 58 83 119 58 83 119 58 83 119 58 83 119 58 83 119 
58 83 119 58 83 119 58 83 119 58 83 119 58 83 119 58 83 119 58 83 119 58 83 119 
58 83 119 58 83 119 58 83 119 58 83 119 58 83 119 58 83 119 58 83 119 58 83 119 
58 83 119 58 83 119 58 83 119 58 83 119 58 83 119 58 83 119 58 83 119 58 83 119 
58 83 119 58 83 119 58 83 119 58 83 119 58 83 119 58 83 119 58 83 119 58 83 119 
58 83 119 58 83 119 58 83 119 58 83 119 58 83 119 58 83 119 58 83 119 58 83 119 
58 83 119 58 83 119 58 83 119 58 83 119 58 83 119 99 111 124 137 146 161 137 146 161 
137 146 161 137 146 161 137 146 161 137 146 161 137 146 161 137 146 161 137 146 161 137 146 161 
137 146 161 137 146 161 137 146 161 137 146 161 137 146 161 137 146 161 137 146 161 137 146 161 
137 146 161 137 146 161 137 146 161 137 146 161 137 146 161 137 146 161 137 146 161 137 146 161 
137 146 161 137 146 161 137 146 161 137 146 161 137 146 161 137 146 161 137 146 161 137 146 161 
137 146 161 137 146 161 137 146 161 137 146 161 137 146 161 137 146 161 137 146 161 137 146 161 
137 146 161 137 146 161 137 146 161 137 146 161 137 146 161 137 146 161 137 146 161 137 146 161 
137 146 161 137 146 161 137 146 161 137 146 161 137 146 161 99 111 124 58 83 119 58 83 119 
58 83 119 58 83 119 58 83 119 58 83 119 58 83 119 58 83 119 58 83 119 58 83 119 
58 83 119 58 83 119 58 83 119 58 83 119 58 83 119 58 83 119 58 83 119 58 83 119 
58 83 119 58 83 119 58 83 119 58 83 119 58 83 119 58 83 119 58 83 119 58 83 119 
58 83 119 58 83 119 58 83 119 58 83 119 58 83 119 58 83 119 58 83 119 58 83 119 
58 83 119 58 83 119 58 83 119 58 83 119 58 83 119 58 83 119 58 83 119 58 83 119 
58 83 119 58 83 119 58 83 119 58 83 119 58 83 119 58 83 119 58 83 119 58 83 119 
58 83 119 58 83 119 58 83 119 58 83 119 58 83 119 58 83 119 58 83 119 58 83 119 
58 83 119 58 83 119 58 83 119 58 83 119 58 83 119 58 83 119 58 83 119 58 83 119 
58 83 119 58 83 119 58 83 119 58 83 119 58 83 119 58 83 119 58 83 119 156 188 206 
229 224 222 229 224 222 223 220 219 229 224 222 229 224 222 193 156 189 13 1 13 42 72 41 
10 13 10 11 11 11 11 11 11 10 10 10 11 11 11 10 10 10 11 11 11 9 9 9 
7 7 7 11 11 11 9 9 9 9 9 9 11 11 11 11 11 11 10 10 10 10 10 10 

11 11 11 9 9 9 10 10 10 11 11 11 9 9 9 10 10 10 10 10 10 10 10 10 
10 10 10 11 11 11 10 10 10 10 10 10 9 9 9 11 11 11 11 11 11 7 7 7 
9 9 9 2 3 1 118 150 120 193 196 199 193 192 198 193 192 198 193 192 198 193 196 199 
184 197 214 184 197 214 182 192 213 182 192 213 182 192 213 184 197 214 184 197 214 182 192 213 
182 192 213 184 197 214 182 192 213 182 192 213 184 197 214 184 197 214 184 197 214 182 192 213 
184 197 214 184 197 214 184 197 214 184 197 214 182 192 213 184 197 214 182 192 213 182 192 213 
184 197 214 184 197 214 184 197 214 184 197 214 182 192 213 182 192 213 182 192 213 182 192 213 
184 197 214 184 197 214 184 197 214 184 197 214 184 197 214 184 197 214 184 197 214 184 197 214 
182 192 213 182 192 213 184 197 214 184 197 214 182 192 213 182 192 213 184 197 214 184 197 214 
184 197 214 184 197 214 184 197 214 184 197 214 184 197 214 184 197 214 184 197 214 184 197 214 
184 197 214 184 197 214 184 197 214 184 197 214 184 197 214 184 197 214 199 198 204 199 198 204 
184 197 214 199 198 204 184 197 214 199 198 204 184 197 214 199 198 204 199 198 204 199 198 204 
184 197 214 199 198 204 199 198 204 184 197 214 199 198 204 199 198 204 199 198 204 199 198 204 
199 198 204 199 198 204 199 198 204 199 198 204 202 201 206 199 198 204 199 198 204 199 198 204 
199 198 204 192 206 221 199 198 204 202 201 206 192 206 221 202 201 206 202 201 206 199 198 204 
192 206 221 202 201 206 192 206 221 202 201 206 192 206 221 202 201 206 202 201 206 192 206 221 
202 201 206 209 208 211 202 201 206 209 208 211 205 205 207 209 208 211 205 205 207 205 205 207 
192 206 221 209 208 211 192 206 221 209 208 211 209 208 211 192 206 221 200 214 229 192 206 221 
192 206 221 192 206 221 192 206 221 192 206 221 200 214 229 200 214 229 200 214 229 192 206 221 
200 214 229 200 214 229 200 214 229 200 214 229 200 214 229 200 214 229 200 214 229 200 214 229 
200 214 229 200 214 229 200 214 229 200 214 229 200 214 229 200 214 229 200 214 229 200 214 229 
200 214 229 200 214 229 200 214 229 200 214 229 200 214 229 210 220 234 200 214 229 200 214 229 
200 214 229 200 214 229 200 214 229 200 214 229 200 214 229 210 220 234 210 220 234 210 220 234 
200 214 229 210 220 234 210 220 234 210 220 234 210 220 234 210 220 234 210 220 234 210 220 234 
210 220 234 210 220 234 210 220 234 210 220 234 210 220 234 210 220 234 210 220 234 210 220 234 
210 220 234 210 220 234 210 220 234 210 220 234 210 220 234 210 220 234 210 220 234 210 220 234 
210 220 234 210 220 234 210 220 234 210 220 234 210 220 234 210 220 234 210 220 234 225 231 219 
229 224 222 229 224 222 223 220 219 229 224 222 229 224 222 193 156 189 13 1 13 42 72 41 
10 13 10 9 9 9 9 9 9 10 10 10 11 11 11 11 11 11 11 11 11 11 11 11 
14 14 14 13 13 13 11 11 11 11 11 11 11 11 11 11 11 11 9 9 9 11 11 11 

11 11 11 11 11 11 11 11 11 10 10 10 11 11 11 9 9 9 10 10 10 10 10 10 
10 10 10 11 11 11 13 13 13 9 9 9 11 11 11 10 10 10 11 11 11 9 9 9 
7 7 7 2 3 1 118 150 120 193 196 199 197 195 201 193 192 198 193 192 198 193 192 198 
193 192 198 197 195 201 193 196 199 193 192 198 197 195 201 193 192 198 193 192 198 193 192 198 
197 195 201 197 195 201 193 192 198 193 192 198 193 192 198 197 195 201 197 195 201 193 192 198 
197 195 201 193 192 198 193 192 198 197 195 201 197 195 201 197 195 201 193 192 198 193 192 198 
193 192 198 193 192 198 193 192 198 197 195 201 193 192 198 193 192 198 193 192 198 193 192 198 
193 192 198 193 192 198 197 195 201 197 195 201 193 192 198 197 195 201 193 192 198 197 195 201 
193 192 198 197 195 201 193 192 198 197 195 201 193 192 198 197 195 201 193 192 198 197 195 201 
197 195 201 197 195 201 197 195 201 197 195 201 197 195 201 193 192 198 197 195 201 197 195 201 
199 198 204 197 195 201 197 195 201 197 195 201 197 195 201 197 195 201 197 195 201 197 195 201 
199 198 204 199 198 204 197 195 201 197 195 201 199 198 204 199 198 204 197 195 201 199 198 204 
199 198 204 199 198 204 199 198 204 199 198 204 197 195 201 197 195 201 197 195 201 199 198 204 
199 198 204 197 195 201 197 195 201 197 195 201 197 195 201 199 198 204 202 201 206 197 195 201 
199 198 204 199 198 204 199 198 204 199 198 204 202 201 206 199 198 204 202 201 206 202 201 206 
202 201 206 202 201 206 202 201 206 205 205 207 202 201 206 205 205 207 205 205 207 202 201 206 
205 205 207 205 205 207 205 205 207 205 205 207 205 205 207 202 201 206 209 208 211 205 205 207 
209 208 211 205 205 207 209 208 211 205 205 207 205 205 207 205 205 207 209 208 211 209 208 211 
205 205 207 209 208 211 205 205 207 205 205 207 209 208 211 209 208 211 209 208 211 213 211 212 
213 211 212 213 211 212 213 211 212 213 211 212 209 208 211 213 211 212 209 208 211 213 211 212 
213 211 212 213 211 212 213 211 212 213 211 212 216 214 214 216 214 214 213 211 212 216 214 214 
216 214 214 216 214 214 216 214 214 213 211 212 213 211 212 216 214 214 221 217 216 216 214 214 
221 217 216 216 214 214 213 211 212 213 211 212 221 217 216 221 217 216 221 217 216 221 217 216 
223 220 219 221 217 216 221 217 216 221 217 216 221 217 216 221 217 216 223 220 219 221 217 216 
221 217 216 221 217 216 221 217 216 221 217 216 221 217 216 221 217 216 221 217 216 221 217 216 
221 217 216 221 217 216 223 220 219 223 220 219 223 220 219 223 220 219 223 220 219 221 217 216 
229 224 222 223 220 219 223 220 219 229 224 222 223 220 219 223 220 219 229 224 222 223 220 219 
223 220 219 229 224 222 229 224 222 223 220 219 229 224 222 193 156 189 13 1 13 42 72 41 
10 13 10 11 11 11 9 9 9 11 11 11 11 11 11 10 10 10 10 10 10 11 11 11 
13 13 13 11 11 11 11 11 11 11 11 11 10 10 10 9 9 9 11 11 11 10 10 10 

11 11 11 11 11 11 11 11 11 11 11 11 11 11 11 10 10 10 11 11 11 11 11 11 
10 10 10 11 11 11 11 11 11 10 10 10 10 10 10 10 10 10 11 11 11 11 11 11 
10 10 10 2 3 1 118 150 120 193 196 199 197 195 201 197 195 201 197 195 201 193 192 198 
197 195 201 193 196 199 193 196 199 193 196 199 197 195 201 197 195 201 193 192 198 197 195 201 
193 192 198 193 192 198 197 195 201 193 192 198 193 192 198 193 192 198 197 195 201 197 195 201 
193 192 198 193 192 198 193 192 198 193 192 198 193 192 198 193 192 198 193 192 198 193 192 198 
193 192 198 193 192 198 193 192 198 193 192 198 193 192 198 193 192 198 193 192 198 197 195 201 
193 192 198 193 192 198 193 192 198 197 195 201 193 192 198 193 192 198 193 192 198 193 192 198 
193 192 198 197 195 201 193 192 198 193 192 198 193 192 198 193 192 198 197 195 201 193 192 198 
193 192 198 197 195 201 197 195 201 197 195 201 193 192 198 193 192 198 197 195 201 197 195 201 
193 192 198 193 192 198 193 192 198 197 195 201 193 192 198 197 195 201 197 195 201 197 195 201 
197 195 201 197 195 201 199 198 204 197 195 201 199 198 204 197 195 201 199 198 204 197 195 201 
199 198 204 199 198 204 199 198 204 199 198 204 199 198 204 199 198 204 197 195 201 199 198 204 
199 198 204 199 198 204 199 198 204 199 198 204 199 198 204 199 198 204 197 195 201 199 198 204 
197 195 201 202 201 206 199 198 204 199 198 204 202 201 206 202 201 206 199 198 204 199 198 204 
202 201 206 205 205 207 202 201 206 205 205 207 205 205 207 205 205 207 205 205 207 202 201 206 
205 205 207 205 205 207 205 205 207 205 205 207 205 205 207 205 205 207 205 205 207 205 205 207 
205 205 207 205 205 207 205 205 207 205 205 207 205 205 207 205 205 207 209 208 211 209 208 211 
209 208 211 205 205 207 209 208 211 209 208 211 209 208 211 209 208 211 209 208 211 213 211 212 
209 208 211 209 208 211 209 208 211 209 208 211 213 211 212 213 211 212 213 211 212 209 208 211 
213 211 212 209 208 211 213 211 212 213 211 212 213 211 212 216 214 214 216 214 214 213 211 212 
213 211 212 213 211 212 216 214 214 216 214 214 216 214 214 216 214 214 216 214 214 216 214 214 
213 211 212 216 214 214 221 217 216 216 214 214 216 214 214 216 214 214 216 214 214 216 214 214 
221 217 216 221 217 216 216 214 214 221 217 216 221 217 216 216 214 214 221 217 216 221 217 216 
221 217 216 221 217 216 221 217 216 221 217 216 221 217 216 221 217 216 221 217 216 221 217 216 
223 220 219 221 217 216 223 220 219 223 220 219 223 220 219 223 220 219 223 220 219 223 220 219 
223 220 219 223 220 219 223 220 219 223 220 219 223 220 219 233 226 216 223 220 219 223 220 219 
223 220 219 229 224 222 223 220 219 223 220 219 229 224 222 193 156 189 13 1 13 42 72 41 
10 13 10 13 10 11 10 10 10 11 11 11 11 11 11 10 10 10 11 11 11 11 11 11 
11 11 11 11 11 11 11 11 11 9 9 9 10 10 10 11 11 11 11 11 11 10 10 10 

10 10 10 11 11 11 10 10 10 9 9 9 13 13 13 10 10 10 11 11 11 13 13 13 
10 10 10 11 11 11 13 13 13 9 9 9 10 10 10 9 9 9 11 11 11 11 11 11 
11 11 13 2 3 1 118 150 120 193 196 199 193 196 199 193 192 198 197 195 201 197 195 201 
197 195 201 193 192 198 193 192 198 193 192 198 193 196 199 193 196 199 193 192 198 193 192 198 
193 192 198 193 192 198 193 192 198 193 192 198 197 195 201 193 192 198 193 192 198 197 195 201 
193 192 198 193 192 198 193 192 198 193 192 198 193 192 198 197 195 201 193 192 198 197 195 201 
193 192 198 197 195 201 193 192 198 197 195 201 197 195 201 197 195 201 193 192 198 193 192 198 
197 195 201 193 192 198 193 192 198 193 192 198 193 192 198 193 192 198 193 192 198 193 192 198 
193 192 198 193 192 198 193 192 198 197 195 201 197 195 201 193 192 198 193 192 198 193 192 198 
197 195 201 197 195 201 197 195 201 197 195 201 193 192 198 197 195 201 197 195 201 197 195 201 
197 195 201 197 195 201 197 195 201 197 195 201 193 192 198 197 195 201 197 195 201 197 195 201 
197 195 201 199 198 204 197 195 201 197 195 201 197 195 201 199 198 204 199 198 204 197 195 201 
197 195 201 197 195 201 197 195 201 199 198 204 197 195 201 197 195 201 199 198 204 199 198 204 
199 198 204 197 195 201 197 195 201 199 198 204 199 198 204 199 198 204 202 201 206 199 198 204 
199 198 204 202 201 206 199 198 204 202 201 206 202 201 206 202 201 206 202 201 206 205 205 207 
202 201 206 202 201 206 202 201 206 202 201 206 202 201 206 205 205 207 205 205 207 205 205 207 
202 201 206 205 205 207 205 205 207 202 201 206 205 205 207 205 205 207 205 205 207 205 205 207 
205 205 207 205 205 207 205 205 207 209 208 211 205 205 207 205 205 207 205 205 207 205 205 207 
209 208 211 209 208 211 209 208 211 205 205 207 209 208 211 209 208 211 209 208 211 209 208 211 
209 208 211 213 211 212 209 208 211 209 208 211 213 211 212 209 208 211 213 211 212 213 211 212 
209 208 211 213 211 212 209 208 211 213 211 212 213 211 212 213 211 212 213 211 212 216 214 214 
213 211 212 213 211 212 213 211 212 213 211 212 216 214 214 216 214 214 216 214 214 216 214 214 
221 217 216 216 214 214 216 214 214 216 214 214 216 214 214 221 217 216 221 217 216 216 214 214 
216 214 214 221 217 216 221 217 216 221 217 216 221 217 216 221 217 216 216 214 214 221 217 216 
221 217 216 223 220 219 223 220 219 223 220 219 221 217 216 221 217 216 221 217 216 223 220 219 
223 220 219 223 220 219 221 217 216 223 220 219 223 220 219 221 217 216 223 220 219 223 220 219 
223 220 219 223 220 219 221 217 216 223 220 219 223 220 219 223 220 219 223 220 219 223 220 219 
229 224 222 223 220 219 229 224 222 229 224 222 223 220 219 193 156 189 13 1 13 42 72 41 
10 13 10 11 11 11 10 10 10 10 10 10 11 11 11 10 10 10 11 11 11 11 11 11 
13 13 13 11 11 11 11 11 11 10 10 10 10 10 10 11 11 11 11 11 11 11 11 11 

11 11 11 11 11 11 10 10 10 10 10 10 11 11 11 10 10 10 11 11 11 9 9 9 
10 10 10 13 13 13 13 13 13 11 11 11 9 9 9 9 9 9 13 13 13 11 11 11 
11 11 13 2 3 1 118 150 120 193 196 199 193 192 198 193 192 198 193 192 198 193 192 198 
197 195 201 197 195 201 193 192 198 193 196 199 193 196 199 193 196 199 197 195 201 197 195 201 
197 195 201 193 192 198 197 195 201 193 192 198 197 195 201 197 195 201 193 192 198 197 195 201 
193 192 198 193 192 198 193 192 198 193 192 198 193 192 198 193 192 198 193 192 198 197 195 201 
193 192 198 193 192 198 197 195 201 197 195 201 193 192 198 193 192 198 193 192 198 193 192 198 
197 195 201 193 192 198 193 192 198 193 192 198 193 196 199 193 192 198 193 192 198 193 192 198 
193 192 198 193 192 198 197 195 201 197 195 201 197 195 201 197 195 201 197 195 201 193 192 198 
193 192 198 197 195 201 193 192 198 197 195 201 197 195 201 197 195 201 197 195 201 197 195 201 
197 195 201 193 192 198 197 195 201 193 192 198 193 192 198 197 195 201 197 195 201 197 195 201 
197 195 201 197 195 201 197 195 201 197 195 201 197 195 201 199 198 204 199 198 204 199 198 204 
199 198 204 199 198 204 199 198 204 197 195 201 197 195 201 197 195 201 197 195 201 197 195 201 
197 195 201 197 195 201 199 198 204 199 198 204 199 198 204 199 198 204 199 198 204 197 195 201 
197 195 201 197 195 201 202 201 206 202 201 206 202 201 206 199 198 204 202 201 206 202 201 206 
202 201 206 199 198 204 202 201 206 202 201 206 205 205 207 202 201 206 202 201 206 202 201 206 
205 205 207 202 201 206 205 205 207 205 205 207 205 205 207 202 201 206 205 205 207 205 205 207 
209 208 211 205 205 207 209 208 211 205 205 207 209 208 211 205 205 207 205 205 207 209 208 211 
209 208 211 205 205 207 209 208 211 205 205 207 209 208 211 209 208 211 209 208 211 205 205 207 
213 211 212 209 208 211 213 211 212 209 208 211 209 208 211 213 211 212 213 211 212 213 211 212 
209 208 211 213 211 212 213 211 212 209 208 211 213 211 212 213 211 212 213 211 212 213 211 212 
213 211 212 213 211 212 213 211 212 213 211 212 216 214 214 213 211 212 216 214 214 216 214 214 
216 214 214 216 214 214 216 214 214 216 214 214 221 217 216 221 217 216 221 217 216 216 214 214 
216 214 214 221 217 216 221 217 216 216 214 214 221 217 216 221 217 216 221 217 216 216 214 214 
221 217 216 221 217 216 221 217 216 221 217 216 221 217 216 223 220 219 223 220 219 221 217 216 
223 220 219 223 220 219 223 220 219 221 217 216 223 220 219 223 220 219 223 220 219 223 220 219 
223 220 219 223 220 219 229 224 222 223 220 219 223 220 219 223 220 219 233 226 216 223 220 219 
229 224 222 223 220 219 229 224 222 229 224 222 229 224 222 193 156 189 13 1 13 42 72 41 
10 13 10 11 11 11 13 13 13 10 10 10 9 9 9 11 11 11 11 11 11 10 10 10 
11 11 11 9 9 9 11 11 11 9 9 9 11 11 11 11 11 11 9 9 9 11 11 11 

11 11 11 13 13 13 11 11 11 10 10 10 13 13 13 11 11 11 11 11 11 7 7 7 
11 11 11 11 11 11 11 11 11 10 10 10 11 11 11 11 11 11 9 9 9 11 11 11 
9 9 9 2 3 1 100 136 98 193 196 199 193 192 198 193 192 198 193 196 199 193 196 199 
193 196 199 193 192 198 193 192 198 193 196 199 193 192 198 193 192 198 193 196 199 197 195 201 
193 192 198 193 192 198 193 196 199 193 196 199 193 192 198 193 192 198 193 192 198 193 196 199 
193 192 198 193 196 199 193 192 198 197 195 201 193 196 199 193 192 198 197 195 201 193 192 198 
197 195 201 193 192 198 193 196 199 193 196 199 193 192 198 197 195 201 197 195 201 193 192 198 
193 196 199 193 192 198 197 195 201 193 192 198 193 192 198 193 192 198 193 196 199 197 195 201 
193 192 198 193 192 198 193 192 198 193 196 199 193 192 198 193 192 198 193 192 198 193 196 199 
197 195 201 193 192 198 193 196 199 193 192 198 193 192 198 193 192 198 193 196 199 193 196 199 
193 196 199 193 196 199 197 195 201 197 195 201 197 195 201 197 195 201 197 195 201 197 195 201 
197 195 201 197 195 201 199 198 204 193 192 198 199 198 204 199 198 204 199 198 204 197 195 201 
197 195 201 197 195 201 199 198 204 197 195 201 197 195 201 199 198 204 197 195 201 199 198 204 
197 195 201 199 198 204 199 198 204 199 198 204 197 195 201 199 198 204 199 198 204 197 195 201 
199 198 204 199 198 204 202 201 206 202 201 206 202 201 206 197 195 201 202 201 206 199 198 204 
202 201 206 199 198 204 205 205 207 202 201 206 202 201 206 202 201 206 205 205 207 199 198 204 
205 205 207 202 201 206 205 205 207 205 205 207 205 205 207 205 205 207 205 205 207 205 205 207 
205 205 207 205 205 207 205 205 207 202 201 206 205 205 207 205 205 207 205 205 207 205 205 207 
205 205 207 205 205 207 205 205 207 205 205 207 209 208 211 205 205 207 209 208 211 209 208 211 
209 208 211 209 208 211 213 211 212 213 211 212 209 208 211 209 208 211 209 208 211 213 211 212 
213 211 212 213 211 212 213 211 212 213 211 212 213 211 212 213 211 212 213 211 212 216 214 214 
213 211 212 216 214 214 213 211 212 216 214 214 216 214 214 216 214 214 213 211 212 216 214 214 
216 214 214 213 211 212 216 214 214 213 211 212 216 214 214 216 214 214 216 214 214 216 214 214 
216 214 214 216 214 214 221 217 216 221 217 216 216 214 214 216 214 214 221 217 216 216 214 214 
221 217 216 221 217 216 221 217 216 221 217 216 223 220 219 221 217 216 221 217 216 221 217 216 
221 217 216 221 217 216 223 220 219 223 220 219 221 217 216 223 220 219 223 220 219 221 217 216 
223 220 219 221 217 216 223 220 219 223 220 219 221 217 216 223 220 219 223 220 219 223 220 219 
223 220 219 223 220 219 223 220 219 229 224 222 229 224 222 171 129 167 7 7 7 42 72 41 
10 13 10 11 9 10 10 10 10 11 11 11 11 11 11 10 10 10 11 11 11 9 9 9 
11 11 11 11 11 11 13 13 13 11 11 11 10 10 10 14 14 14 11 11 11 10 10 10 

11 11 11 9 9 9 11 11 11 11 11 11 14 14 14 14 14 14 11 11 11 11 11 11 
11 11 11 9 9 9 11 11 11 10 10 10 11 11 11 11 11 11 7 7 7 10 10 10 
11 11 13 13 1 13 35 58 32 196 185 148 199 189 185 193 192 198 193 192 198 193 192 198 
193 192 198 193 192 198 193 196 199 193 192 198 193 196 199 193 196 199 197 195 201 193 192 198 
193 196 199 193 192 198 193 192 198 193 192 198 197 195 201 193 196 199 193 192 198 193 192 198 
193 196 199 197 195 201 193 192 198 193 196 199 193 192 198 193 192 198 197 195 201 193 196 199 
193 196 199 193 192 198 193 192 198 193 192 198 193 192 198 193 192 198 193 192 198 193 192 198 
193 192 198 193 192 198 197 195 201 193 192 198 193 192 198 193 192 198 193 196 199 193 192 198 
193 192 198 193 192 198 193 192 198 193 196 199 193 192 198 193 192 198 193 192 198 193 192 198 
197 195 201 197 195 201 193 196 199 193 192 198 193 192 198 197 195 201 193 196 199 197 195 201 
193 196 199 193 192 198 197 195 201 197 195 201 193 192 198 197 195 201 197 195 201 197 195 201 
197 195 201 197 195 201 197 195 201 197 195 201 199 198 204 197 195 201 199 198 204 197 195 201 
197 195 201 199 198 204 197 195 201 199 198 204 197 195 201 199 198 204 197 195 201 199 198 204 
197 195 201 202 201 206 197 195 201 197 195 201 199 198 204 202 201 206 202 201 206 199 198 204 
199 198 204 199 198 204 199 198 204 202 201 206 202 201 206 202 201 206 199 198 204 202 201 206 
202 201 206 199 198 204 202 201 206 202 201 206 202 201 206 202 201 206 202 201 206 202 201 206 
205 205 207 199 198 204 205 205 207 205 205 207 205 205 207 205 205 207 205 205 207 202 201 206 
205 205 207 205 205 207 205 205 207 209 208 211 209 208 211 205 205 207 205 205 207 205 205 207 
209 208 211 209 208 211 205 205 207 205 205 207 209 208 211 209 208 211 205 205 207 209 208 211 
209 208 211 209 208 211 209 208 211 209 208 211 213 211 212 209 208 211 209 208 211 209 208 211 
213 211 212 209 208 211 213 211 212 209 208 211 213 211 212 209 208 211 213 211 212 205 205 207 
213 211 212 213 211 212 213 211 212 216 214 214 213 211 212 216 214 214 213 211 212 213 211 212 
213 211 212 216 214 214 216 214 214 216 214 214 216 214 214 216 214 214 216 214 214 216 214 214 
216 214 214 216 214 214 216 214 214 221 217 216 221 217 216 216 214 214 221 217 216 216 214 214 
221 217 216 216 214 214 221 217 216 221 217 216 221 217 216 221 217 216 221 217 216 221 217 216 
223 220 219 221 217 216 221 217 216 221 217 216 221 217 216 223 220 219 223 220 219 223 220 219 
223 220 219 223 220 219 223 220 219 223 220 219 229 224 222 223 220 219 223 220 219 229 224 222 
229 224 222 229 224 222 223 220 219 229 224 222 235 204 196 94 33 58 26 33 27 35 58 32 
10 10 10 11 11 11 13 13 13 11 11 11 11 11 11 11 11 11 11 11 11 10 10 10 
10 10 10 9 9 9 10 10 10 9 9 9 9 9 9 10 10 10 11 11 11 11 11 11 

11 11 11 11 11 11 10 10 10 11 11 11 11 11 11 11 11 11 10 10 10 11 11 11 
11 11 11 10 10 10 9 9 9 10 10 10 10 10 10 11 11 11 13 13 13 11 11 11 
9 9 9 7 8 25 13 1 13 88 67 43 166 151 124 196 185 148 196 185 148 196 185 148 
196 185 148 196 185 148 196 185 148 196 185 148 196 185 148 196 185 148 196 185 148 196 185 148 
196 185 148 196 185 148 196 185 148 196 185 148 196 185 148 196 185 148 196 185 148 196 185 148 
196 185 148 196 185 148 196 185 148 196 185 148 196 185 148 196 185 148 196 185 148 196 185 148 
196 185 148 196 185 148 196 185 148 196 185 148 196 185 148 196 185 148 196 185 148 196 185 148 
196 185 148 196 185 148 196 185 148 196 185 148 196 185 148 196 185 148 196 185 148 196 185 148 
196 185 148 196 185 148 196 185 148 196 185 148 196 185 148 196 185 148 196 185 148 196 185 148 
196 185 148 196 185 148 196 185 148 196 185 148 196 185 148 196 185 148 196 185 148 196 185 148 
196 185 148 196 185 148 196 185 148 196 185 148 196 185 148 196 185 148 196 185 148 205 191 151 
196 185 148 196 185 148 205 191 151 196 185 148 196 185 148 196 185 148 205 191 151 196 185 148 
196 185 148 205 191 151 205 191 151 205 191 151 205 191 151 196 185 148 205 191 151 196 185 148 
205 191 151 205 191 151 196 185 148 205 191 151 205 191 151 205 191 151 205 191 151 205 191 151 
205 191 151 205 191 151 205 191 151 205 191 151 205 191 151 205 191 151 205 191 151 205 191 151 
205 191 151 205 191 151 205 191 151 205 191 151 205 191 151 205 191 151 205 191 151 205 191 151 
205 191 151 205 191 151 205 191 151 205 191 151 205 191 151 205 191 151 205 191 151 205 191 151 
205 191 151 214 201 160 205 191 151 205 191 151 214 201 160 205 191 151 214 201 160 205 191 151 
205 191 151 214 201 160 214 201 160 214 201 160 214 201 160 214 201 160 214 201 160 214 201 160 
214 201 160 214 201 160 214 201 160 214 201 160 214 201 160 214 201 160 214 201 160 214 201 160 
214 201 160 214 201 160 214 201 160 214 201 160 214 201 160 214 201 160 214 201 160 214 201 160 
214 201 160 214 201 160 214 201 160 214 201 160 214 201 160 214 201 160 214 201 160 214 201 160 
214 201 160 224 207 160 224 207 160 224 207 160 224 207 160 224 207 160 224 207 160 224 207 160 
224 207 160 224 207 160 224 207 160 224 207 160 224 207 160 224 207 160 224 207 160 224 207 160 
224 207 160 224 207 160 224 207 160 224 207 160 224 207 160 224 207 160 224 207 160 224 207 160 
224 207 160 224 207 160 224 207 160 224 207 160 224 207 160 224 207 160 224 207 160 231 213 171 
224 207 160 224 207 160 224 207 160 224 207 160 231 213 171 224 207 160 224 207 160 224 207 160 
231 213 171 231 213 171 231 213 171 204 175 134 119 87 59 13 1 13 42 72 41 10 13 10 
11 11 13 9 9 9 11 11 11 11 11 11 11 11 11 11 11 11 10 10 10 10 10 10 
10 10 10 10 10 10 10 10 10 11 11 11 9 9 9 11 11 11 11 11 11 10 10 10 

9 9 9 11 11 11 10 10 10 10 10 10 7 7 7 10 10 10 11 11 11 10 10 10 
7 7 7 10 10 10 9 9 9 10 10 10 11 11 11 11 11 11 11 11 11 11 11 11 
10 10 10 11 11 13 7 9 47 5 1 38 11 9 10 38 13 15 47 21 8 47 21 8 
47 21 8 47 21 8 47 21 8 47 21 8 47 21 8 47 21 8 47 21 8 47 21 8 
47 21 8 47 21 8 47 21 8 47 21 8 47 21 8 47 21 8 47 21 8 47 21 8 
47 21 8 47 21 8 47 21 8 47 21 8 47 21 8 47 21 8 47 21 8 47 21 8 
47 21 8 47 21 8 47 21 8 47 21 8 47 21 8 47 21 8 47 21 8 47 21 8 
47 21 8 47 21 8 47 21 8 47 21 8 47 21 8 47 21 8 47 21 8 47 21 8 
47 21 8 47 21 8 47 21 8 47 21 8 47 21 8 47 21 8 47 21 8 47 21 8 
47 21 8 47 21 8 47 21 8 47 21 8 47 21 8 47 21 8 47 21 8 47 21 8 
47 21 8 47 21 8 47 21 8 47 21 8 47 21 8 47 21 8 47 21 8 47 21 8 
47 21 8 47 21 8 47 21 8 47 21 8 47 21 8 47 21 8 47 21 8 47 21 8 
47 21 8 47 21 8 47 21 8 47 21 8 47 21 8 47 21 8 47 21 8 47 21 8 
47 21 8 47 21 8 47 21 8 47 21 8 47 21 8 47 21 8 47 21 8 47 21 8 
47 21 8 47 21 8 47 21 8 47 21 8 47 21 8 47 21 8 47 21 8 47 21 8 
47 21 8 47 21 8 47 21 8 47 21 8 47 21 8 47 21 8 47 21 8 47 21 8 
47 21 8 47 21 8 47 21 8 47 21 8 47 21 8 47 21 8 47 21 8 47 21 8 
47 21 8 47 21 8 47 21 8 47 21 8 47 21 8 47 21 8 47 21 8 47 21 8 
47 21 8 47 21 8 47 21 8 47 21 8 47 21 8 47 21 8 47 21 8 47 21 8 
47 21 8 47 21 8 47 21 8 47 21 8 47 21 8 47 21 8 47 21 8 47 21 8 
47 21 8 47 21 8 47 21 8 47 21 8 47 21 8 47 21 8 47 21 8 47 21 8 
47 21 8 47 21 8 47 21 8 47 21 8 47 21 8 47 21 8 47 21 8 47 21 8 
47 21 8 47 21 8 47 21 8 47 21 8 47 21 8 47 21 8 47 21 8 47 21 8 
47 21 8 47 21 8 47 21 8 47 21 8 47 21 8 47 21 8 47 21 8 47 21 8 
47 21 8 47 21 8 47 21 8 47 21 8 47 21 8 47 21 8 47 21 8 47 21 8 
47 21 8 47 21 8 47 21 8 47 21 8 47 21 8 47 21 8 47 21 8 47 21 8 
47 21 8 47 21 8 47 21 8 47 21 8 47 21 8 47 21 8 47 21 8 47 21 8 
47 21 8 47 21 8 47 21 8 31 12 13 5 1 38 28 33 48 26 33 27 11 11 11 
11 11 13 9 9 9 11 11 11 11 11 11 10 10 10 10 10 10 11 11 11 10 10 10 
10 10 10 10 10 10 10 10 10 11 11 11 13 13 13 11 11 11 10 10 10 11 11 11 

11 11 11 14 14 14 11 11 11 13 13 13 10 10 10 11 11 11 9 9 9 11 11 11 
10 10 10 11 11 11 11 11 11 11 11 11 13 13 13 11 11 11 11 11 11 11 11 11 
11 11 13 10 13 10 14 15 19 5 1 38 7 9 47 7 9 47 7 9 47 7 9 47 
7 9 47 7 9 47 7 9 47 7 9 47 7 9 47 7 9 47 7 9 47 7 9 47 
7 9 47 7 9 47 7 9 47 7 9 47 7 9 47 7 9 47 7 9 47 7 9 47 
7 9 47 7 9 47 7 9 47 7 9 47 7 9 47 7 9 47 7 9 47 7 9 47 
7 9 47 7 9 47 7 9 47 7 9 47 7 9 47 7 9 47 7 9 47 7 9 47 
7 9 47 7 9 47 7 9 47 7 9 47 7 9 47 7 9 47 7 9 47 7 9 47 
7 9 47 7 9 47 7 9 47 7 9 47 7 9 47 7 9 47 7 9 47 7 9 47 
7 9 47 7 9 47 7 9 47 7 9 47 7 9 47 7 9 47 7 9 47 7 9 47 
7 9 47 7 9 47 7 9 47 7 9 47 7 9 47 7 9 47 7 9 47 7 9 47 
7 9 47 7 9 47 7 9 47 7 9 47 7 9 47 7 9 47 7 9 47 7 9 47 
7 9 47 7 9 47 7 9 47 7 9 47 7 9 47 7 9 47 7 9 47 7 9 47 
7 9 47 7 9 47 7 9 47 7 9 47 7 9 47 7 9 47 7 9 47 7 9 47 
7 9 47 7 9 47 7 9 47 7 9 47 7 9 47 7 9 47 7 9 47 7 9 47 
7 9 47 7 9 47 7 9 47 7 9 47 7 9 47 7 9 47 7 9 47 7 9 47 
7 9 47 7 9 47 7 9 47 7 9 47 7 9 47 7 9 47 7 9 47 7 9 47 
7 9 47 7 9 47 7 9 47 7 9 47 7 9 47 7 9 47 7 9 47 7 9 47 
7 9 47 7 9 47 7 9 47 7 9 47 7 9 47 7 9 47 7 9 47 7 9 47 
7 9 47 7 9 47 7 9 47 7 9 47 7 9 47 7 9 47 7 9 47 7 9 47 
7 9 47 7 9 47 7 9 47 7 9 47 7 9 47 7 9 47 7 9 47 7 9 47 
7 9 47 7 9 47 7 9 47 7 9 47 7 9 47 7 9 47 7 9 47 7 9 47 
7 9 47 7 9 47 7 9 47 7 9 47 7 9 47 7 9 47 7 9 47 7 9 47 
7 9 47 7 9 47 7 9 47 7 9 47 7 9 47 7 9 47 7 9 47 7 9 47 
7 9 47 7 9 47 7 9 47 7 9 47 7 9 47 7 9 47 7 9 47 7 9 47 
7 9 47 7 9 47 5 1 38 7 9 47 7 9 47 7 9 47 7 9 47 7 9 47 
7 9 47 7 9 47 7 9 47 7 9 47 7 9 47 7 9 47 7 9 47 7 9 47 
7 9 47 7 9 47 7 9 47 7 9 47 28 33 48 14 15 19 10 13 10 10 10 10 
11 11 11 11 11 11 11 11 11 11 11 11 10 10 10 9 9 9 11 11 11 10 10 10 
11 11 11 11 11 11 9 9 9 9 9 9 10 10 10 11 11 11 11 11 11 11 11 11 

11 11 11 11 11 11 11 11 11 11 11 11 10 10 10 11 11 11 9 9 9 10 10 10 
11 11 11 10 10 10 13 13 13 11 11 11 11 11 11 11 11 11 11 11 11 9 9 9 
11 11 11 11 11 11 11 11 13 11 11 13 14 15 19 7 8 25 7 8 25 7 8 25 
7 8 25 7 8 25 7 8 25 7 8 25 7 8 25 7 8 25 7 8 25 7 8 25 
7 8 25 7 8 25 7 8 25 7 8 25 7 8 25 7 8 25 7 8 25 7 8 25 
7 8 25 7 8 25 7 8 25 7 8 25 7 8 25 7 8 25 7 8 25 7 8 25 
7 8 25 7 8 25 7 8 25 7 8 25 7 8 25 7 8 25 7 8 25 7 8 25 
7 8 25 7 8 25 7 8 25 7 8 25 7 8 25 7 8 25 7 8 25 7 8 25 
7 8 25 7 8 25 7 8 25 7 8 25 7 8 25 7 8 25 7 8 25 7 8 25 
7 8 25 7 8 25 7 8 25 7 8 25 7 8 25 7 8 25 7 8 25 7 8 25 
7 8 25 7 8 25 7 8 25 7 8 25 7 8 25 7 8 25 7 8 25 7 8 25 
7 8 25 7 8 25 7 8 25 7 8 25 7 8 25 7 8 25 7 8 25 7 8 25 
7 8 25 7 8 25 7 8 25 7 8 25 7 8 25 7 8 25 7 8 25 7 8 25 
7 8 25 7 8 25 7 8 25 7 8 25 7 8 25 7 8 25 7 8 25 7 8 25 
7 8 25 7 8 25 7 8 25 7 8 25 7 8 25 7 8 25 7 8 25 7 8 25 
7 8 25 7 8 25 7 8 25 7 8 25 7 8 25 7 8 25 7 8 25 7 8 25 
7 8 25 7 8 25 7 8 25 7 8 25 7 8 25 7 8 25 7 8 25 7 8 25 
7 8 25 7 8 25 7 8 25 7 8 25 7 8 25 7 8 25 7 8 25 7 8 25 
7 8 25 7 8 25 7 8 25 7 8 25 7 8 25 7 8 25 7 8 25 7 8 25 
7 8 25 7 8 25 7 8 25 7 8 25 7 8 25 7 8 25 7 8 25 7 8 25 
7 8 25 7 8 25 7 8 25 7 8 25 7 8 25 7 8 25 7 8 25 7 8 25 
7 8 25 7 8 25 7 8 25 7 8 25 7 8 25 7 8 25 7 8 25 7 8 25 
7 8 25 7 8 25 7 8 25 7 8 25 7 8 25 7 8 25 7 8 25 7 8 25 
7 8 25 7 8 25 7 8 25 7 8 25 7 8 25 7 8 25 7 8 25 7 8 25 
7 8 25 7 8 25 7 8 25 7 8 25 7 8 25 7 8 25 7 8 25 7 8 25 
7 8 25 7 8 25 7 8 25 7 8 25 7 8 25 7 8 25 7 8 25 7 8 25 
7 8 25 7 8 25 7 8 25 7 8 25 7 8 25 7 8 25 7 8 25 14 15 19 
7 8 25 7 8 25 14 15 19 7 8 25 14 15 19 13 13 13 11 9 10 10 10 10 
7 7 7 11 11 13 10 10 10 10 10 10 11 11 11 10 10 10 10 10 10 11 11 11 
11 11 11 10 10 10 9 9 9 10 10 10 10 10 10 7 7 7 9 9 9 9 9 9 

9 9 9 11 11 11 10 10 10 11 11 11 11 11 11 11 11 11 11 11 11 11 11 11 
10 10 10 9 9 9 11 11 11 11 11 11 7 7 7 11 11 11 11 11 11 9 9 9 
11 11 11 9 9 9 11 11 13 9 9 9 9 9 9 18 14 10 18 14 10 18 14 10 
18 14 10 18 14 10 18 14 10 18 14 10 18 14 10 18 14 10 18 14 10 18 14 10 
18 14 10 18 14 10 18 14 10 18 14 10 18 14 10 18 14 10 13 13 10 18 14 10 
18 14 10 18 14 10 18 14 10 18 14 10 18 14 10 18 14 10 18 14 10 18 14 10 
18 14 10 18 14 10 18 14 10 18 14 10 18 14 10 18 14 10 18 14 10 18 14 10 
18 14 10 18 14 10 18 14 10 18 14 10 13 13 10 18 14 10 18 14 10 18 14 10 
18 14 10 18 14 10 13 13 10 18 14 10 18 14 10 18 14 10 18 14 10 18 14 10 
13 13 10 18 14 10 18 14 10 18 14 10 18 14 10 18 14 10 13 13 10 18 14 10 
13 13 10 18 14 10 18 14 10 18 14 10 18 14 10 18 14 10 18 14 10 18 14 10 
18 14 10 18 14 10 18 14 10 18 14 10 18 14 10 18 14 10 18 14 10 18 14 10 
18 14 10 18 14 10 18 14 10 18 14 10 18 14 10 18 14 10 18 14 10 18 14 10 
18 14 10 18 14 10 18 14 10 18 14 10 18 14 10 18 14 10 18 14 10 13 13 10 
18 14 10 18 14 10 18 14 10 18 14 10 22 15 15 18 14 10 18 14 10 18 14 10 
18 14 10 18 14 10 18 14 10 18 14 10 18 14 10 18 14 10 18 14 10 18 14 10 
18 14 10 18 14 10 18 14 10 18 14 10 18 14 10 18 14 10 18 14 10 18 14 10 
18 14 10 18 14 10 18 14 10 18 14 10 18 14 10 18 14 10 18 14 10 18 14 10 
18 14 10 18 14 10 18 14 10 22 15 15 18 14 10 18 14 10 18 14 10 18 14 10 
18 14 10 18 14 10 22 15 15 18 14 10 18 14 10 18 14 10 18 14 10 18 14 10 
18 14 10 18 14 10 18 14 10 18 14 10 18 14 10 18 14 10 18 14 10 18 14 10 
18 14 10 18 14 10 18 14 10 18 14 10 22 15 15 18 14 10 18 14 10 18 14 10 
18 14 10 22 15 15 18 14 10 22 15 15 18 14 10 22 15 15 18 14 10 18 14 10 
18 14 10 18 14 10 18 14 10 22 15 15 18 14 10 18 14 10 18 14 10 18 14 10 
22 15 15 18 14 10 18 14 10 18 14 10 22 15 15 18 14 10 18 14 10 22 15 15 
18 14 10 22 15 15 18 14 10 22 15 15 18 14 10 26 11 11 22 15 15 18 14 10 
26 11 11 18 14 10 18 14 10 18 14 10 22 15 15 22 15 15 18 14 10 22 15 15 
18 14 10 22 15 15 18 14 10 18 10 13 11 11 11 14 15 19 14 14 14 11 11 11 
11 11 11 11 11 11 11 11 11 11 11 11 11 11 11 11 11 11 10 10 10 11 11 11 
11 11 11 10 10 10 11 11 11 11 11 11 11 11 11 9 9 9 11 11 11 11 11 11 

11 11 11 11 11 11 11 11 11 11 11 11 11 11 11 10 10 10 11 11 11 11 11 11 
13 13 13 11 11 11 9 9 9 10 10 10 11 11 11 11 11 11 10 10 10 10 10 10 
11 11 11 11 11 13 9 9 9 21 21 18 35 30 27 33 33 31 40 38 33 40 38 33 
40 38 33 40 38 33 40 38 33 40 38 33 34 34 33 40 38 33 35 34 34 37 36 36 
37 36 36 35 34 34 40 38 33 34 34 33 40 38 33 40 38 33 37 36 36 37 36 36 
35 34 34 35 34 34 37 36 36 34 34 33 40 38 33 37 36 36 34 34 33 40 38 33 
37 36 36 40 38 33 37 36 36 37 36 36 40 38 33 35 34 34 40 38 33 37 36 36 
35 34 34 37 36 36 35 34 34 40 38 33 40 38 33 37 36 36 37 36 36 40 38 33 
35 34 34 40 38 33 34 34 33 40 38 33 37 36 36 37 36 36 40 38 33 40 38 33 
35 34 34 40 38 33 40 38 33 40 38 33 37 36 36 35 34 34 35 34 34 37 36 36 
40 38 33 37 36 36 37 36 36 37 36 36 37 36 36 37 36 36 40 38 33 37 36 36 
37 36 36 40 38 33 40 38 33 37 36 36 40 38 33 34 34 33 40 38 33 40 38 33 
40 38 33 37 36 36 40 38 33 40 38 33 40 38 33 34 34 33 40 38 33 35 34 34 
40 38 33 40 38 33 40 38 33 40 38 33 40 38 33 40 38 33 40 38 33 40 38 33 
40 38 33 40 38 33 40 38 33 40 38 33 40 38 33 40 38 33 37 36 36 35 34 34 
40 38 33 37 36 36 35 34 34 35 34 34 40 38 33 40 38 33 40 38 33 40 38 33 
40 38 33 40 38 33 40 38 33 40 38 33 40 38 33 40 38 33 40 38 33 40 38 33 
40 38 33 40 38 33 40 38 33 40 38 33 40 38 33 40 38 33 40 38 33 40 38 33 
40 38 33 40 38 33 40 38 33 40 38 33 40 38 33 40 38 33 40 38 33 40 38 33 
40 38 33 40 38 33 40 38 33 40 38 33 40 38 33 40 38 33 40 38 33 40 38 33 
40 38 33 40 38 33 40 38 33 40 38 33 40 38 33 40 38 33 40 38 33 40 38 33 
40 38 33 40 38 33 40 38 33 40 38 33 40 38 33 40 38 33 40 38 33 40 38 33 
40 38 33 40 38 33 40 38 33 40 38 33 40 38 33 40 38 33 40 38 33 40 38 33 
40 38 33 40 38 33 41 40 41 40 38 33 40 38 33 40 38 33 40 38 33 40 38 33 
40 38 33 40 38 33 40 38 33 40 38 33 40 38 33 40 38 33 40 38 33 40 38 33 
40 38 33 40 38 33 40 38 33 40 38 33 41 40 41 40 38 33 40 38 33 40 38 33 
40 38 33 41 40 41 40 38 33 41 40 41 40 38 33 40 38 33 40 38 33 40 38 33 
41 40 41 40 38 33 40 38 33 51 37 23 31 23 20 11 9 10 14 15 19 10 10 10 
9 9 9 11 11 11 9 9 9 11 11 11 10 10 10 9 9 9 11 11 11 11 11 11 
11 11 11 13 13 13 9 9 9 10 10 10 7 7 7 7 7 7 13 13 13 11 11 11 

10 10 10 11 11 11 11 11 11 11 11 11 10 10 10 11 11 11 13 13 13 11 11 11 
11 11 11 10 10 10 10 10 10 10 10 10 11 11 11 11 11 11 9 9 9 9 9 9 
13 10 11 11 11 13 13 13 10 33 33 31 37 37 38 37 37 38 35 35 37 35 35 37 
37 37 38 35 35 37 37 37 38 37 37 38 35 35 37 37 37 38 35 34 34 35 35 37 
37 37 38 37 37 38 35 35 37 35 35 37 37 37 38 37 37 38 39 38 39 37 37 38 
39 38 39 35 35 37 37 37 38 35 34 34 39 38 39 37 37 38 37 37 38 37 37 38 
37 37 38 37 37 38 37 37 38 37 37 38 35 35 37 37 37 38 35 35 37 37 37 38 
37 37 38 37 37 38 37 37 38 37 37 38 37 37 38 37 37 38 35 34 34 35 35 37 
35 35 37 37 37 38 37 37 38 39 38 39 35 35 37 35 35 37 37 37 38 39 38 39 
35 35 37 37 37 38 39 38 39 37 37 38 37 37 38 35 35 37 41 40 41 37 37 38 
35 35 37 37 37 38 35 34 34 37 37 38 37 37 38 37 37 38 37 37 38 35 35 37 
35 35 37 39 38 39 37 37 38 37 37 38 35 35 37 37 37 38 39 38 39 39 38 39 
39 38 39 37 37 38 37 37 38 37 37 38 37 37 38 39 38 39 39 38 39 37 36 36 
39 38 39 37 37 38 39 38 39 37 37 38 39 38 39 37 36 36 37 37 38 37 37 38 
37 36 36 37 36 36 37 37 38 37 37 38 39 38 39 39 38 39 37 37 38 35 34 34 
39 38 39 37 36 36 41 40 41 37 37 38 37 37 38 37 36 36 37 37 38 39 38 39 
37 37 38 37 37 38 39 38 39 39 38 39 39 38 39 37 37 38 37 37 38 37 36 36 
37 37 38 37 36 36 39 38 39 37 36 36 39 38 39 39 38 39 39 38 39 39 38 39 
39 38 39 39 38 39 39 38 39 35 34 34 39 38 39 37 37 38 37 37 38 39 38 39 
39 38 39 39 38 39 41 40 41 39 38 39 39 38 39 41 40 41 39 38 39 37 37 38 
37 37 38 41 40 41 39 38 39 41 40 41 41 40 41 37 37 38 39 38 39 39 38 39 
39 38 39 41 40 41 39 38 39 39 38 39 41 40 41 41 40 41 39 38 39 39 38 39 
41 40 41 39 38 39 41 40 41 41 40 41 39 38 39 41 40 41 39 38 39 39 38 39 
39 38 39 39 38 39 39 38 39 41 40 41 41 40 41 39 38 39 41 40 41 41 40 41 
41 40 41 41 40 41 41 40 41 41 40 41 41 40 41 41 40 41 39 38 39 41 40 41 
41 40 41 41 40 41 41 40 41 41 40 41 41 40 41 41 40 41 41 40 41 41 40 41 
41 40 41 41 40 41 41 40 41 41 40 41 41 40 41 41 40 41 41 40 41 41 40 41 
41 40 41 41 40 41 41 40 41 41 40 41 41 40 41 23 18 20 10 13 10 14 14 14 
13 10 11 9 9 9 11 11 11 11 11 11 11 11 11 11 11 11 9 9 9 11 11 11 
10 10 10 10 10 10 10 10 10 10 10 10 13 13 13 10 10 10 11 11 11 10 10 10 

13 13 13 11 11 11 13 13 13 10 10 10 10 10 10 10 10 10 9 9 9 11 11 11 
9 9 9 11 11 11 11 11 11 11 11 11 11 11 11 9 9 9 14 14 14 11 11 11 
13 10 11 9 9 9 21 21 18 37 36 36 39 38 39 39 38 39 39 38 39 35 35 37 
35 35 37 35 35 37 35 35 37 35 35 37 37 37 38 37 37 38 35 35 37 37 37 38 
39 38 39 39 38 39 37 37 38 35 35 37 37 37 38 37 37 38 35 35 37 39 38 39 
35 35 37 39 38 39 39 38 39 37 37 38 35 35 37 35 35 37 37 37 38 37 37 38 
35 35 37 35 35 37 35 35 37 35 35 37 35 37 41 35 35 37 35 35 37 35 35 37 
37 37 38 37 37 38 35 37 41 35 35 37 35 35 37 39 38 39 35 35 37 39 38 39 
39 38 39 37 37 38 39 38 39 35 35 37 35 35 37 37 37 38 35 35 37 35 35 37 
37 37 38 37 37 38 35 35 37 37 37 38 35 34 34 39 38 39 37 37 38 39 38 39 
35 35 37 37 37 38 35 35 37 37 37 38 35 35 37 37 37 38 39 38 39 35 34 34 
35 35 37 35 35 37 35 35 37 35 35 37 37 37 38 35 35 37 39 38 39 35 35 37 
35 35 37 39 38 39 39 38 39 35 35 37 37 37 38 37 37 38 39 38 39 39 38 39 
39 38 39 37 37 38 35 35 37 39 38 39 37 37 38 39 38 39 39 38 39 37 37 38 
39 38 39 39 38 39 35 34 34 37 37 38 39 38 39 39 38 39 39 38 39 37 37 38 
37 37 38 37 37 38 35 34 34 37 37 38 41 40 41 39 38 39 35 34 34 37 37 38 
37 37 38 37 37 38 37 37 38 35 34 34 37 37 38 39 38 39 37 37 38 39 38 39 
35 35 37 37 37 38 37 37 38 37 37 38 37 37 38 37 37 38 39 38 39 35 34 34 
39 38 39 37 37 38 39 38 39 35 35 37 39 38 39 37 37 38 39 38 39 41 40 41 
37 37 38 37 37 38 41 40 41 39 38 39 37 37 38 37 37 38 37 37 38 39 38 39 
39 38 39 37 37 38 39 38 39 39 38 39 41 40 41 41 40 41 39 38 39 39 38 39 
39 38 39 39 38 39 41 40 41 41 40 41 41 40 41 39 38 39 39 38 39 39 38 39 
41 40 41 41 40 41 41 40 41 41 40 41 39 38 39 41 40 41 39 38 39 41 40 41 
41 40 41 39 38 39 41 40 41 39 38 39 37 36 36 39 38 39 41 40 41 41 40 41 
37 37 38 39 38 39 39 38 39 41 40 41 39 38 39 41 40 41 41 40 41 41 40 41 
41 40 41 41 40 41 41 40 41 41 40 41 41 40 41 39 38 39 41 40 41 41 40 41 
41 40 41 41 40 41 39 38 39 41 40 41 41 40 41 41 40 41 41 40 41 41 40 41 
41 40 41 41 40 41 39 38 39 41 40 41 41 40 41 35 30 27 11 11 11 13 13 10 
11 11 11 10 10 10 9 9 9 13 13 13 11 11 11 13 13 13 11 11 11 11 11 11 
11 11 11 10 10 10 11 11 11 11 11 11 11 11 11 13 13 13 13 13 13 10 10 10 

11 11 11 11 11 11 11 11 11 11 11 11 7 7 7 9 9 9 10 10 10 11 11 11 
11 11 11 7 7 7 9 9 9 11 11 11 11 11 11 9 9 9 11 11 11 10 10 10 
11 11 11 10 10 10 26 33 27 37 36 36 35 35 37 37 37 38 39 38 39 37 37 38 
35 35 37 37 37 38 39 38 39 35 35 37 35 35 37 37 37 38 35 35 37 39 38 39 
37 37 38 35 35 37 37 37 38 35 35 37 35 35 37 35 35 37 37 37 38 35 35 37 
37 37 38 35 35 37 35 34 34 39 38 39 37 37 38 37 37 38 37 37 38 37 37 38 
39 38 39 35 35 37 35 35 37 35 35 37 37 37 38 39 38 39 35 35 37 35 35 37 
37 37 38 37 37 38 35 35 37 35 35 37 39 38 39 35 35 37 39 38 39 39 38 39 
35 35 37 35 35 37 35 35 37 35 35 37 35 35 37 39 38 39 39 38 39 39 38 39 
35 35 37 35 35 37 35 34 34 37 37 38 37 37 38 35 35 37 35 35 37 37 37 38 
35 35 37 35 35 37 35 35 37 39 38 39 35 35 37 35 35 37 35 34 34 35 35 37 
35 34 34 35 35 37 39 38 39 37 37 38 35 35 37 37 37 38 39 38 39 35 35 37 
35 35 37 35 35 37 35 35 37 37 37 38 39 38 39 37 37 38 35 35 37 35 35 37 
39 38 39 39 38 39 39 38 39 35 35 37 39 38 39 39 38 39 39 38 39 39 38 39 
39 38 39 39 38 39 39 38 39 35 34 34 39 38 39 37 37 38 39 38 39 37 37 38 
35 34 34 35 34 34 35 34 34 35 34 34 37 37 38 39 38 39 37 37 38 37 37 38 
37 37 38 41 40 41 37 37 38 37 37 38 37 37 38 37 37 38 39 38 39 37 37 38 
41 40 41 37 37 38 37 37 38 39 38 39 39 38 39 39 38 39 39 38 39 37 37 38 
37 37 38 37 37 38 35 34 34 37 37 38 37 37 38 39 38 39 41 40 41 37 37 38 
39 38 39 37 37 38 37 37 38 39 38 39 39 38 39 41 40 41 39 38 39 41 40 41 
41 40 41 37 37 38 39 38 39 41 40 41 39 38 39 41 40 41 39 38 39 37 37 38 
39 38 39 37 37 38 37 37 38 41 40 41 41 40 41 37 37 38 37 37 38 37 37 38 
39 38 39 41 40 41 39 38 39 39 38 39 39 38 39 39 38 39 39 38 39 39 38 39 
41 40 41 39 38 39 39 38 39 39 38 39 37 36 36 39 38 39 39 38 39 41 40 41 
41 40 41 39 38 39 41 40 41 41 40 41 37 36 36 41 40 41 41 40 41 41 40 41 
41 40 41 41 40 41 41 40 41 39 38 39 39 38 39 41 40 41 39 38 39 41 40 41 
39 38 39 41 40 41 39 38 39 39 38 39 41 40 41 41 40 41 41 40 41 37 36 36 
41 40 41 41 40 41 41 40 41 41 40 41 41 40 41 33 32 35 9 9 9 13 13 10 
10 10 10 11 11 11 10 10 10 10 10 10 10 10 10 11 11 11 11 11 11 11 11 11 
10 10 10 11 11 11 11 11 11 11 11 11 10 10 10 9 9 9 11 11 11 11 11 11 

13 13 13 11 11 11 13 13 13 11 11 11 11 11 11 11 11 11 10 10 10 10 10 10 
11 11 11 10 10 10 11 11 11 13 13 13 9 9 9 11 11 11 11 11 11 10 10 10 
7 7 7 10 10 10 23 23 23 37 37 38 35 35 37 37 37 38 37 37 38 39 38 39 
35 35 37 39 38 39 35 34 34 39 38 39 35 35 37 35 35 37 37 37 38 37 37 38 
35 35 37 35 35 37 39 38 39 35 35 37 35 35 37 39 38 39 35 35 37 35 35 37 
39 38 39 37 37 38 37 37 38 35 35 37 35 35 37 35 35 37 35 35 37 35 35 37 
35 35 37 37 37 38 37 37 38 35 35 37 35 35 37 35 35 37 35 35 37 35 35 37 
33 32 35 35 35 37 35 35 37 35 35 37 37 37 38 37 37 38 35 35 37 35 34 34 
35 35 37 35 35 37 37 37 38 37 37 38 35 35 37 35 35 37 35 35 37 37 37 38 
37 37 38 37 37 38 35 35 37 35 35 37 39 38 39 35 35 37 35 35 37 37 37 38 
37 37 38 35 35 37 33 32 35 35 35 37 35 35 37 35 35 37 35 35 37 35 35 37 
35 35 37 35 35 37 35 35 37 37 37 38 37 37 38 39 38 39 37 37 38 37 37 38 
39 38 39 37 37 38 37 37 38 35 35 37 37 37 38 37 37 38 39 38 39 39 38 39 
39 38 39 39 38 39 39 38 39 37 37 38 37 37 38 39 38 39 39 38 39 35 35 37 
35 35 37 35 35 37 35 34 34 37 37 38 37 37 38 35 34 34 37 37 38 37 37 38 
35 34 34 35 34 34 37 37 38 37 37 38 37 37 38 37 37 38 39 38 39 41 40 41 
37 37 38 37 37 38 37 37 38 37 37 38 41 40 41 39 38 39 37 37 38 35 34 34 
37 37 38 39 38 39 41 40 41 37 37 38 37 37 38 37 37 38 37 37 38 37 37 38 
39 38 39 39 38 39 37 37 38 37 37 38 35 34 34 37 37 38 39 38 39 37 37 38 
39 38 39 41 40 41 37 37 38 35 34 34 37 37 38 37 37 38 41 40 41 41 40 41 
37 37 38 37 37 38 37 37 38 37 37 38 37 37 38 41 40 41 41 40 41 41 40 41 
37 37 38 39 38 39 39 38 39 37 37 38 41 40 41 37 37 38 39 38 39 41 40 41 
41 40 41 39 38 39 39 38 39 39 38 39 41 40 41 41 40 41 41 40 41 37 36 36 
39 38 39 37 36 36 41 40 41 41 40 41 39 38 39 39 38 39 39 38 39 41 40 41 
41 40 41 39 38 39 39 38 39 41 40 41 41 40 41 41 40 41 41 40 41 39 38 39 
41 40 41 39 38 39 41 40 41 39 38 39 41 40 41 41 40 41 41 40 41 41 40 41 
39 38 39 39 38 39 39 38 39 39 38 39 41 40 41 41 40 41 39 38 39 39 38 39 
39 38 39 39 38 39 41 40 41 41 40 41 39 38 39 32 31 32 7 7 7 10 13 10 
9 9 9 9 9 9 11 11 11 11 11 11 9 9 9 11 11 11 11 11 11 11 11 11 
11 11 11 9 9 9 11 11 11 11 11 11 10 10 10 11 11 11 11 11 11 10 10 10 

9 9 9 13 13 13 11 11 11 11 11 11 10 10 10 9 9 9 11 11 11 11 11 11 
10 10 10 11 11 11 11 11 11 11 11 11 7 7 7 10 10 10 10 10 10 11 11 11 
11 11 11 9 9 9 23 23 23 34 34 33 35 34 34 35 34 34 35 35 37 35 35 37 
35 35 37 39 38 39 35 35 37 35 34 34 35 35 37 35 34 34 37 37 38 35 35 37 
35 35 37 35 35 37 35 35 37 35 35 37 35 35 37 35 35 37 39 38 39 35 35 37 
35 35 37 35 35 37 35 35 37 35 35 37 35 35 37 37 37 38 35 35 37 39 38 39 
37 37 38 35 35 37 35 35 37 35 35 37 35 35 37 35 35 37 35 34 34 35 35 37 
35 35 37 35 35 37 35 35 37 37 37 38 37 37 38 35 35 37 35 35 37 35 34 34 
35 35 37 37 37 38 35 35 37 37 37 38 35 35 37 37 37 38 37 37 38 35 35 37 
37 37 38 35 35 37 35 35 37 35 35 37 35 35 37 35 35 37 37 37 38 35 35 37 
35 35 37 37 37 38 35 35 37 35 35 37 35 35 37 35 34 34 35 35 37 37 37 38 
35 35 37 35 35 37 37 37 38 35 35 37 37 37 38 35 35 37 39 38 39 37 37 38 
37 37 38 37 37 38 35 35 37 35 34 34 35 35 37 35 35 37 35 35 37 35 35 37 
35 35 37 37 37 38 35 35 37 35 34 34 37 37 38 39 38 39 37 37 38 39 38 39 
35 35 37 35 35 37 37 37 38 37 37 38 37 37 38 37 37 38 37 37 38 35 34 34 
37 37 38 37 37 38 35 34 34 35 34 34 37 37 38 35 34 34 37 37 38 37 37 38 
37 37 38 39 38 39 35 34 34 37 37 38 35 34 34 37 37 38 39 38 39 37 37 38 
37 37 38 37 37 38 35 34 34 37 37 38 37 37 38 39 38 39 39 38 39 39 38 39 
37 37 38 35 34 34 37 37 38 39 38 39 39 38 39 37 37 38 37 37 38 41 40 41 
37 37 38 37 37 38 37 37 38 41 40 41 39 38 39 37 37 38 41 40 41 37 37 38 
39 38 39 39 38 39 37 37 38 37 37 38 37 37 38 35 34 34 39 38 39 37 37 38 
41 40 41 35 34 34 37 37 38 35 34 34 39 38 39 41 40 41 41 40 41 37 37 38 
39 38 39 39 38 39 41 40 41 39 38 39 39 38 39 39 38 39 41 40 41 39 38 39 
39 38 39 37 36 36 39 38 39 39 38 39 41 40 41 39 38 39 37 36 36 37 36 36 
37 36 36 41 40 41 39 38 39 41 40 41 39 38 39 41 40 41 41 40 41 39 38 39 
39 38 39 41 40 41 41 40 41 39 38 39 41 40 41 41 40 41 39 38 39 41 40 41 
41 40 41 39 38 39 41 40 41 41 40 41 41 40 41 41 40 41 41 40 41 39 38 39 
41 40 41 41 40 41 41 40 41 39 38 39 41 40 41 32 31 32 13 10 11 14 14 14 
9 9 9 11 9 10 10 10 10 10 10 10 10 10 10 10 10 10 10 10 10 11 11 11 
10 10 10 11 11 11 7 7 7 11 11 11 10 10 10 10 10 10 11 11 11 11 11 11 

10 10 10 11 11 11 10 10 10 11 11 11 10 10 10 9 9 9 11 11 11 11 11 11 
9 9 9 9 9 9 9 9 9 11 11 11 13 13 13 11 11 11 9 9 9 9 9 9 
13 13 13 10 10 10 23 23 23 37 37 38 35 34 34 35 35 37 35 35 37 35 35 37 
35 35 37 35 35 37 37 37 38 35 35 37 37 37 38 35 35 37 35 35 37 33 32 33 
37 37 38 35 35 37 35 35 37 35 35 37 35 35 37 35 35 37 39 38 39 35 35 37 
35 35 37 33 32 35 37 37 38 35 34 34 35 35 37 33 32 33 35 34 34 35 34 34 
33 32 35 35 37 41 35 35 37 35 35 37 33 32 35 35 35 37 35 35 37 35 35 37 
35 35 37 35 35 37 35 35 37 35 35 37 39 38 39 35 35 37 35 35 37 35 35 37 
33 32 35 39 38 39 35 35 37 35 35 37 35 34 34 35 35 37 35 35 37 35 34 34 
35 35 37 39 38 39 35 35 37 35 35 37 35 35 37 37 37 38 35 35 37 37 37 38 
37 37 38 35 35 37 35 35 37 39 38 39 35 35 37 35 35 37 35 35 37 37 37 38 
37 37 38 35 34 34 37 37 38 35 35 37 35 34 34 35 35 37 35 34 34 39 38 39 
35 35 37 33 32 35 35 34 34 39 38 39 37 37 38 35 35 37 35 35 37 35 35 37 
39 38 39 39 38 39 39 38 39 39 38 39 35 35 37 39 38 39 35 35 37 39 38 39 
37 37 38 35 35 37 37 37 38 37 37 38 37 36 36 35 34 34 34 38 34 39 38 39 
37 37 38 37 37 38 39 38 39 35 34 34 37 37 38 35 34 34 39 38 39 37 37 38 
37 37 38 37 36 36 35 34 34 37 37 38 37 37 38 35 34 34 37 37 38 37 36 36 
37 37 38 35 34 34 35 34 34 37 36 36 39 38 39 35 34 34 39 38 39 39 38 39 
37 37 38 41 40 41 37 37 38 37 37 38 39 38 39 37 37 38 37 37 38 37 37 38 
37 37 38 39 38 39 37 37 38 39 38 39 37 37 38 37 37 38 39 38 39 37 37 38 
37 37 38 39 38 39 41 40 41 39 38 39 37 37 38 39 38 39 37 37 38 39 38 39 
37 37 38 37 37 38 37 37 38 37 37 38 39 38 39 37 37 38 37 37 38 35 34 34 
37 36 36 39 38 39 39 38 39 39 38 39 37 37 38 39 38 39 37 37 38 39 38 39 
37 37 38 39 38 39 39 38 39 39 38 39 41 40 41 37 36 36 39 38 39 37 37 38 
41 40 41 41 40 41 39 38 39 39 38 39 39 38 39 39 38 39 39 38 39 39 38 39 
39 38 39 39 38 39 39 38 39 41 40 41 39 38 39 39 38 39 41 40 41 41 40 41 
39 38 39 39 38 39 39 38 39 39 38 39 39 38 39 39 38 39 41 40 41 41 40 41 
39 38 39 41 40 41 39 38 39 41 40 41 41 40 41 31 30 31 11 9 10 14 14 14 
10 13 10 13 10 11 11 11 11 11 11 11 11 11 11 14 14 14 11 11 11 13 13 13 
11 11 11 10 10 10 10 10 10 11 11 11 11 11 11 11 11 11 10 10 10 10 10 10 

10 10 10 11 11 11 7 7 7 11 11 11 11 11 11 11 11 11 11 11 11 11 11 11 
11 11 11 13 13 13 11 11 11 10 10 10 11 11 11 10 10 10 10 10 10 11 11 11 
10 10 10 10 10 10 25 24 25 35 37 41 35 35 37 37 36 36 33 32 35 37 37 38 
33 32 35 35 35 37 35 35 37 35 35 37 35 35 37 35 35 37 35 35 37 33 32 35 
35 37 41 35 35 37 35 35 37 35 35 37 35 35 37 35 35 37 33 32 35 35 35 37 
35 37 41 35 35 37 35 35 37 35 35 37 35 35 37 33 32 35 35 37 41 35 35 37 
35 35 37 35 35 37 35 35 37 35 35 37 35 35 37 35 35 37 35 35 37 35 35 37 
33 32 35 35 37 41 35 35 37 35 35 37 35 35 37 35 35 37 35 35 37 35 35 37 
33 32 35 35 35 37 35 37 41 35 35 37 35 37 41 35 35 37 35 35 37 35 37 41 
35 35 37 35 35 37 33 32 35 33 32 35 35 35 37 33 32 35 35 35 37 33 32 35 
35 37 41 35 35 37 35 35 37 35 35 37 33 32 35 35 35 37 35 37 41 35 35 37 
35 37 41 35 35 37 35 37 41 35 35 37 35 35 37 35 37 41 33 32 35 33 32 35 
35 34 34 39 38 39 35 35 37 35 35 37 35 35 37 39 38 39 35 35 37 35 35 37 
35 35 37 35 35 37 35 34 34 35 35 37 33 32 35 35 35 37 35 35 37 35 35 37 
35 35 37 35 35 37 35 35 37 35 35 37 37 37 38 35 35 37 35 35 37 33 32 35 
35 37 41 35 35 37 35 35 37 37 37 38 35 35 37 35 35 37 35 37 41 35 35 37 
37 37 38 39 38 39 35 35 37 39 38 39 39 38 39 35 35 37 37 37 38 35 37 41 
35 35 37 37 37 38 39 38 39 39 38 39 35 35 37 35 35 37 35 35 37 35 35 37 
35 37 41 35 37 41 35 37 41 35 37 41 35 35 37 35 37 41 35 37 41 35 37 41 
35 37 41 35 37 41 35 37 41 35 37 41 35 37 41 35 37 41 35 37 41 35 37 41 
35 37 41 35 37 41 35 37 41 35 37 41 35 37 41 35 37 41 35 37 41 35 37 41 
35 37 41 35 37 41 35 37 41 41 40 41 35 37 41 35 37 41 35 37 41 35 37 41 
35 37 41 35 37 41 35 37 41 35 37 41 35 37 41 35 37 41 35 37 41 35 37 41 
35 37 41 41 40 41 35 37 41 35 37 41 35 37 41 35 37 41 35 37 41 35 37 41 
35 37 41 35 37 41 35 37 41 35 37 41 35 37 41 35 37 41 35 37 41 35 37 41 
35 37 41 35 37 41 41 40 41 35 37 41 35 37 41 35 37 41 41 40 41 35 37 41 
35 37 41 35 37 41 35 37 41 35 37 41 35 37 41 35 37 41 35 37 41 39 38 39 
39 38 39 39 38 39 41 40 41 41 40 41 41 40 41 32 31 32 9 9 9 10 13 10 
9 9 9 11 11 11 9 9 9 11 11 11 9 9 9 10 10 10 11 11 11 10 10 10 
11 11 11 14 14 14 13 13 13 11 11 11 10 10 10 11 11 11 13 13 13 11 11 11 

10 10 10 11 11 11 10 10 10 10 10 10 11 11 11 11 11 11 10 10 10 11 11 11 
11 11 11 11 11 11 10 10 10 11 11 11 13 13 13 13 13 13 9 9 9 11 11 11 
11 11 11 11 9 10 23 23 23 35 34 34 37 37 38 37 36 36 35 35 37 39 38 39 
22 21 22 14 15 19 14 15 19 14 15 19 14 15 19 14 15 19 14 15 19 20 20 21 
14 15 19 14 15 19 14 15 19 14 15 19 14 15 19 14 15 19 14 15 19 14 15 19 
14 15 19 14 15 19 14 15 19 14 15 19 14 15 19 18 18 19 14 15 19 14 15 19 
14 15 19 14 15 19 14 15 19 18 18 19 14 15 19 14 15 19 14 15 19 14 15 19 
14 15 19 14 15 19 14 15 19 14 15 19 18 18 19 14 15 19 20 20 21 14 15 19 
14 15 19 14 15 19 14 15 19 14 15 19 14 15 19 14 15 19 14 15 19 14 15 19 
20 20 21 18 18 19 14 15 19 14 15 19 14 15 19 14 15 19 18 18 19 14 15 19 
14 15 19 14 15 19 14 15 19 14 15 19 14 15 19 18 18 19 28 27 29 28 27 29 
28 27 29 28 27 29 28 27 29 28 27 29 28 27 29 28 27 29 25 24 25 28 27 29 
28 27 29 28 27 29 28 27 29 28 27 29 28 27 29 28 27 29 28 27 29 28 27 29 
28 27 29 29 29 30 28 27 29 28 27 29 28 27 29 28 27 29 29 29 30 30 30 34 
28 27 29 29 29 30 28 27 29 28 27 29 28 27 29 28 27 29 30 30 34 28 27 29 
29 29 30 28 27 29 28 27 29 28 27 29 28 27 29 28 27 29 28 27 29 28 27 29 
29 29 30 28 27 29 29 29 30 28 27 29 28 27 29 28 27 29 29 29 30 29 29 30 
29 29 30 28 27 29 28 27 29 28 27 29 30 30 34 18 18 19 18 18 19 14 15 19 
18 18 19 14 15 19 14 15 19 14 15 19 14 15 19 14 15 19 14 15 19 14 15 19 
14 15 19 14 15 19 14 15 19 14 15 19 14 15 19 14 15 19 20 20 21 14 15 19 
14 15 19 14 15 19 18 18 19 14 15 19 18 18 19 20 20 21 14 15 19 14 15 19 
14 15 19 18 18 19 18 18 19 14 15 19 14 15 19 18 18 19 14 15 19 18 18 19 
14 15 19 18 18 19 14 15 19 14 15 19 14 15 19 14 15 19 18 18 19 18 18 19 
14 15 19 14 15 19 14 15 19 14 15 19 14 15 19 14 15 19 14 15 19 14 15 19 
14 15 19 14 15 19 14 15 19 14 15 19 14 15 19 20 20 21 14 15 19 14 15 19 
14 15 19 14 15 19 14 15 19 14 15 19 14 15 19 14 15 19 14 15 19 18 18 19 
14 15 19 14 15 19 18 18 19 14 15 19 14 15 19 14 15 19 14 15 19 34 34 33 
39 38 39 37 36 36 41 40 41 41 40 41 39 38 39 32 31 32 9 9 9 10 13 10 
10 13 10 11 11 11 9 9 9 11 11 11 10 10 10 10 10 10 11 11 11 11 11 11 
11 11 11 7 7 7 11 11 11 10 10 10 13 13 13 10 10 10 11 11 11 11 11 11 

11 11 11 10 10 10 11 11 11 11 11 11 11 11 11 10 10 10 10 10 10 11 11 11 
9 9 9 11 11 11 11 11 11 9 9 9 11 11 11 9 9 9 7 7 7 10 10 10 
10 10 10 9 9 9 25 24 25 35 35 37 37 37 38 35 34 34 37 37 38 35 35 37 
18 18 19 14 14 14 14 14 14 14 14 14 14 14 14 13 13 13 11 11 13 13 13 13 
15 15 15 15 15 15 14 14 14 15 15 15 13 13 13 15 15 15 13 13 13 14 14 14 
14 14 14 14 14 14 15 15 15 14 14 14 13 13 13 15 15 15 15 15 15 14 14 14 
14 14 14 11 11 13 13 13 13 13 13 13 11 11 13 13 13 13 14 14 14 11 11 13 
15 15 15 11 11 13 15 15 15 14 14 14 14 14 14 11 11 13 15 15 15 15 15 15 
15 15 15 13 13 13 13 13 13 14 14 14 15 15 15 15 15 15 14 15 19 11 11 13 
11 11 13 11 11 13 11 11 13 14 14 14 11 11 13 14 14 14 15 15 15 13 13 13 
14 14 14 14 14 14 15 15 15 15 15 15 15 15 15 18 18 19 27 26 26 27 26 26 
27 26 26 27 26 26 27 26 26 27 26 26 27 26 26 27 26 26 27 26 26 27 26 26 
27 26 26 27 26 26 27 26 26 27 26 26 27 26 26 27 26 26 27 26 26 27 26 26 
28 27 29 27 26 26 27 26 26 25 24 25 27 26 26 27 26 26 27 26 26 27 26 26 
27 26 26 27 26 26 27 26 26 25 24 25 25 24 25 27 26 26 25 24 25 27 26 26 
27 26 26 27 26 26 27 26 26 27 26 26 25 24 25 27 26 26 27 26 26 27 26 26 
27 26 26 27 26 26 27 26 26 27 26 26 27 26 26 27 26 26 27 26 26 31 29 26 
23 23 23 27 26 26 27 26 26 27 26 26 27 26 26 18 18 19 14 14 14 11 11 11 
11 11 11 13 13 13 14 14 14 14 14 14 11 11 13 14 14 14 14 14 14 15 15 15 
14 14 14 11 11 13 14 14 14 13 13 13 13 13 13 11 11 11 11 11 13 13 13 13 
15 15 15 11 11 11 14 14 14 13 13 13 14 14 14 14 14 14 14 14 14 11 11 11 
14 14 14 14 14 14 14 14 14 15 15 15 15 15 15 14 14 14 13 13 13 13 13 13 
14 14 14 15 15 15 15 15 15 14 14 14 14 14 14 14 14 14 14 14 14 14 14 14 
15 15 15 15 15 15 13 13 13 14 14 14 11 11 13 14 14 14 11 11 13 15 15 15 
13 13 13 13 13 13 14 14 14 13 13 13 14 14 14 10 13 10 14 14 14 14 14 14 
15 15 15 11 11 13 15 15 15 13 13 13 15 15 15 15 15 15 11 11 13 14 14 14 
14 14 14 11 11 11 10 13 10 14 14 14 15 15 15 15 15 15 13 13 13 26 33 27 
37 36 36 39 38 39 41 40 41 39 38 39 39 38 39 32 31 32 7 7 7 10 13 10 
9 9 9 11 11 11 9 9 9 11 11 11 9 9 9 11 11 11 11 11 11 10 10 10 
10 10 10 11 11 11 11 11 11 10 10 10 11 11 11 11 11 11 11 11 11 11 11 11 

7 7 7 10 10 10 10 10 10 10 10 10 11 11 11 11 11 11 13 13 13 11 11 11 
11 11 11 11 11 11 13 13 13 11 11 11 10 10 10 10 10 10 11 11 11 13 13 13 
14 14 14 11 11 11 23 23 23 35 35 37 35 35 37 35 34 34 37 37 38 35 34 34 
15 15 15 13 13 10 13 13 10 13 13 10 13 13 10 11 11 11 10 13 10 14 14 14 
15 15 15 13 13 13 13 13 10 13 13 10 13 13 10 13 13 10 15 15 15 17 18 16 
13 13 10 13 13 10 13 13 10 14 14 14 14 14 14 14 14 14 13 13 13 15 15 15 
11 11 11 11 11 11 11 11 11 10 13 10 14 14 14 14 14 14 10 13 10 14 14 14 
15 15 15 17 18 16 11 11 11 10 13 10 13 13 13 14 14 14 15 15 15 14 14 14 
11 11 11 15 15 15 15 15 15 11 11 11 15 15 15 15 15 15 17 18 16 14 14 14 
13 13 13 14 14 14 15 15 15 13 13 13 14 14 14 15 15 15 14 14 14 15 15 15 
13 13 13 14 14 14 15 15 15 13 13 13 13 13 10 17 18 16 27 26 26 27 26 26 
28 27 29 28 27 29 25 24 25 25 24 25 27 26 26 27 26 26 28 27 29 27 26 26 
25 24 25 27 26 26 27 26 26 27 26 26 25 24 25 25 24 25 27 26 26 27 26 26 
27 26 26 27 26 26 27 26 26 27 26 26 27 26 26 27 26 26 27 26 26 25 24 25 
27 26 26 25 24 25 27 26 26 29 29 30 25 24 25 28 27 29 27 26 26 27 26 26 
27 26 26 25 24 25 28 27 29 27 26 26 27 26 26 29 29 30 25 24 25 27 26 26 
27 26 26 27 26 26 25 24 25 27 26 26 27 26 26 27 26 26 27 26 26 27 26 26 
27 26 26 27 26 26 28 27 29 28 27 29 27 26 26 22 15 15 14 14 14 10 13 10 
15 15 15 13 10 11 13 13 13 15 15 15 13 13 13 13 10 11 14 14 14 14 14 14 
14 14 14 14 14 14 13 13 13 15 15 15 15 15 15 14 14 14 14 14 14 14 14 14 
15 15 15 14 14 14 13 13 13 13 13 13 14 14 14 13 13 13 14 14 14 15 15 15 
15 15 15 15 15 15 15 15 15 14 14 14 15 15 15 13 10 11 15 15 15 15 15 15 
14 14 14 14 14 14 13 13 13 14 14 14 15 15 15 14 14 14 15 15 15 14 14 14 
15 15 15 15 15 15 15 15 15 13 13 13 14 14 14 14 14 14 15 15 15 14 14 14 
13 13 13 13 10 11 15 15 15 15 15 15 15 15 15 15 15 15 11 11 13 14 14 14 
14 14 14 13 13 13 14 14 14 15 15 15 15 15 15 13 10 11 15 15 15 13 13 13 
13 13 13 14 14 14 13 13 10 13 13 13 13 13 10 13 10 11 10 13 10 26 33 27 
39 38 39 41 40 41 39 38 39 41 40 41 39 38 39 32 31 32 7 7 7 14 14 14 
10 10 10 11 9 10 11 11 11 10 10 10 11 11 11 10 10 10 11 11 11 9 9 9 
11 11 11 10 10 10 11 11 11 9 9 9 13 13 13 11 11 11 11 11 11 10 10 10 

11 11 11 7 7 7 9 9 9 11 11 11 11 11 11 11 11 11 9 9 9 11 11 11 
11 11 11 9 9 9 9 9 9 9 9 9 11 11 11 11 11 11 10 10 10 9 9 9 
11 11 11 9 9 9 23 23 23 35 34 34 35 35 37 35 34 34 35 34 34 35 35 37 
14 15 19 15 15 15 14 14 14 15 15 15 14 14 14 14 14 14 13 13 13 15 15 15 
14 14 14 13 13 13 14 14 14 14 14 14 13 13 13 13 13 13 14 14 14 13 13 13 
15 15 15 13 13 13 11 11 11 13 13 13 14 14 14 14 14 14 11 11 11 15 15 15 
11 11 11 13 13 13 14 14 14 14 14 14 15 15 15 15 15 15 15 15 15 15 15 15 
13 13 13 14 14 14 13 13 13 11 11 11 14 14 14 15 15 15 14 14 14 15 15 15 
11 11 11 15 15 15 15 15 15 14 14 14 14 14 14 13 13 13 15 15 15 13 13 13 
14 14 14 13 13 13 14 14 14 14 14 14 14 14 14 15 15 15 14 14 14 13 13 13 
11 11 11 13 13 13 15 15 15 15 15 15 13 13 13 21 21 18 27 26 26 27 26 26 
27 26 26 27 26 26 27 26 26 27 26 26 27 26 26 27 26 26 27 26 26 25 24 25 
27 26 26 27 26 26 29 29 30 27 26 26 25 24 25 25 24 25 27 26 26 27 26 26 
27 26 26 27 26 26 25 24 25 27 26 26 28 27 29 25 24 25 27 26 26 27 26 26 
27 26 26 27 26 26 27 26 26 25 24 25 27 26 26 27 26 26 29 29 30 22 21 22 
27 26 26 27 26 26 27 26 26 27 26 26 27 26 26 27 26 26 27 26 26 27 26 26 
29 29 30 27 26 26 27 26 26 27 26 26 27 26 26 27 26 26 25 24 25 27 26 26 
27 26 26 27 26 26 25 24 25 27 26 26 25 24 25 15 15 15 14 14 14 14 14 14 
13 13 13 11 11 11 14 14 14 13 13 13 15 15 15 14 14 14 13 13 13 13 13 13 
11 11 11 15 15 15 14 14 14 13 13 13 13 13 13 13 13 13 15 15 15 15 15 15 
13 13 13 13 13 13 14 14 14 11 11 11 14 14 14 14 14 14 15 15 15 15 15 15 
15 15 15 11 11 13 14 14 14 14 14 14 14 14 14 11 11 11 13 13 13 14 14 14 
15 15 15 14 14 14 15 15 15 15 15 15 14 14 14 13 13 13 11 11 13 11 11 13 
14 14 14 15 15 15 14 14 14 13 10 11 14 14 14 15 15 15 14 14 14 14 14 14 
13 13 13 14 14 14 11 11 11 14 14 14 15 15 15 15 15 15 11 11 11 14 14 14 
15 15 15 11 11 11 15 15 15 13 13 13 15 15 15 14 14 14 13 13 13 15 15 15 
14 14 14 11 11 11 14 14 14 11 11 11 14 14 14 13 13 13 15 15 15 26 33 27 
39 38 39 37 36 36 39 38 39 39 38 39 39 38 39 31 30 31 11 11 11 10 13 10 
9 9 9 11 9 10 11 11 11 10 10 10 11 11 11 11 11 11 11 11 11 10 10 10 
11 11 11 9 9 9 9 9 9 13 13 13 11 11 11 11 11 11 11 11 11 7 7 7 

7 7 7 10 10 10 11 11 11 9 9 9 10 10 10 13 13 13 10 10 10 9 9 9 
11 11 11 11 11 11 11 11 11 13 13 13 11 11 11 14 14 14 10 10 10 11 11 11 
11 11 11 11 11 11 27 26 26 34 34 33 37 37 38 35 35 37 33 32 35 35 35 37 
18 18 19 15 15 15 13 13 13 14 14 14 15 15 15 13 13 13 15 15 15 13 13 13 
14 14 14 15 15 15 14 14 14 13 13 13 11 11 11 11 11 11 15 15 15 11 11 11 
15 15 15 14 14 14 13 13 13 13 13 13 11 11 11 14 14 14 13 13 13 15 15 15 
17 18 16 15 15 15 11 11 11 15 15 15 14 14 14 13 13 13 15 15 15 11 11 11 
14 14 14 14 14 14 11 11 11 14 14 14 13 13 13 15 15 15 13 13 13 13 13 13 
14 14 14 15 15 15 13 13 13 15 15 15 15 15 15 15 15 15 14 14 14 14 14 14 
13 13 13 11 11 11 13 13 13 14 14 14 14 14 14 13 13 13 14 14 14 14 14 14 
13 13 13 14 14 14 14 14 14 14 14 14 13 13 13 20 20 21 27 26 26 27 26 26 
27 26 26 25 24 25 25 24 25 25 24 25 27 26 26 27 26 26 27 26 26 25 24 25 
25 24 25 25 24 25 27 26 26 25 24 25 27 26 26 27 26 26 27 26 26 27 26 26 
27 26 26 27 26 26 27 26 26 27 26 26 25 24 25 25 24 25 27 26 26 27 26 26 
25 24 25 27 26 26 25 24 25 25 24 25 27 26 26 27 26 26 27 26 26 27 26 26 
27 26 26 29 29 30 27 26 26 25 24 25 27 26 26 27 26 26 27 26 26 27 26 26 
27 26 26 27 26 26 27 26 26 27 26 26 27 26 26 27 26 26 29 29 30 27 26 26 
27 26 26 27 26 26 28 27 29 25 24 25 25 24 25 15 15 15 13 13 13 15 15 15 
14 14 14 11 11 11 13 13 13 13 13 13 11 11 11 14 14 14 13 13 13 13 13 13 
15 15 15 15 15 15 15 15 15 14 14 14 13 13 13 15 15 15 14 14 14 14 14 14 
14 14 14 13 13 13 14 14 14 11 11 11 14 14 14 14 14 14 14 14 14 15 15 15 
14 14 14 13 13 13 10 10 10 13 13 13 13 13 13 14 14 14 14 14 14 14 14 14 
14 14 14 15 15 15 14 14 14 11 11 13 15 15 15 15 15 15 11 11 11 11 11 11 
14 14 14 14 14 14 14 14 14 14 14 14 14 14 14 15 15 15 14 14 14 13 13 13 
14 14 14 14 14 14 13 13 13 15 15 15 14 14 14 15 15 15 11 11 11 15 15 15 
14 14 14 13 13 13 13 13 13 13 13 13 15 15 15 13 13 13 13 13 13 15 15 15 
13 13 13 13 13 13 11 11 11 11 11 11 14 14 14 15 15 15 17 18 16 27 26 26 
37 36 36 35 34 34 39 38 39 39 38 39 37 36 36 32 31 32 7 7 7 10 13 10 
9 9 9 11 11 11 11 11 11 11 11 11 10 10 10 11 11 11 13 13 13 10 10 10 
10 10 10 10 10 10 10 10 10 11 11 11 10 10 10 11 11 11 10 10 10 11 11 11 

11 11 11 7 7 7 11 11 11 11 11 11 11 11 11 10 10 10 10 10 10 11 11 11 
10 10 10 11 11 11 11 11 11 10 10 10 14 14 14 11 11 11 10 10 10 11 11 11 
11 11 11 7 7 7 23 23 23 35 34 34 35 35 37 35 35 37 35 34 34 33 32 35 
15 15 15 15 15 15 15 15 15 14 14 14 13 13 13 13 13 13 11 11 11 14 14 14 
13 13 13 15 15 15 13 13 13 14 14 14 13 13 13 13 13 13 13 13 13 14 14 14 
11 11 11 13 13 13 14 14 14 14 14 14 14 14 14 13 13 13 14 14 14 15 15 15 
15 15 15 14 14 14 14 14 14 14 14 14 11 11 11 15 15 15 14 14 14 11 11 11 
14 14 14 14 14 14 14 14 14 11 11 11 11 11 11 11 11 11 11 11 11 15 15 15 
15 15 15 14 14 14 14 14 14 14 14 14 11 11 11 15 15 15 14 14 14 14 14 14 
15 15 15 11 11 11 15 15 15 15 15 15 14 14 14 13 13 13 13 13 13 15 15 15 
15 15 15 13 13 13 14 14 14 15 15 15 14 14 14 18 18 19 28 27 29 25 24 25 
27 26 26 27 26 26 23 23 23 25 24 25 27 26 26 27 26 26 25 24 25 27 26 26 
25 24 25 27 26 26 25 24 25 27 26 26 27 26 26 27 26 26 27 26 26 27 26 26 
27 26 26 27 26 26 27 26 26 25 24 25 27 26 26 25 24 25 25 24 25 27 26 26 
27 26 26 27 26 26 25 24 25 25 24 25 27 26 26 27 26 26 25 24 25 27 26 26 
25 24 25 27 26 26 25 24 25 25 24 25 27 26 26 27 26 26 27 26 26 25 24 25 
27 26 26 27 26 26 25 24 25 27 26 26 27 26 26 27 26 26 27 26 26 27 26 26 
27 26 26 29 29 30 27 26 26 27 26 26 27 26 26 18 18 19 14 14 14 14 14 14 
11 11 11 13 13 13 14 14 14 13 13 13 14 14 14 17 18 16 13 13 13 13 13 13 
11 11 11 11 11 11 14 14 14 14 14 14 15 15 15 14 14 14 17 18 16 13 13 13 
11 11 11 11 11 11 13 13 13 14 14 14 11 11 13 11 11 13 11 11 13 14 14 14 
13 13 13 11 11 11 15 15 15 13 13 13 14 14 14 13 13 10 15 15 15 13 13 10 
13 13 10 13 10 11 14 14 14 15 15 15 13 13 13 13 13 10 14 14 14 13 10 11 
13 10 11 15 15 15 11 11 13 14 14 14 11 11 13 15 15 15 15 15 15 15 15 15 
15 15 15 13 13 13 15 15 15 14 14 14 15 15 15 11 11 11 11 11 11 13 13 13 
13 13 13 13 13 13 13 13 13 15 15 15 14 14 14 11 11 11 11 11 11 14 14 14 
15 15 15 15 15 15 14 14 14 15 15 15 14 14 14 13 13 13 14 14 14 26 33 27 
37 37 38 39 38 39 39 38 39 39 38 39 39 38 39 32 31 32 11 11 11 15 15 15 
10 10 10 11 11 11 13 13 13 9 9 9 11 11 11 13 13 13 10 10 10 11 11 11 
9 9 9 10 10 10 10 10 10 9 9 9 10 10 10 10 10 10 9 9 9 9 9 9 

9 9 9 10 10 10 10 10 10 10 10 10 11 11 11 11 11 11 11 11 11 11 11 11 
10 10 10 10 10 10 11 11 11 11 11 11 9 9 9 11 11 11 11 11 11 11 11 11 
11 11 11 11 11 11 23 23 23 35 34 34 35 35 37 35 35 37 33 32 33 33 32 35 
18 18 19 10 10 10 14 14 14 13 13 13 14 14 14 14 14 14 14 14 14 14 14 14 
14 14 14 13 13 13 14 14 14 14 14 14 15 15 15 17 18 16 15 15 15 14 14 14 
14 14 14 14 14 14 14 14 14 15 15 15 15 15 15 15 15 15 13 13 13 11 11 11 
13 13 13 14 14 14 11 11 11 14 14 14 13 13 13 13 13 13 11 11 11 14 14 14 
17 18 16 13 13 13 13 13 13 11 11 11 14 14 14 15 15 15 15 15 15 14 14 14 
14 14 14 14 14 14 13 13 13 11 11 11 11 11 11 13 13 13 15 15 15 11 11 11 
14 14 14 11 11 11 11 11 11 13 13 13 15 15 15 15 15 15 15 15 15 13 13 13 
13 13 13 11 11 11 10 10 10 14 14 14 14 14 14 17 18 16 27 26 26 27 26 26 
25 24 25 23 23 23 25 24 25 27 26 26 27 26 26 25 24 25 27 26 26 27 26 26 
27 26 26 27 26 26 25 24 25 27 26 26 25 24 25 27 26 26 27 26 26 27 26 26 
27 26 26 27 26 26 27 26 26 27 26 26 27 26 26 29 29 30 25 24 25 27 26 26 
27 26 26 27 26 26 27 26 26 25 24 25 27 26 26 27 26 26 25 24 25 23 23 23 
25 24 25 27 26 26 27 26 26 27 26 26 27 26 26 27 26 26 25 24 25 27 26 26 
25 24 25 25 24 25 27 26 26 25 24 25 25 24 25 27 26 26 25 24 25 27 26 26 
25 24 25 27 26 26 27 26 26 25 24 25 27 26 26 15 15 15 13 13 13 15 15 15 
13 13 13 14 14 14 14 14 14 15 15 15 13 13 13 15 15 15 14 14 14 11 11 11 
11 11 11 14 14 14 15 15 15 15 15 15 13 13 13 11 11 11 14 14 14 13 13 13 
14 14 14 14 14 14 13 13 13 15 15 15 11 11 13 15 15 15 13 10 11 13 13 10 
13 10 11 13 10 11 14 14 14 13 10 11 13 10 11 11 9 10 13 10 11 13 13 10 
13 10 11 13 10 11 11 9 10 13 13 10 11 9 10 13 10 11 13 10 11 13 13 10 
13 10 11 13 10 11 18 14 10 15 15 15 14 14 14 14 14 14 13 13 13 13 13 13 
14 14 14 14 14 14 15 15 15 15 15 15 13 13 13 14 14 14 14 14 14 13 13 13 
17 18 16 14 14 14 15 15 15 11 11 11 14 14 14 14 14 14 13 13 13 14 14 14 
15 15 15 14 14 14 11 11 11 11 11 11 11 11 11 11 11 13 15 15 15 27 26 26 
37 37 38 37 36 36 37 36 36 35 34 34 39 38 39 32 31 32 9 9 9 10 13 10 
10 10 10 11 11 11 10 10 10 10 10 10 10 10 10 10 10 10 13 13 13 11 11 11 
11 11 11 11 11 11 11 11 11 11 11 11 13 13 13 11 11 11 7 7 7 11 11 11 

10 10 10 10 10 10 7 7 7 9 9 9 11 11 11 11 11 11 9 9 9 10 10 10 
10 10 10 13 13 13 10 10 10 10 10 10 11 11 11 7 7 7 13 13 13 13 13 13 
10 10 10 11 9 10 23 23 23 34 34 33 35 35 37 35 35 37 34 34 33 33 32 35 
20 20 21 11 11 11 14 14 14 15 15 15 14 14 14 11 11 11 14 14 14 13 13 13 
13 13 13 14 14 14 14 14 14 14 14 14 14 14 14 14 14 14 11 11 11 13 13 13 
15 15 15 14 14 14 14 14 14 13 13 13 13 13 13 11 11 13 13 13 13 15 15 15 
14 14 14 14 14 14 11 11 11 13 10 11 11 11 11 13 10 11 11 11 11 13 13 10 
15 15 15 13 13 13 14 14 14 14 14 14 15 15 15 13 13 13 15 15 15 14 14 14 
14 14 14 13 13 13 14 14 14 13 13 13 13 13 13 13 13 13 14 14 14 11 11 11 
13 13 13 11 11 11 14 14 14 13 13 13 13 13 13 14 14 14 13 13 13 13 13 13 
14 14 14 13 13 13 13 13 13 15 15 15 15 15 15 10 13 10 18 18 19 20 20 21 
23 23 23 20 20 21 20 20 21 23 23 23 20 20 21 23 23 23 20 20 21 20 20 21 
20 20 21 20 20 21 23 23 23 23 23 23 20 20 21 22 21 22 23 23 23 23 23 23 
20 20 21 23 23 23 23 23 23 20 20 21 20 20 21 23 23 23 23 23 23 20 20 21 
20 20 21 23 23 23 23 23 23 20 20 21 20 20 21 23 23 23 23 23 23 20 20 21 
20 20 21 22 21 22 20 20 21 20 20 21 23 23 23 22 21 22 20 20 21 25 24 25 
25 24 25 25 24 25 23 23 23 22 21 22 22 21 22 18 18 19 23 23 23 20 20 21 
20 20 21 20 20 21 25 24 25 20 20 21 14 15 19 15 15 15 17 18 16 15 15 15 
14 14 14 14 14 14 15 15 15 15 15 15 14 14 14 15 15 15 13 13 13 13 13 13 
13 13 13 15 15 15 15 15 15 11 11 11 13 13 13 14 14 14 13 13 13 14 14 14 
14 14 14 11 11 11 13 13 13 11 11 13 11 11 13 13 13 10 27 26 26 35 30 27 
35 30 27 40 38 33 35 30 27 35 30 27 35 30 27 35 30 27 35 30 27 35 30 27 
35 30 27 31 29 26 35 30 27 35 30 27 35 30 27 40 38 33 35 30 27 35 30 27 
40 38 33 40 38 33 31 29 26 18 10 13 15 15 15 14 14 14 14 14 14 13 13 13 
13 13 13 13 13 13 13 13 13 14 14 14 14 14 14 14 14 14 13 13 13 14 14 14 
15 15 15 13 13 13 14 14 14 14 14 14 14 14 14 11 11 11 11 11 11 13 13 13 
15 15 15 14 14 14 13 13 13 14 14 14 13 13 10 14 14 14 11 11 11 26 33 27 
37 37 38 39 38 39 37 36 36 39 38 39 37 37 38 31 30 31 9 9 9 10 13 10 
9 9 9 11 11 11 11 11 11 11 11 11 10 10 10 11 11 11 11 11 11 11 11 11 
10 10 10 11 11 11 13 13 13 11 11 11 9 9 9 13 13 13 10 10 10 11 11 11 

10 10 10 11 11 11 11 11 11 11 11 11 10 10 10 11 11 11 11 11 11 10 10 10 
11 11 11 11 11 11 13 13 13 11 11 11 11 11 11 11 11 11 10 10 10 10 10 10 
11 11 11 9 9 9 23 23 23 34 34 33 35 35 37 35 34 34 35 34 34 33 32 35 
15 15 15 15 15 15 13 13 13 13 13 13 11 11 11 15 15 15 11 11 11 13 13 13 
11 11 11 14 14 14 14 14 14 15 15 15 13 13 13 13 13 13 14 14 14 13 13 13 
15 15 15 14 14 14 15 15 15 14 14 14 15 15 15 13 13 13 14 14 14 17 18 16 
17 18 16 22 15 15 18 14 10 18 14 10 18 14 10 18 14 10 17 18 16 17 18 16 
17 18 16 17 18 16 18 14 10 17 18 16 22 15 15 18 14 10 14 14 14 15 15 15 
14 14 14 15 15 15 11 11 11 13 13 13 14 14 14 14 14 14 14 14 14 13 13 13 
14 14 14 14 14 14 11 11 11 13 13 13 14 14 14 11 11 11 13 13 13 14 14 14 
11 11 11 14 14 14 13 13 13 14 14 14 13 13 13 13 13 13 11 11 11 14 14 14 
11 11 13 14 15 19 14 15 19 15 15 15 13 13 13 13 13 13 13 13 13 14 14 14 
14 14 14 11 11 13 11 11 13 14 14 14 13 13 13 15 15 15 11 11 13 11 11 11 
13 13 13 14 14 14 14 15 19 11 11 13 11 11 13 11 11 13 14 14 14 11 11 13 
15 15 15 11 11 13 15 15 15 15 15 15 11 11 13 14 15 19 14 14 14 11 11 13 
14 14 14 11 11 11 15 15 15 11 11 11 11 11 11 11 11 11 14 14 14 14 14 14 
14 14 14 15 15 15 14 14 14 11 11 13 14 14 14 11 11 13 13 13 13 14 14 14 
13 13 13 15 15 15 14 14 14 11 11 13 13 13 13 14 14 14 14 14 14 13 13 13 
11 11 11 11 11 11 14 14 14 13 13 13 14 14 14 11 11 11 13 13 13 13 13 13 
14 14 14 11 11 11 13 13 13 15 15 15 14 14 14 13 13 13 11 11 11 13 13 13 
14 14 14 13 13 13 15 15 15 13 13 13 14 14 14 10 13 10 34 38 34 39 38 39 
37 37 38 39 38 39 37 37 38 35 35 37 35 35 37 29 29 30 27 26 26 28 27 29 
28 27 29 31 30 31 25 24 25 29 29 30 30 31 30 35 35 37 37 37 38 37 37 38 
37 36 36 39 38 39 37 37 38 25 21 24 11 11 13 14 14 14 14 14 14 11 11 11 
15 15 15 11 11 11 14 14 14 13 13 13 14 14 14 13 13 13 13 13 13 14 14 14 
13 13 13 15 15 15 15 15 15 13 13 13 15 15 15 13 13 13 14 14 14 14 14 14 
13 13 13 14 14 14 15 15 15 13 13 13 11 11 11 15 15 15 15 15 15 27 26 26 
37 36 36 39 38 39 39 38 39 37 36 36 37 37 38 32 31 32 9 9 9 13 13 10 
10 13 10 11 11 11 9 9 9 10 10 10 11 11 11 10 10 10 11 11 11 11 11 11 
13 13 13 10 10 10 10 10 10 10 10 10 11 11 11 10 10 10 10 10 10 11 11 11 

10 10 10 11 11 11 9 9 9 11 11 11 10 10 10 9 9 9 9 9 9 10 10 10 
11 11 11 11 11 11 9 9 9 11 11 11 10 10 10 11 11 11 11 11 11 10 10 10 
10 10 10 9 9 9 21 21 18 34 34 33 35 35 37 32 31 32 34 34 33 32 31 32 
15 15 15 15 15 15 15 15 15 13 13 13 10 10 10 11 11 11 11 11 11 14 14 14 
13 13 13 14 14 14 15 15 15 15 15 15 13 13 13 13 13 13 14 14 14 15 15 15 
15 15 15 14 14 14 13 13 13 14 14 14 14 14 14 17 18 16 31 29 26 33 33 31 
33 33 31 33 33 31 31 30 31 30 31 30 33 33 31 27 26 26 31 29 26 33 33 31 
32 31 32 30 31 30 33 33 31 30 31 30 34 34 33 31 29 26 22 15 15 13 13 13 
13 13 13 14 14 14 15 15 15 14 14 14 15 15 15 13 13 13 14 14 14 13 13 13 
15 15 15 15 15 15 11 11 11 14 14 14 13 13 13 14 14 14 10 10 10 14 14 14 
13 13 13 14 14 14 14 14 14 13 10 11 13 10 11 14 14 14 13 13 10 14 14 14 
13 13 13 10 10 10 15 15 15 14 14 14 11 11 11 13 13 10 15 15 15 13 13 10 
13 13 10 11 11 11 11 11 11 15 15 15 13 13 10 11 11 11 11 11 11 13 13 10 
11 11 11 15 15 15 13 13 10 13 13 10 15 15 15 13 13 10 11 11 11 13 13 10 
13 13 10 14 14 14 14 14 14 14 14 14 14 14 14 15 15 15 13 13 13 11 11 11 
14 14 14 14 14 14 15 15 15 13 13 10 11 11 11 14 14 14 14 14 14 15 15 15 
13 13 10 11 11 11 13 13 10 13 13 10 13 13 10 14 14 14 13 13 10 13 13 10 
13 10 11 13 13 10 14 14 14 15 15 15 14 14 14 15 15 15 15 15 15 11 11 13 
11 11 11 15 15 15 14 14 14 14 14 14 13 13 13 13 13 13 14 14 14 14 14 14 
14 14 14 14 14 14 13 13 13 13 13 13 10 10 10 13 13 13 11 11 11 14 14 14 
11 11 11 11 11 11 13 13 13 14 14 14 11 11 11 14 14 14 34 38 34 39 38 39 
37 36 36 37 37 38 37 37 38 29 29 30 35 30 27 31 23 20 34 14 15 41 13 23 
41 13 23 38 13 15 38 13 15 34 14 15 31 29 26 27 26 26 32 31 32 37 37 38 
39 38 39 37 37 38 39 38 39 25 21 24 14 14 14 14 14 14 14 14 14 14 14 14 
15 15 15 11 11 11 13 13 13 14 14 14 15 15 15 15 15 15 15 15 15 11 11 11 
14 14 14 14 14 14 11 11 11 11 11 11 13 13 13 13 13 13 11 11 11 13 13 13 
13 13 13 11 11 11 11 11 11 14 14 14 11 11 11 14 14 14 15 15 15 27 26 26 
39 38 39 37 36 36 39 38 39 37 36 36 39 38 39 32 31 32 11 9 10 17 18 16 
10 13 10 10 10 10 11 11 11 11 11 11 11 11 11 11 11 11 11 11 11 13 13 13 
11 11 11 11 11 11 9 9 9 11 11 11 13 13 13 13 13 13 11 11 11 11 11 11 

10 10 10 13 13 13 13 13 13 9 9 9 10 10 10 11 11 11 10 10 10 7 7 7 
9 9 9 14 14 14 11 11 11 11 11 11 9 9 9 11 11 11 13 13 13 9 9 9 
10 10 10 10 10 10 25 24 25 33 32 33 35 35 37 33 32 35 33 32 35 33 32 35 
18 18 19 14 14 14 14 14 14 15 15 15 14 14 14 13 13 13 13 13 13 14 14 14 
13 13 13 13 13 13 13 13 13 13 13 13 13 13 13 14 14 14 13 13 13 13 13 13 
14 14 14 14 14 14 14 14 14 11 11 11 13 13 13 21 21 18 33 33 31 34 34 33 
30 30 34 25 24 25 22 21 22 22 21 22 20 20 21 23 23 23 23 23 23 23 23 23 
22 21 22 20 20 21 23 23 23 25 24 25 29 29 30 33 32 33 25 24 25 14 14 14 
14 14 14 13 10 11 14 14 14 14 14 14 14 14 14 13 13 13 13 13 13 14 14 14 
15 15 15 14 14 14 14 14 14 13 13 13 14 14 14 11 11 11 13 13 13 13 13 13 
13 13 13 15 15 15 14 14 14 13 13 13 11 11 11 13 13 10 17 18 16 25 24 25 
31 23 20 31 29 26 31 23 20 31 23 20 31 23 20 31 29 26 31 23 20 31 23 20 
31 29 26 31 23 20 31 23 20 31 23 20 31 23 20 31 23 20 31 23 20 31 23 20 
31 23 20 31 23 20 31 23 20 31 23 20 31 23 20 31 23 20 31 23 20 31 23 20 
31 23 20 31 29 26 31 23 20 31 23 20 31 23 20 31 23 20 31 23 20 31 23 20 
31 23 20 31 23 20 31 23 20 31 23 20 31 23 20 31 23 20 31 23 20 31 23 20 
31 23 20 31 29 26 31 23 20 31 29 26 31 23 20 31 23 20 31 23 20 31 23 20 
31 23 20 31 29 26 31 23 20 31 23 20 21 21 18 14 14 14 14 14 14 13 13 13 
11 11 11 15 15 15 13 13 13 14 14 14 11 11 11 11 11 11 14 14 14 13 13 13 
14 14 14 13 13 13 15 15 15 14 14 14 14 14 14 13 13 13 11 11 11 15 15 15 
14 14 14 15 15 15 15 15 15 15 15 15 15 15 15 13 13 13 33 33 31 39 38 39 
37 37 38 35 34 34 28 27 29 31 23 20 38 13 15 41 13 23 38 13 15 38 13 15 
38 13 15 38 13 15 38 13 15 38 13 15 38 13 15 38 13 15 27 26 26 29 29 30 
35 35 37 39 38 39 35 35 37 25 21 24 11 11 13 13 13 13 10 10 10 11 11 11 
13 13 13 14 14 14 15 15 15 11 11 11 13 13 13 14 14 14 11 11 11 11 11 11 
14 14 14 13 13 13 15 15 15 14 14 14 11 11 11 11 11 11 15 15 15 13 13 13 
11 11 11 13 13 13 15 15 15 14 14 14 14 14 14 11 11 11 13 13 10 23 23 23 
39 38 39 37 36 36 35 34 34 39 38 39 39 38 39 33 32 35 11 9 10 10 13 10 
9 9 9 11 11 11 10 10 10 10 10 10 11 11 11 10 10 10 11 11 11 10 10 10 
11 11 11 11 11 11 10 10 10 10 10 10 11 11 11 13 13 13 11 11 11 9 9 9 

11 11 11 11 11 11 11 11 11 11 11 11 10 10 10 10 10 10 11 11 11 7 7 7 
10 10 10 11 11 11 10 10 10 10 10 10 13 13 13 9 9 9 11 11 11 11 11 11 
13 13 13 7 7 7 23 23 23 32 31 32 33 32 35 33 32 35 33 32 33 33 32 35 
15 15 15 11 11 11 13 13 13 11 11 11 13 13 13 11 11 11 14 14 14 14 14 14 
14 14 14 15 15 15 14 14 14 14 14 14 11 11 11 10 10 10 13 13 13 14 14 14 
15 15 15 14 14 14 13 13 13 13 13 13 10 13 10 21 21 18 34 38 34 33 32 35 
25 24 25 14 14 14 11 11 13 13 13 13 13 13 13 14 14 14 11 11 13 14 14 14 
14 14 14 11 11 13 11 11 13 11 11 13 23 23 23 33 32 35 25 24 25 15 15 15 
14 14 14 14 14 14 14 14 14 14 14 14 13 13 13 14 14 14 13 13 13 14 14 14 
14 14 14 14 14 14 14 14 14 14 14 14 15 15 15 15 15 15 14 14 14 14 14 14 
14 14 14 13 13 13 13 13 13 13 13 10 11 11 11 14 14 14 40 38 33 40 38 33 
39 38 39 39 38 39 39 38 39 39 38 39 39 38 39 37 37 38 41 40 41 37 36 36 
37 37 38 39 38 39 41 40 41 39 38 39 39 38 39 39 38 39 39 38 39 37 36 36 
39 38 39 37 37 38 39 38 39 37 36 36 39 38 39 39 38 39 37 37 38 39 38 39 
39 38 39 39 38 39 37 37 38 39 38 39 37 37 38 39 38 39 39 38 39 35 34 34 
41 40 41 39 38 39 39 38 39 39 38 39 39 38 39 41 40 41 39 38 39 37 36 36 
39 38 39 39 38 39 39 38 39 39 38 39 39 38 39 37 36 36 41 40 41 39 38 39 
41 40 41 37 37 38 41 40 41 40 38 33 40 38 33 23 18 20 13 13 13 14 14 14 
15 15 15 13 13 13 13 13 13 14 14 14 13 13 13 11 11 11 14 14 14 13 13 13 
11 11 11 14 14 14 13 13 13 14 14 14 13 13 13 11 11 11 11 11 11 14 14 14 
15 15 15 14 14 14 11 11 11 11 11 11 13 13 13 13 13 10 34 38 34 39 38 39 
35 35 37 33 32 35 31 23 20 38 13 15 38 13 15 38 13 15 34 14 15 38 13 15 
38 13 15 38 13 15 38 13 15 38 13 15 38 13 15 38 13 15 38 13 15 31 23 20 
30 31 30 34 38 34 39 38 39 25 21 24 14 14 14 13 13 10 14 14 14 14 14 14 
14 14 14 13 13 13 13 13 13 11 11 11 14 14 14 13 13 13 11 11 11 15 15 15 
15 15 15 13 13 13 11 11 11 15 15 15 15 15 15 14 14 14 11 11 11 14 14 14 
15 15 15 14 14 14 15 15 15 13 13 13 15 15 15 14 14 14 13 13 10 26 33 27 
39 38 39 37 36 36 37 36 36 35 34 34 37 36 36 31 30 31 11 11 11 10 13 10 
9 9 9 11 9 10 11 11 11 11 11 11 11 11 11 11 11 11 11 11 11 11 11 11 
11 11 11 11 11 11 11 11 11 10 10 10 11 11 11 11 11 11 11 11 11 9 9 9 

11 11 11 10 10 10 11 11 11 10 10 10 10 10 10 11 11 11 11 11 11 13 13 13 
9 9 9 9 9 9 10 10 10 10 10 10 7 7 7 10 10 10 11 11 11 13 13 13 
7 7 7 9 9 9 23 23 23 34 34 33 33 32 35 33 32 35 31 30 31 33 32 35 
14 15 19 15 15 15 14 14 14 14 14 14 14 14 14 13 13 13 14 14 14 14 14 14 
15 15 15 11 11 11 11 11 11 14 14 14 11 11 11 13 13 13 13 13 13 14 14 14 
11 11 11 13 13 13 13 13 13 15 15 15 10 13 10 21 21 18 34 34 33 33 32 35 
18 18 19 11 11 11 14 14 14 11 11 11 14 14 14 15 15 15 11 11 11 14 14 14 
14 14 14 13 13 13 15 15 15 11 11 11 17 18 16 29 29 30 25 21 24 15 15 15 
14 14 14 11 11 11 14 14 14 13 13 13 14 14 14 15 15 15 14 14 14 15 15 15 
14 14 14 13 13 13 14 14 14 15 15 15 14 14 14 15 15 15 15 15 15 14 14 14 
14 14 14 13 13 13 13 13 13 13 13 10 14 14 14 17 18 16 34 38 34 39 38 39 
41 40 41 37 37 38 37 37 38 39 38 39 35 34 34 41 40 41 37 37 38 37 37 38 
37 37 38 41 40 41 41 40 41 37 37 38 39 38 39 37 37 38 41 40 41 39 38 39 
39 38 39 37 37 38 37 37 38 39 38 39 39 38 39 39 38 39 39 38 39 41 40 41 
41 40 41 41 40 41 37 37 38 37 37 38 39 38 39 41 40 41 37 37 38 35 35 37 
39 38 39 39 38 39 37 37 38 37 37 38 37 37 38 37 37 38 39 38 39 37 37 38 
37 37 38 37 37 38 35 34 34 39 38 39 39 38 39 37 37 38 37 37 38 39 38 39 
39 38 39 39 38 39 39 38 39 37 37 38 41 40 41 25 24 25 13 10 11 15 15 15 
14 15 19 14 14 14 14 14 14 14 14 14 13 13 13 14 14 14 13 13 13 13 13 13 
11 11 11 15 15 15 14 14 14 14 14 14 11 11 11 14 14 14 13 13 13 14 14 14 
11 11 11 13 13 13 11 11 11 13 13 10 14 14 14 13 13 10 33 33 31 37 37 38 
31 30 31 34 14 15 38 13 15 38 13 15 38 13 15 38 13 15 31 12 13 31 12 13 
31 12 13 34 14 15 34 14 15 34 14 15 34 14 15 38 13 15 38 13 15 34 14 15 
31 29 26 33 32 33 39 38 39 25 21 24 13 10 11 15 15 15 15 15 15 15 15 15 
15 15 15 11 11 11 15 15 15 13 13 13 13 13 13 11 11 11 13 13 13 13 13 13 
13 13 13 11 11 11 11 11 11 14 14 14 11 11 11 11 11 11 11 11 11 14 14 14 
14 14 14 13 13 13 11 11 11 11 11 11 9 9 9 11 11 13 13 10 11 23 23 23 
37 37 38 39 38 39 39 38 39 35 34 34 37 36 36 28 27 29 9 9 9 14 14 14 
9 9 9 13 10 11 11 11 11 11 11 11 10 10 10 11 11 11 11 11 11 11 11 11 
11 11 11 11 11 11 10 10 10 9 9 9 7 7 7 11 11 11 11 11 11 11 11 11 

11 11 11 13 13 13 13 13 13 10 10 10 11 11 11 11 11 11 9 9 9 10 10 10 
11 11 11 11 11 11 11 11 11 10 10 10 10 10 10 10 10 10 11 11 11 11 11 11 
10 10 10 9 9 9 23 23 23 34 34 33 35 35 37 33 32 35 33 32 33 35 35 37 
14 15 19 13 13 13 14 14 14 11 11 11 14 14 14 13 13 13 14 14 14 13 13 13 
14 14 14 13 13 13 11 11 11 11 11 11 15 15 15 13 13 13 11 11 11 11 11 11 
15 15 15 14 14 14 11 11 11 14 14 14 13 13 10 21 21 18 34 34 33 33 32 35 
18 18 19 13 13 13 13 13 13 14 14 14 15 15 15 11 11 11 7 7 7 11 11 11 
13 13 13 11 11 11 14 14 14 10 13 10 17 18 16 29 29 30 25 24 25 15 15 15 
13 13 13 13 13 13 11 11 11 11 11 11 15 15 15 15 15 15 13 13 13 11 11 11 
14 14 14 15 15 15 13 13 13 13 13 13 13 13 13 14 14 14 14 14 14 11 11 11 
13 13 13 17 18 16 15 15 15 15 15 15 15 15 15 21 21 18 34 38 34 39 38 39 
37 37 38 41 40 41 37 37 38 37 37 38 39 38 39 37 37 38 41 40 41 37 37 38 
39 38 39 35 34 34 37 37 38 37 37 38 37 37 38 37 37 38 39 38 39 37 37 38 
41 40 41 39 38 39 41 40 41 35 34 34 39 38 39 37 37 38 35 34 34 41 40 41 
37 37 38 37 37 38 37 37 38 37 37 38 37 37 38 37 37 38 37 37 38 37 37 38 
37 37 38 35 34 34 37 37 38 39 38 39 37 37 38 37 37 38 37 37 38 35 34 34 
35 34 34 39 38 39 39 38 39 37 37 38 37 37 38 35 34 34 37 37 38 37 37 38 
39 38 39 39 38 39 39 38 39 37 37 38 39 38 39 25 21 24 13 13 10 13 13 13 
14 14 14 11 11 11 15 15 15 14 14 14 13 13 13 11 11 11 11 11 11 13 13 13 
14 14 14 14 14 14 15 15 15 15 15 15 15 15 15 11 11 11 13 13 13 14 14 14 
14 14 14 13 13 13 11 11 11 11 11 11 13 13 13 17 18 16 34 38 34 33 32 35 
31 23 20 34 14 15 38 13 15 38 13 15 38 13 15 38 13 15 31 12 13 31 12 13 
34 14 15 34 14 15 31 12 13 31 12 13 34 14 15 38 13 15 38 13 15 38 13 15 
31 23 20 31 29 26 35 35 37 25 21 24 15 15 15 15 15 15 15 15 15 11 11 11 
14 14 14 11 11 11 14 14 14 13 13 13 11 11 11 11 11 11 11 11 11 15 15 15 
11 11 11 13 13 13 13 13 13 14 14 14 11 11 11 11 11 11 13 13 13 13 13 13 
15 15 15 13 13 13 11 11 11 13 13 13 11 11 11 15 15 15 14 14 14 23 23 23 
37 36 36 37 36 36 37 36 36 37 36 36 37 36 36 32 31 32 11 11 11 10 13 10 
9 9 9 10 10 10 10 10 10 11 11 11 11 11 11 11 11 11 11 11 11 10 10 10 
11 11 11 11 11 11 11 11 11 13 13 13 11 11 11 11 11 11 11 11 11 14 14 14 

9 9 9 11 11 11 11 11 11 9 9 9 10 10 10 11 11 11 10 10 10 11 11 11 
11 11 11 10 10 10 11 11 11 9 9 9 11 11 11 11 11 11 11 11 11 10 10 10 
10 10 10 11 11 11 23 23 23 34 34 33 33 32 35 33 32 33 33 32 35 33 32 35 
18 18 19 15 15 15 13 13 13 11 11 11 11 11 11 14 14 14 15 15 15 11 11 11 
11 11 11 14 14 14 13 13 13 14 14 14 15 15 15 11 11 11 15 15 15 15 15 15 
15 15 15 14 14 14 14 14 14 14 14 14 13 13 10 21 21 18 34 34 33 33 32 35 
18 18 19 14 14 14 14 14 14 11 11 11 14 14 14 11 11 11 9 9 9 10 10 10 
10 10 10 13 13 13 14 14 14 17 18 16 15 15 15 30 31 30 25 24 25 15 15 15 
14 14 14 13 13 13 14 14 14 14 14 14 14 14 14 15 15 15 13 13 13 14 14 14 
13 13 13 13 13 13 11 11 11 14 14 14 14 14 14 13 13 13 13 13 13 13 13 13 
13 13 13 11 11 11 13 13 13 14 14 14 14 14 14 21 21 18 34 38 34 41 40 41 
37 37 38 37 37 38 37 37 38 37 37 38 39 38 39 35 34 34 39 38 39 41 40 41 
37 37 38 37 37 38 37 37 38 37 37 38 37 37 38 35 35 37 39 38 39 35 35 37 
37 37 38 35 35 37 41 40 41 39 38 39 41 40 41 39 38 39 35 34 34 37 37 38 
37 37 38 37 37 38 41 40 41 39 38 39 39 38 39 37 37 38 39 38 39 37 37 38 
37 37 38 37 37 38 37 37 38 39 38 39 39 38 39 41 40 41 37 37 38 35 35 37 
37 37 38 37 37 38 37 37 38 39 38 39 39 38 39 37 37 38 37 37 38 35 34 34 
39 38 39 37 37 38 39 38 39 35 34 34 39 38 39 25 21 24 13 13 10 11 11 11 
11 11 13 13 10 11 11 11 11 11 11 11 14 14 14 11 11 11 13 13 13 13 13 13 
14 14 14 15 15 15 10 10 10 13 13 13 11 11 11 11 11 11 14 14 14 14 14 14 
11 11 11 11 11 11 11 11 11 13 13 13 13 13 13 10 13 10 34 34 33 32 31 32 
34 14 15 38 13 15 31 12 13 38 13 15 34 14 15 38 13 15 31 12 13 34 14 15 
38 13 15 38 13 15 34 14 15 31 12 13 34 14 15 38 13 15 34 14 15 38 13 15 
34 14 15 31 23 20 35 35 37 25 21 24 15 15 15 11 11 11 14 14 14 14 14 14 
13 13 13 13 13 13 15 15 15 15 15 15 14 14 14 11 11 11 13 13 13 11 11 11 
15 15 15 13 13 13 13 13 13 14 14 14 11 11 11 14 14 14 14 14 14 15 15 15 
14 14 14 15 15 15 15 15 15 18 18 19 14 14 14 11 11 13 14 14 14 23 23 23 
37 36 36 37 36 36 37 36 36 37 36 36 37 36 36 28 27 29 7 7 7 10 13 10 
10 10 10 9 9 9 10 10 10 10 10 10 14 14 14 14 14 14 11 11 11 11 11 11 
11 11 11 10 10 10 11 11 11 9 9 9 9 9 9 11 11 11 11 11 11 9 9 9 

11 11 11 11 11 11 11 11 11 11 11 11 9 9 9 11 11 11 10 10 10 13 13 13 
11 11 11 11 11 11 14 14 14 10 10 10 11 11 11 11 11 11 13 13 13 11 11 11 
10 10 10 9 9 9 21 21 18 34 34 33 33 32 35 32 31 32 33 32 35 33 32 35 
15 15 15 13 13 13 14 14 14 13 13 13 11 11 11 14 14 14 15 15 15 15 15 15 
15 15 15 14 14 14 13 13 13 14 14 14 15 15 15 15 15 15 13 13 13 13 13 13 
11 11 11 15 15 15 11 11 11 13 13 13 15 15 15 21 21 18 33 33 31 32 31 32 
14 15 19 14 14 14 11 11 11 13 13 13 9 9 9 9 9 9 11 11 11 10 10 10 
9 9 9 11 11 11 14 14 14 11 11 11 17 18 16 33 32 33 25 21 24 15 15 15 
13 13 13 15 15 15 14 14 14 14 14 14 11 11 11 15 15 15 14 14 14 15 15 15 
14 14 14 15 15 15 13 13 13 13 13 13 13 13 13 13 13 13 14 14 14 13 13 13 
15 15 15 15 15 15 13 13 13 13 10 11 15 15 15 17 18 16 34 38 34 35 34 34 
37 37 38 37 37 38 37 37 38 37 37 38 35 35 37 30 30 34 30 30 34 30 30 34 
30 30 34 33 32 35 33 32 35 30 30 34 30 30 34 33 32 35 33 32 35 33 32 35 
33 32 35 35 34 34 35 34 34 37 37 38 35 34 34 39 38 39 37 37 38 37 37 38 
37 37 38 37 37 38 37 37 38 37 37 38 37 37 38 39 38 39 35 34 34 37 37 38 
37 37 38 35 35 37 33 32 35 33 32 35 33 32 35 30 30 34 33 32 35 33 32 35 
33 32 35 30 30 34 30 30 34 30 30 34 33 32 35 33 32 35 35 35 37 35 34 34 
39 38 39 37 37 38 39 38 39 39 38 39 37 37 38 25 21 24 11 11 11 15 15 15 
14 14 14 13 10 11 11 11 11 15 15 15 14 14 14 14 14 14 11 11 11 13 13 13 
13 13 13 15 15 15 15 15 15 14 14 14 14 14 14 15 15 15 13 13 13 15 15 15 
13 13 13 14 14 14 15 15 15 14 14 14 10 13 10 10 13 10 35 34 34 35 30 27 
34 14 15 38 13 15 34 14 15 38 13 15 34 14 15 38 13 15 34 14 15 31 12 13 
34 14 15 38 13 15 34 14 15 31 12 13 38 13 15 38 13 15 38 13 15 38 13 15 
38 13 15 31 23 20 32 31 32 25 21 24 13 13 13 11 11 11 13 13 13 13 13 13 
15 15 15 13 13 13 13 13 13 13 13 13 15 15 15 14 14 14 14 14 14 14 14 14 
14 14 14 14 14 14 14 14 14 13 13 13 13 13 13 11 11 11 13 13 13 13 13 13 
13 13 13 11 11 11 11 11 11 15 15 15 11 11 11 14 14 14 11 11 11 26 33 27 
37 37 38 37 36 36 37 36 36 35 34 34 37 36 36 28 27 29 9 9 9 10 13 10 
9 9 9 11 11 11 11 11 11 11 11 11 11 11 11 10 10 10 11 11 11 11 11 11 
9 9 9 10 10 10 11 11 11 9 9 9 11 11 11 10 10 10 10 10 10 11 11 11 

10 10 10 7 7 7 10 10 10 10 10 10 10 10 10 10 10 10 7 7 7 9 9 9 
7 7 7 10 10 10 11 11 11 11 11 11 11 11 11 10 10 10 13 13 13 10 10 10 
10 10 10 11 9 10 23 23 23 34 34 33 33 32 35 33 32 33 32 31 32 33 32 33 
15 15 15 14 14 14 13 13 13 15 15 15 14 14 14 14 14 14 13 13 13 15 15 15 
13 13 13 15 15 15 14 14 14 14 14 14 14 14 14 13 13 13 14 14 14 14 14 14 
11 11 11 11 11 11 14 14 14 13 13 13 13 13 10 21 21 18 30 31 30 32 31 32 
18 18 19 13 13 13 13 13 13 10 10 10 9 9 9 9 9 9 11 11 11 9 9 9 
10 10 10 11 11 11 14 14 14 13 13 13 17 18 16 33 33 31 25 21 24 13 13 13 
15 15 15 14 14 14 13 13 13 11 11 11 15 15 15 13 13 13 13 13 13 13 13 13 
14 14 14 15 15 15 13 13 13 15 15 15 14 14 14 15 15 15 13 13 13 14 14 14 
14 14 14 13 13 13 15 15 15 13 13 13 15 15 15 21 21 18 34 38 34 37 37 38 
35 34 34 39 38 39 35 34 34 35 34 34 30 30 34 25 24 25 22 21 22 22 21 22 
23 23 23 23 23 23 23 23 23 22 21 22 20 20 21 23 23 23 20 20 21 20 20 21 
25 24 25 28 27 29 32 31 32 35 35 37 35 35 37 35 34 34 37 37 38 39 38 39 
39 38 39 39 38 39 37 37 38 39 38 39 35 34 34 37 37 38 35 34 34 34 38 34 
35 35 37 30 30 34 25 21 24 20 20 21 20 20 21 22 21 22 20 20 21 20 20 21 
20 20 21 22 21 22 20 20 21 20 20 21 23 23 23 20 20 21 25 24 25 29 29 30 
35 35 37 35 34 34 35 34 34 39 38 39 39 38 39 25 21 24 14 14 14 14 14 14 
11 11 13 11 11 11 11 11 11 11 11 11 14 14 14 14 14 14 15 15 15 13 13 13 
11 11 11 11 11 11 13 13 13 14 14 14 13 13 13 13 13 13 14 14 14 13 13 13 
15 15 15 11 11 11 11 11 11 13 13 13 13 13 13 13 13 10 34 34 33 31 23 20 
38 13 15 38 13 15 38 13 15 38 13 15 38 13 15 38 13 15 34 14 15 31 12 13 
31 12 13 31 12 13 31 12 13 31 12 13 38 13 15 38 13 15 38 13 15 38 13 15 
38 13 15 31 23 20 31 30 31 25 21 24 11 11 13 11 11 11 14 14 14 13 13 13 
15 15 15 14 14 14 13 13 13 11 11 11 11 11 11 15 15 15 15 15 15 13 13 13 
14 14 14 14 14 14 15 15 15 13 13 13 14 14 14 11 11 11 15 15 15 14 14 14 
14 14 14 14 14 14 11 11 11 13 13 13 11 11 11 15 15 15 10 13 10 23 23 23 
33 32 33 35 34 34 37 36 36 37 36 36 35 34 34 28 27 29 10 10 10 10 13 10 
9 9 9 11 11 11 11 11 11 11 11 11 11 11 11 9 9 9 9 9 9 11 11 11 
11 11 11 11 11 11 11 11 11 10 10 10 11 11 11 10 10 10 11 11 11 10 10 10 

10 10 10 11 11 11 11 11 11 11 11 11 11 11 11 11 11 11 11 11 11 11 11 11 
11 11 11 13 13 13 11 11 11 11 11 11 11 11 11 13 13 13 11 11 11 11 11 11 
10 10 10 10 10 10 21 21 18 33 32 33 32 31 32 33 32 33 31 30 31 32 31 32 
14 14 14 14 14 14 14 14 14 11 11 11 11 11 11 11 11 11 15 15 15 14 14 14 
14 14 14 14 14 14 14 14 14 14 14 14 13 13 13 14 14 14 11 11 11 13 13 13 
13 13 13 14 14 14 13 13 13 11 11 11 13 13 10 21 21 18 33 33 31 33 32 35 
18 18 19 15 15 15 14 14 14 11 11 11 10 10 10 9 9 9 9 9 9 9 9 9 
10 10 10 11 11 11 11 11 11 10 13 10 15 15 15 27 26 26 25 21 24 13 13 13 
11 11 11 13 13 13 14 14 14 13 13 13 13 13 13 14 14 14 13 13 13 11 11 11 
13 13 13 11 11 11 13 13 13 14 14 14 15 15 15 14 14 14 13 13 13 15 15 15 
14 14 14 15 15 15 15 15 15 14 14 14 11 11 13 15 15 15 33 33 31 37 37 38 
39 38 39 37 36 36 35 34 34 29 29 30 14 15 19 14 15 19 11 11 13 11 11 13 
14 15 19 15 15 15 14 15 19 15 15 15 14 15 19 11 11 13 11 11 13 14 14 14 
11 11 13 18 18 19 23 23 23 34 34 33 35 34 34 35 34 34 37 37 38 37 37 38 
37 37 38 37 37 38 37 37 38 37 37 38 37 37 38 37 37 38 37 37 38 35 35 37 
33 32 35 14 15 19 14 15 19 11 11 13 11 11 13 14 14 14 14 14 14 11 11 13 
15 15 15 11 11 13 14 14 14 14 14 14 14 15 19 11 11 13 14 15 19 20 20 21 
30 31 30 37 37 38 37 37 38 35 34 34 39 38 39 25 21 24 11 11 11 13 13 13 
11 11 13 14 14 14 15 15 15 11 11 11 13 13 13 15 15 15 14 14 14 11 11 11 
14 14 14 13 13 13 14 14 14 14 14 14 11 11 11 13 13 13 11 11 11 15 15 15 
13 13 13 14 14 14 11 11 11 13 13 13 13 13 13 13 13 10 33 33 31 31 23 20 
38 13 15 38 13 15 38 13 15 38 13 15 34 14 15 38 13 15 34 14 15 31 12 13 
26 11 11 26 11 11 31 12 13 34 14 15 38 13 15 34 14 15 38 13 15 38 13 15 
38 13 15 34 14 15 33 33 31 25 21 24 13 13 13 13 13 13 10 10 10 11 11 11 
13 13 13 15 15 15 14 14 14 11 11 11 13 13 13 14 14 14 13 13 13 13 13 13 
11 11 11 11 11 11 14 14 14 15 15 15 13 13 13 15 15 15 13 13 13 15 15 15 
13 13 13 14 14 14 14 14 14 15 15 15 13 13 10 11 11 13 10 10 10 27 26 26 
35 34 34 37 36 36 37 36 36 37 36 36 37 36 36 28 27 29 10 10 10 10 13 10 
11 11 11 11 11 13 10 10 10 13 13 13 10 10 10 11 11 11 10 10 10 11 11 11 
11 11 11 13 13 13 10 10 10 10 10 10 10 10 10 9 9 9 10 10 10 13 13 13 

14 14 14 11 11 11 11 11 11 11 11 11 10 10 10 10 10 10 9 9 9 10 10 10 
11 11 11 11 11 11 9 9 9 11 11 11 10 10 10 11 11 11 10 10 10 10 10 10 
11 11 11 7 7 7 25 24 25 32 31 32 32 31 32 33 32 35 33 32 33 31 30 31 
15 15 15 13 13 13 15 15 15 14 14 14 11 11 11 13 13 13 15 15 15 11 11 11 
13 13 13 11 11 11 11 11 11 13 13 13 11 11 11 13 13 13 13 13 13 14 14 14 
13 13 13 14 14 14 14 14 14 13 13 13 13 13 10 21 21 18 34 34 33 32 31 32 
20 20 21 14 14 14 13 13 13 11 11 11 9 9 9 10 10 10 10 10 10 10 10 10 
10 10 10 10 10 10 11 11 11 11 11 11 17 18 16 30 31 30 25 21 24 13 10 11 
13 13 13 13 13 13 15 15 15 11 11 11 14 14 14 13 13 13 13 13 13 11 11 11 
13 13 13 14 14 14 14 14 14 13 13 13 14 14 14 11 11 11 15 15 15 13 13 13 
11 11 11 14 14 14 11 11 11 13 13 10 11 11 13 15 15 15 34 34 33 37 37 38 
37 37 38 35 34 34 33 32 35 20 20 21 13 13 13 11 11 11 13 13 10 11 11 11 
11 11 11 15 15 15 13 13 13 11 11 11 15 15 15 14 14 14 14 14 14 15 15 15 
11 11 11 11 11 13 18 18 19 32 31 32 37 37 38 37 37 38 35 34 34 37 37 38 
37 37 38 37 37 38 35 34 34 35 34 34 39 38 39 37 37 38 39 38 39 37 37 38 
25 21 24 11 11 13 15 15 15 13 13 13 15 15 15 11 11 13 13 13 13 13 13 13 
14 14 14 11 11 13 13 13 13 11 11 11 14 14 14 13 13 13 11 11 11 13 13 13 
27 26 26 34 34 33 37 37 38 37 37 38 39 38 39 25 21 24 14 14 14 11 11 11 
15 15 15 15 15 15 11 11 11 13 13 13 15 15 15 11 11 11 15 15 15 14 14 14 
15 15 15 13 13 13 15 15 15 14 14 14 15 15 15 13 13 13 11 11 11 14 14 14 
14 14 14 11 11 11 13 13 13 14 14 14 15 15 15 14 14 14 34 34 33 31 23 20 
38 13 15 38 13 15 38 13 15 38 13 15 34 14 15 34 14 15 31 12 13 31 12 13 
34 14 15 34 14 15 31 12 13 34 14 15 34 14 15 38 13 15 38 13 15 38 13 15 
38 13 15 31 23 20 31 29 26 25 21 24 10 10 10 14 14 14 13 13 13 14 14 14 
13 13 13 13 13 13 11 11 11 13 13 13 13 13 13 13 13 13 14 14 14 14 14 14 
15 15 15 15 15 15 14 14 14 15 15 15 13 13 13 11 11 11 14 14 14 11 11 11 
14 14 14 14 14 14 11 11 11 11 11 11 14 14 14 11 11 13 10 13 10 27 26 26 
35 34 34 37 36 36 33 32 33 37 36 36 35 34 34 31 30 31 10 10 10 10 13 10 
10 10 10 11 11 11 10 10 10 10 10 10 9 9 9 9 9 9 14 14 14 11 11 11 
10 10 10 10 10 10 13 13 13 10 10 10 10 10 10 13 13 13 11 11 11 11 11 11 

11 11 11 10 10 10 11 11 11 10 10 10 11 11 11 10 10 10 9 9 9 10 10 10 
11 11 11 11 11 11 11 11 11 11 11 11 9 9 9 10 10 10 13 13 13 11 11 11 
10 10 10 10 10 10 23 23 23 31 30 31 33 32 33 31 30 31 31 30 31 33 32 35 
14 15 19 13 13 13 13 13 13 14 14 14 14 14 14 11 11 11 15 15 15 13 13 13 
14 14 14 15 15 15 14 14 14 14 14 14 13 13 13 13 13 13 15 15 15 11 11 11 
15 15 15 11 11 11 13 13 13 14 14 14 10 10 10 17 18 16 30 31 30 33 32 33 
18 18 19 15 15 15 13 13 13 10 10 10 11 11 11 11 11 11 11 11 11 11 11 11 
11 11 11 11 11 11 14 14 14 14 14 14 17 18 16 30 31 30 25 21 24 14 14 14 
13 13 13 11 11 13 14 14 14 11 11 11 14 14 14 13 13 13 14 14 14 13 13 13 
15 15 15 11 11 11 15 15 15 14 14 14 13 13 13 14 14 14 15 15 15 13 13 13 
11 11 11 15 15 15 14 14 14 13 13 10 13 13 13 17 18 16 34 38 34 37 36 36 
34 34 33 37 36 36 31 30 31 18 18 19 13 13 13 13 13 13 14 14 14 11 11 11 
11 11 11 13 13 13 13 13 13 14 14 14 13 13 13 15 15 15 11 11 11 14 14 14 
11 11 11 13 13 13 15 15 15 26 33 27 35 34 34 39 38 39 35 34 34 35 34 34 
37 37 38 37 37 38 37 37 38 37 37 38 37 37 38 39 38 39 33 32 33 35 34 34 
18 18 19 14 14 14 14 14 14 13 13 13 15 15 15 13 13 13 14 14 14 11 11 11 
11 11 11 15 15 15 11 11 11 13 13 13 13 13 10 13 13 13 11 11 11 10 13 10 
23 23 23 35 34 34 39 38 39 39 38 39 39 38 39 25 21 24 13 13 13 14 14 14 
15 15 15 15 15 15 13 13 13 14 14 14 14 14 14 13 13 13 14 14 14 13 13 13 
11 11 11 14 14 14 14 14 14 13 13 13 13 13 13 11 11 11 11 11 11 14 14 14 
15 15 15 14 14 14 13 13 13 14 14 14 13 13 13 13 13 10 34 34 33 35 30 27 
38 13 15 38 13 15 38 13 15 38 13 15 38 13 15 38 13 15 34 14 15 31 12 13 
34 14 15 34 14 15 31 12 13 31 12 13 34 14 15 38 13 15 38 13 15 38 13 15 
38 13 15 31 23 20 34 34 33 25 21 24 14 14 14 11 11 11 11 11 11 13 13 13 
13 13 13 11 11 11 14 14 14 15 15 15 13 13 13 13 13 13 13 13 13 13 13 13 
11 11 11 11 11 11 11 11 11 14 14 14 11 11 11 13 13 13 10 10 10 13 13 13 
15 15 15 14 14 14 13 13 13 13 13 13 10 13 10 11 11 13 11 11 11 25 24 25 
35 34 34 37 36 36 35 34 34 35 34 34 35 34 34 28 27 29 10 10 10 13 13 10 
10 10 10 11 11 11 13 13 13 11 11 11 13 13 13 11 11 11 11 11 11 13 13 13 
11 11 11 11 11 11 11 11 11 10 10 10 9 9 9 11 11 11 11 11 11 11 11 11 

11 11 11 10 10 10 11 11 11 11 11 11 11 11 11 9 9 9 10 10 10 10 10 10 
10 10 10 10 10 10 11 11 11 10 10 10 11 11 11 7 7 7 10 10 10 10 10 10 
11 11 11 10 10 10 23 23 23 33 32 33 33 32 35 33 32 33 31 30 31 33 32 33 
15 15 15 13 13 13 15 15 15 13 13 13 11 11 11 14 14 14 14 14 14 15 15 15 
14 14 14 13 13 13 15 15 15 11 11 11 14 14 14 14 14 14 11 11 11 13 13 13 
14 14 14 11 11 11 13 13 13 13 13 13 13 13 10 21 21 18 33 33 31 33 32 33 
18 18 19 14 14 14 11 11 11 13 13 13 13 13 13 15 15 15 15 15 15 11 11 11 
15 15 15 14 14 14 14 14 14 14 14 14 17 18 16 30 31 30 25 21 24 14 14 14 
14 14 14 14 14 14 15 15 15 15 15 15 13 13 13 14 14 14 13 13 13 15 15 15 
15 15 15 11 11 11 15 15 15 11 11 11 13 13 13 11 11 11 13 13 13 11 11 11 
14 14 14 13 13 13 11 11 11 13 10 11 15 15 15 21 21 18 34 38 34 35 34 34 
37 37 38 35 34 34 31 30 31 15 15 15 13 13 13 14 14 14 15 15 15 11 11 11 
15 15 15 13 13 13 11 11 11 13 13 13 14 14 14 14 14 14 14 14 14 14 14 14 
13 13 13 11 11 11 13 13 10 30 31 30 35 34 34 35 34 34 34 34 33 37 37 38 
34 34 33 37 37 38 37 37 38 35 34 34 35 34 34 35 34 34 37 37 38 35 34 34 
18 10 13 13 13 13 14 14 14 13 13 13 15 15 15 13 13 13 11 11 11 15 15 15 
14 14 14 15 15 15 13 13 13 13 13 13 10 13 10 14 14 14 11 11 13 10 13 10 
31 29 26 37 37 38 37 37 38 37 37 38 37 37 38 25 21 24 11 11 11 14 14 14 
11 11 13 14 14 14 11 11 11 11 11 11 14 14 14 11 11 11 13 13 13 14 14 14 
13 13 13 13 13 13 14 14 14 13 13 13 13 13 13 11 11 11 13 13 13 15 15 15 
11 11 11 14 14 14 11 11 11 14 14 14 14 14 14 10 13 10 33 33 31 35 30 27 
38 13 15 38 13 15 38 13 15 38 13 15 38 13 15 38 13 15 34 14 15 31 12 13 
34 14 15 31 12 13 31 12 13 31 12 13 38 13 15 38 13 15 38 13 15 38 13 15 
38 13 15 35 30 27 37 36 36 25 21 24 13 10 11 13 13 13 11 11 11 13 13 13 
14 14 14 11 11 11 15 15 15 15 15 15 13 13 13 13 13 13 13 13 13 13 13 13 
15 15 15 11 11 11 13 13 13 14 14 14 13 13 13 13 13 13 13 13 13 13 13 13 
11 11 11 15 15 15 13 13 13 14 14 14 13 13 10 11 11 13 13 13 10 25 24 25 
35 34 34 37 36 36 37 36 36 37 36 36 35 34 34 31 30 31 9 9 9 10 13 10 
10 13 10 7 7 7 11 11 11 9 9 9 10 10 10 10 10 10 11 11 11 9 9 9 
11 11 11 11 11 11 10 10 10 11 11 11 10 10 10 11 11 11 9 9 9 9 9 9 

10 10 10 10 10 10 10 10 10 11 11 11 11 11 11 11 11 11 11 11 11 9 9 9 
10 10 10 11 11 11 10 10 10 11 11 11 14 14 14 11 11 11 11 11 11 9 9 9 
11 11 11 9 9 9 23 23 23 32 31 32 32 31 32 29 29 30 30 31 30 30 30 34 
17 18 16 13 13 13 11 11 11 11 11 11 14 14 14 13 13 13 14 14 14 14 14 14 
13 13 13 11 11 11 18 14 10 21 21 18 21 21 18 21 21 18 21 21 18 21 21 18 
21 21 18 21 21 18 21 21 18 21 21 18 17 18 16 23 23 23 29 29 30 29 29 30 
18 18 19 13 13 13 11 11 11 14 14 14 13 13 13 13 13 13 14 14 14 14 14 14 
13 13 13 11 11 11 14 14 14 14 14 14 18 18 19 27 26 26 25 24 25 21 21 18 
21 21 18 21 21 18 21 21 18 21 21 18 22 15 15 21 21 18 21 21 18 21 21 18 
31 23 20 22 15 15 13 13 10 14 14 14 13 13 13 14 14 14 14 14 14 15 15 15 
13 13 13 14 14 14 13 13 13 11 11 11 11 11 13 17 18 16 34 38 34 37 36 36 
35 34 34 34 34 33 35 34 34 23 18 20 11 11 13 11 11 11 14 14 14 11 11 11 
13 13 13 13 13 13 14 14 14 14 14 14 17 18 16 14 14 14 14 14 14 14 14 14 
15 15 15 15 15 15 21 21 18 33 33 31 37 36 36 35 34 34 35 34 34 35 34 34 
35 34 34 35 34 34 37 37 38 37 37 38 35 34 34 37 37 38 37 37 38 39 38 39 
25 21 24 14 14 14 14 14 14 13 13 13 14 14 14 13 13 13 15 15 15 11 11 13 
13 13 13 15 15 15 14 14 14 13 13 13 11 11 11 13 13 13 14 14 14 17 18 16 
33 33 31 35 34 34 37 37 38 35 34 34 35 34 34 25 21 24 13 10 11 11 11 11 
15 15 15 15 15 15 13 13 13 13 13 13 11 11 11 14 14 14 11 11 11 14 14 14 
13 13 13 13 13 13 13 13 13 14 14 14 11 11 11 15 15 15 11 11 11 13 13 13 
13 13 13 13 13 13 11 11 11 13 13 10 14 14 14 14 14 14 33 33 31 35 34 34 
34 14 15 34 14 15 38 13 15 38 13 15 38 13 15 38 13 15 31 12 13 31 12 13 
31 12 13 31 12 13 34 14 15 34 14 15 38 13 15 34 14 15 38 13 15 38 13 15 
34 14 15 35 30 27 35 34 34 25 21 24 14 14 14 13 13 13 13 13 13 15 15 15 
14 14 14 14 14 14 11 11 11 11 11 11 14 14 14 11 11 11 11 11 11 11 11 11 
13 13 13 14 14 14 14 14 14 11 11 11 11 11 11 14 14 14 15 15 15 13 13 13 
15 15 15 15 15 15 14 14 14 14 14 14 11 11 11 13 13 13 14 14 14 26 33 27 
35 34 34 35 34 34 35 34 34 37 36 36 33 32 33 31 30 31 9 9 9 13 13 10 
10 13 10 10 10 10 10 10 10 11 11 11 10 10 10 13 13 13 10 10 10 11 11 11 
10 10 10 11 11 11 11 11 11 11 11 11 11 11 11 10 10 10 11 11 11 10 10 10 

11 11 11 11 11 11 11 11 11 10 10 10 11 11 11 10 10 10 10 10 10 10 10 10 
11 11 11 11 11 11 9 9 9 11 11 11 11 11 11 11 11 11 9 9 9 7 7 7 
9 9 9 9 9 9 23 23 23 30 31 30 31 30 31 32 31 32 32 31 32 29 29 30 
13 13 13 13 13 13 14 14 14 15 15 15 14 14 14 11 11 11 11 11 11 11 11 11 
14 14 14 17 18 16 30 31 30 32 31 32 32 31 32 29 29 30 27 26 26 27 26 26 
28 27 29 30 31 30 29 29 30 27 26 26 30 31 30 28 27 29 28 27 29 28 27 29 
18 18 19 15 15 15 11 11 13 11 11 11 11 11 11 14 14 14 14 14 14 11 11 11 
11 11 11 13 13 13 13 13 13 13 13 13 15 15 15 23 23 23 28 27 29 31 30 31 
29 29 30 30 31 30 33 32 33 29 29 30 30 31 30 30 31 30 30 31 30 30 31 30 
33 33 31 33 32 33 17 18 16 13 13 13 10 10 10 11 11 13 14 14 14 13 13 13 
11 11 11 11 11 11 10 10 10 13 10 11 11 11 13 15 15 15 34 34 33 35 34 34 
37 37 38 35 34 34 37 36 36 33 32 33 23 18 20 13 10 11 13 13 13 15 15 15 
13 10 11 14 14 14 11 11 11 11 11 11 15 15 15 13 10 11 13 13 10 13 13 10 
14 14 14 21 21 18 33 33 31 35 34 34 37 37 38 35 34 34 37 37 38 37 37 38 
35 34 34 35 34 34 35 34 34 35 34 34 39 38 39 37 37 38 37 37 38 35 34 34 
33 32 33 23 18 20 18 14 10 14 14 14 13 10 11 13 13 10 14 14 14 13 13 10 
13 13 10 11 11 11 14 14 14 14 14 14 14 14 14 13 13 10 18 14 10 31 29 26 
34 38 34 35 34 34 35 34 34 35 34 34 37 37 38 25 21 24 13 10 11 13 10 11 
14 14 14 14 14 14 15 15 15 13 13 13 13 13 13 14 14 14 14 14 14 15 15 15 
11 11 11 14 14 14 13 13 13 15 15 15 13 13 13 15 15 15 15 15 15 14 14 14 
13 13 13 14 14 14 14 14 14 13 13 10 13 13 13 17 18 16 30 31 30 35 34 34 
35 30 27 34 14 15 38 13 15 38 13 15 38 13 15 34 14 15 34 14 15 34 14 15 
34 14 15 38 13 15 34 14 15 34 14 15 38 13 15 34 14 15 38 13 15 34 14 15 
31 23 20 34 34 33 35 34 34 25 21 24 15 15 15 14 14 14 14 14 14 15 15 15 
14 14 14 15 15 15 15 15 15 13 13 13 13 13 13 15 15 15 11 11 11 14 14 14 
13 13 13 15 15 15 13 13 13 14 14 14 11 11 11 11 11 11 11 11 11 11 11 11 
15 15 15 11 11 11 11 11 11 13 13 13 13 13 13 13 13 13 13 13 10 23 23 23 
34 34 33 35 34 34 35 34 34 35 34 34 35 34 34 25 21 24 9 9 9 10 13 10 
10 13 10 9 9 9 10 10 10 9 9 9 10 10 10 11 11 11 10 10 10 11 11 11 
11 11 11 11 11 11 11 11 11 9 9 9 11 11 11 11 11 11 10 10 10 11 11 11 

13 13 13 11 11 11 13 13 13 9 9 9 11 11 11 9 9 9 11 11 11 10 10 10 
9 9 9 11 11 11 11 11 11 11 11 11 11 11 11 10 10 10 10 10 10 11 11 11 
10 10 10 9 9 9 21 21 18 29 29 30 32 31 32 31 30 31 30 31 30 33 32 35 
15 15 15 14 14 14 13 13 13 13 13 13 11 11 11 13 13 13 14 14 14 13 13 13 
15 15 15 17 18 16 30 31 30 28 27 29 25 24 25 22 21 22 20 20 21 20 20 21 
18 18 19 20 20 21 20 20 21 22 21 22 22 21 22 23 23 23 20 20 21 23 23 23 
18 18 19 14 14 14 14 14 14 13 13 13 13 13 13 15 15 15 14 14 14 14 14 14 
15 15 15 14 14 14 11 11 11 13 13 13 15 15 15 20 20 21 20 20 21 25 24 25 
20 20 21 20 20 21 20 20 21 23 23 23 20 20 21 23 23 23 22 21 22 23 23 23 
27 26 26 34 34 33 22 21 22 14 14 14 15 15 15 15 15 15 14 14 14 13 13 13 
14 14 14 11 11 11 14 14 14 15 15 15 15 15 15 15 15 15 34 38 34 37 37 38 
35 34 34 35 34 34 37 37 38 37 36 36 40 38 33 35 30 27 35 30 27 35 30 27 
35 30 27 31 29 26 31 29 26 35 30 27 31 29 26 31 29 26 35 30 27 31 29 26 
35 30 27 33 33 31 34 34 33 35 34 34 35 34 34 35 34 34 35 34 34 35 34 34 
34 34 33 34 34 33 37 37 38 35 34 34 35 34 34 35 34 34 34 34 33 35 34 34 
37 36 36 33 33 31 33 33 31 35 30 27 31 29 26 31 29 26 31 29 26 31 29 26 
35 30 27 35 30 27 35 30 27 35 30 27 31 29 26 35 30 27 33 33 31 35 34 34 
37 37 38 34 34 33 35 34 34 37 37 38 35 35 37 23 18 20 13 10 11 11 11 11 
14 14 14 11 11 11 15 15 15 11 11 11 14 14 14 13 13 13 11 11 11 13 13 13 
11 11 11 11 11 11 11 11 11 15 15 15 13 13 13 13 13 13 11 11 11 11 11 11 
13 13 13 14 14 14 13 13 13 13 13 10 11 11 13 10 13 10 34 38 34 35 34 34 
35 34 34 35 30 27 38 13 15 38 13 15 34 14 15 38 13 15 31 12 13 34 14 15 
38 13 15 34 14 15 38 13 15 38 13 15 34 14 15 34 14 15 38 13 15 31 23 20 
33 33 31 35 34 34 34 34 33 25 21 24 14 14 14 15 15 15 14 14 14 11 11 11 
13 13 13 14 14 14 14 14 14 14 14 14 13 13 13 11 11 11 11 11 11 11 11 11 
11 11 11 14 14 14 15 15 15 14 14 14 11 11 11 13 13 13 11 11 11 13 13 13 
14 14 14 13 13 13 11 11 11 14 14 14 14 14 14 13 13 13 10 13 10 23 23 23 
35 34 34 33 32 33 33 32 33 35 34 34 33 32 33 28 27 29 9 9 9 10 13 10 
11 11 11 11 11 11 9 9 9 11 11 11 10 10 10 10 10 10 11 11 11 10 10 10 
11 11 11 10 10 10 11 11 11 15 15 15 11 11 11 13 13 13 11 11 11 13 13 13 

11 11 11 7 7 7 13 13 13 11 11 11 11 11 11 10 10 10 11 11 11 11 11 11 
11 11 11 10 10 10 10 10 10 11 11 11 13 13 13 11 11 11 10 10 10 11 11 11 
9 9 9 10 10 10 21 21 18 30 31 30 31 30 31 31 30 31 29 29 30 29 29 30 
15 15 15 11 11 11 13 13 13 15 15 15 14 14 14 14 14 14 13 13 13 11 11 11 
13 13 13 18 18 19 33 33 31 28 27 29 14 15 19 11 11 13 14 14 14 11 11 13 
14 14 14 13 13 13 15 15 15 15 15 15 15 15 15 14 14 14 11 11 13 11 11 13 
15 15 15 15 15 15 11 11 11 13 13 13 13 13 13 13 13 13 15 15 15 14 14 14 
11 11 11 11 11 11 13 13 13 11 11 11 13 13 13 15 15 15 11 11 13 14 15 19 
11 11 13 11 11 13 15 15 15 11 11 13 11 11 13 13 13 13 15 15 15 15 15 15 
21 21 18 31 30 31 25 21 24 15 15 15 10 10 10 11 11 11 14 14 14 11 11 11 
15 15 15 13 13 13 11 11 11 13 13 10 13 13 13 13 13 10 33 33 31 33 32 35 
35 34 34 35 34 34 35 34 34 35 34 34 35 34 34 34 38 34 35 35 37 35 34 34 
35 34 34 35 34 34 35 35 37 35 35 37 35 34 34 35 34 34 35 34 34 37 37 38 
37 37 38 35 34 34 35 35 37 35 34 34 35 34 34 35 34 34 37 37 38 35 34 34 
35 34 34 37 37 38 35 34 34 35 34 34 35 34 34 37 37 38 35 34 34 37 36 36 
35 34 34 35 34 34 37 36 36 33 33 31 34 38 34 34 34 33 35 34 34 35 35 37 
35 34 34 35 34 34 35 34 34 35 34 34 35 34 34 33 33 31 35 34 34 35 34 34 
35 34 34 34 34 33 35 34 34 35 34 34 37 37 38 25 21 24 14 14 14 13 13 13 
14 14 14 13 13 13 10 10 10 14 14 14 15 15 15 13 13 13 13 13 13 15 15 15 
14 14 14 15 15 15 11 11 11 13 13 13 11 11 11 15 15 15 14 14 14 14 14 14 
13 13 13 14 14 14 13 13 13 13 13 10 15 15 15 17 18 16 30 31 30 35 34 34 
34 34 33 33 32 33 35 30 27 34 14 15 34 14 15 34 14 15 38 13 15 34 14 15 
34 14 15 31 12 13 34 14 15 34 14 15 34 14 15 34 14 15 31 23 20 33 33 31 
32 31 32 33 33 31 33 32 35 25 21 24 13 13 13 11 11 11 11 11 11 14 14 14 
14 14 14 14 14 14 11 11 11 13 13 13 15 15 15 13 13 13 13 13 13 13 13 13 
14 14 14 15 15 15 13 13 13 13 13 13 13 13 13 13 13 13 14 14 14 11 11 11 
11 11 11 13 13 13 11 11 11 11 11 11 13 13 13 14 14 14 14 14 14 23 23 23 
35 34 34 33 32 33 35 34 34 35 34 34 35 34 34 28 27 29 9 9 9 10 13 10 
10 13 10 9 9 9 11 11 11 11 11 11 11 11 11 10 10 10 11 11 11 13 13 13 
11 11 11 9 9 9 11 11 11 11 11 11 11 11 11 11 11 11 11 11 11 11 11 11 

11 11 11 11 11 11 11 11 11 11 11 11 11 11 11 11 11 11 11 11 11 10 10 10 
10 10 10 11 11 11 10 10 10 11 11 11 10 10 10 11 11 11 10 10 10 10 10 10 
11 11 11 9 9 9 23 23 23 30 31 30 31 30 31 32 31 32 30 31 30 30 30 34 
15 15 15 14 14 14 15 15 15 11 11 11 13 13 13 11 11 11 13 13 13 13 13 13 
13 13 13 21 21 18 30 31 30 25 24 25 14 14 14 13 13 13 14 14 14 13 13 13 
13 13 13 13 13 13 14 14 14 13 13 13 13 13 13 14 14 14 13 13 13 13 13 13 
13 13 13 13 13 13 11 11 11 13 13 13 11 11 11 13 13 13 11 11 11 13 13 13 
14 14 14 11 11 11 11 11 11 11 11 11 11 11 11 14 14 14 13 13 10 11 11 11 
13 10 11 13 13 13 14 14 14 14 14 14 14 14 14 14 14 14 13 13 13 14 14 14 
15 15 15 29 29 30 23 18 20 11 11 13 11 11 11 11 11 11 14 14 14 13 13 13 
13 13 13 11 11 11 11 11 11 14 14 14 11 11 13 17 18 16 34 38 34 35 34 34 
33 32 33 35 34 34 35 34 34 35 34 34 37 37 38 35 34 34 37 36 36 34 34 33 
37 37 38 35 34 34 31 30 31 35 34 34 34 34 33 35 34 34 34 34 33 35 34 34 
33 32 33 35 34 34 35 34 34 37 37 38 37 37 38 35 34 34 34 34 33 37 37 38 
35 34 34 34 34 33 37 37 38 35 34 34 35 34 34 35 34 34 35 34 34 35 34 34 
33 32 33 35 34 34 35 34 34 32 31 32 35 34 34 34 34 33 33 32 33 34 34 33 
35 34 34 33 33 31 34 34 33 37 37 38 35 34 34 35 34 34 35 34 34 35 34 34 
35 34 34 34 34 33 34 34 33 35 34 34 35 34 34 25 21 24 13 13 10 14 14 14 
11 11 13 10 10 10 15 15 15 13 10 11 13 13 13 11 11 13 14 14 14 11 11 13 
10 10 10 11 11 11 13 10 11 13 13 13 11 11 11 10 10 10 14 14 14 11 11 11 
14 14 14 11 11 11 11 11 11 11 11 11 11 9 10 13 13 10 33 33 31 33 32 35 
35 34 34 37 36 36 33 32 33 35 30 27 31 23 20 34 14 15 34 14 15 34 14 15 
34 14 15 31 12 13 34 14 15 34 14 15 31 23 20 35 30 27 33 33 31 35 34 34 
35 34 34 35 34 34 33 32 35 23 18 20 13 10 11 11 9 10 15 15 15 11 11 13 
14 14 14 13 13 13 14 14 14 13 13 10 13 10 11 14 14 14 13 13 13 11 11 13 
14 14 14 13 13 13 15 15 15 15 15 15 14 14 14 13 13 13 11 11 11 15 15 15 
13 13 13 11 11 11 13 13 13 13 13 13 11 11 13 13 13 13 13 13 10 23 23 23 
35 34 34 33 32 33 32 31 32 31 30 31 35 34 34 28 27 29 9 9 9 14 14 14 
10 10 10 13 13 13 9 9 9 13 13 13 11 11 11 10 10 10 10 10 10 11 11 11 
11 11 11 11 11 11 9 9 9 11 11 11 11 11 11 11 11 11 10 10 10 10 10 10 

9 9 9 7 7 7 11 11 11 11 11 11 13 13 13 11 11 11 15 15 15 10 10 10 
7 7 7 11 11 11 11 11 11 13 13 13 10 10 10 9 9 9 11 11 11 11 11 11 
11 11 11 11 11 11 21 21 18 30 31 30 31 30 31 28 27 29 30 31 30 30 30 34 
14 14 14 13 13 13 11 11 11 14 14 14 14 14 14 11 11 11 14 14 14 11 11 11 
15 15 15 17 18 16 30 31 30 25 24 25 13 13 13 10 13 10 11 11 13 11 11 11 
13 13 13 13 13 13 11 11 11 11 11 11 11 11 11 11 11 11 14 14 14 11 11 11 
13 13 13 13 13 13 13 13 13 11 11 11 14 14 14 13 13 13 13 13 13 14 14 14 
11 11 11 13 13 13 11 11 11 13 13 13 14 14 14 15 15 15 15 15 15 13 13 13 
13 13 13 13 13 13 10 10 10 11 11 11 11 11 11 14 14 14 10 13 10 13 13 13 
15 15 15 30 31 30 25 21 24 15 15 15 14 14 14 11 11 13 15 15 15 13 13 13 
14 14 14 11 11 11 14 14 14 11 11 11 15 15 15 15 15 15 34 34 33 35 34 34 
34 34 33 35 34 34 35 34 34 35 34 34 33 32 33 34 34 33 35 34 34 33 32 33 
35 34 34 35 34 34 35 34 34 34 34 33 35 34 34 34 34 33 37 37 38 37 37 38 
33 32 33 35 34 34 37 37 38 35 34 34 35 34 34 37 37 38 35 34 34 35 34 34 
37 37 38 34 34 33 34 34 33 35 34 34 34 34 33 35 34 34 34 34 33 33 32 33 
35 34 34 35 34 34 35 34 34 35 34 34 35 34 34 35 34 34 37 37 38 37 37 38 
35 34 34 34 34 33 33 32 33 34 34 33 34 34 33 34 34 33 35 34 34 33 32 33 
35 34 34 35 34 34 35 34 34 34 34 33 37 37 38 25 21 24 13 13 13 14 14 14 
11 11 11 15 15 15 13 13 10 17 18 16 21 21 18 21 21 18 21 21 18 22 15 15 
22 15 15 21 21 18 31 23 20 21 21 18 22 15 15 21 21 18 21 21 18 21 21 18 
21 21 18 21 21 18 31 23 20 21 21 18 21 21 18 21 21 18 33 33 31 34 34 33 
35 34 34 35 34 34 32 31 32 35 34 34 33 33 31 35 30 27 35 30 27 31 23 20 
31 23 20 31 23 20 35 30 27 35 30 27 35 30 27 35 34 34 32 31 32 35 34 34 
35 34 34 35 34 34 37 36 36 23 18 20 23 18 20 17 18 16 22 15 15 22 15 15 
21 21 18 23 18 20 22 15 15 22 15 15 22 15 15 22 15 15 22 15 15 31 23 20 
22 15 15 22 15 15 22 15 15 22 15 15 22 15 15 18 14 10 13 10 11 13 13 10 
13 13 13 13 13 13 10 10 10 13 13 13 11 11 11 11 11 11 14 14 14 23 23 23 
33 33 31 33 32 33 31 30 31 33 32 33 37 36 36 27 26 26 7 7 7 10 13 10 
10 10 10 11 11 11 11 11 11 10 10 10 9 9 9 13 13 13 14 14 14 10 10 10 
11 11 11 11 11 11 11 11 11 11 11 11 11 11 11 10 10 10 11 11 11 13 13 13 

11 11 11 11 11 11 11 11 11 11 11 11 13 13 13 11 11 11 11 11 11 10 10 10 
9 9 9 11 11 11 10 10 10 13 13 13 11 11 11 10 10 10 11 11 11 9 9 9 
11 11 11 7 7 7 21 21 18 29 29 30 32 31 32 28 27 29 30 31 30 30 30 34 
15 15 15 13 13 13 11 11 11 13 13 13 13 13 13 13 13 13 10 10 10 11 11 11 
11 11 11 21 21 18 31 30 31 25 24 25 11 11 11 9 9 9 15 15 15 11 11 11 
10 10 10 9 9 9 9 9 9 10 10 10 10 10 10 14 14 14 15 15 15 14 14 14 
14 14 14 13 13 13 11 11 11 13 13 13 15 15 15 13 13 13 14 14 14 11 11 11 
14 14 14 13 13 13 13 13 13 11 11 11 15 15 15 13 13 13 11 11 11 11 11 11 
9 9 9 10 10 10 9 9 9 9 9 9 10 10 10 11 11 11 11 11 11 11 11 13 
17 18 16 29 29 30 25 21 24 15 15 15 11 11 11 15 15 15 14 14 14 14 14 14 
13 13 13 13 13 13 13 13 13 11 11 11 14 14 14 17 18 16 34 34 33 37 36 36 
35 34 34 34 34 33 34 34 33 35 34 34 35 34 34 34 34 33 35 34 34 34 34 33 
35 34 34 35 34 34 35 34 34 35 34 34 34 34 33 33 32 33 34 34 33 37 37 38 
35 34 34 35 34 34 34 34 33 37 37 38 35 34 34 34 34 33 34 34 33 35 34 34 
34 34 33 35 34 34 32 31 32 35 34 34 33 32 33 34 34 33 35 34 34 35 34 34 
34 34 33 33 32 33 32 31 32 33 32 33 35 34 34 35 34 34 35 34 34 33 32 33 
35 34 34 33 32 33 34 34 33 35 34 34 35 34 34 34 34 33 35 34 34 34 34 33 
34 34 33 34 34 33 35 34 34 34 34 33 35 34 34 23 18 20 11 11 11 11 11 11 
14 14 14 14 14 14 13 13 10 35 30 27 33 33 31 34 34 33 35 34 34 33 32 33 
33 32 33 35 34 34 34 34 33 33 33 31 30 31 30 33 32 33 33 32 33 29 29 30 
32 31 32 35 34 34 35 34 34 33 33 31 33 33 31 35 34 34 34 34 33 35 34 34 
34 34 33 32 31 32 33 32 33 31 30 31 33 32 33 35 34 34 34 34 33 33 33 31 
33 33 31 33 33 31 33 33 31 35 34 34 35 34 34 35 34 34 35 34 34 35 34 34 
33 32 33 34 34 33 33 32 33 35 34 34 33 33 31 34 34 33 33 33 31 34 34 33 
33 33 31 31 30 31 30 31 30 30 31 30 32 31 32 33 33 31 30 31 30 33 33 31 
32 31 32 33 32 33 34 34 33 33 33 31 34 34 33 33 33 31 18 10 13 13 13 13 
13 13 13 11 11 11 15 15 15 14 14 14 13 13 13 14 14 14 10 10 10 23 23 23 
35 34 34 33 32 33 33 32 33 32 31 32 34 34 33 28 27 29 9 9 9 13 13 13 
10 13 10 10 10 10 11 11 11 14 14 14 11 11 11 11 11 11 10 10 10 11 11 11 
11 11 11 11 11 11 9 9 9 11 11 11 13 13 13 11 11 11 10 10 10 11 11 11 

11 11 11 9 9 9 10 10 10 11 11 11 11 11 11 11 11 11 11 11 11 10 10 10 
10 10 10 10 10 10 10 10 10 10 10 10 11 11 11 11 11 11 11 11 11 11 11 11 
9 9 9 7 7 7 23 23 23 30 31 30 32 31 32 29 29 30 30 31 30 30 30 34 
14 14 14 13 13 13 14 14 14 13 13 13 13 13 13 14 14 14 14 14 14 11 11 11 
11 11 11 21 21 18 32 31 32 25 24 25 13 13 13 10 13 10 13 13 13 11 11 11 
9 9 9 9 9 9 10 10 10 7 7 7 11 11 11 11 11 11 14 14 14 11 11 11 
11 11 11 13 13 13 14 14 14 13 13 13 13 13 13 13 13 13 11 11 11 13 13 13 
15 15 15 13 13 13 10 10 10 14 14 14 13 13 13 15 15 15 11 11 11 11 11 11 
7 7 7 9 9 9 11 11 11 11 11 11 9 9 9 10 10 10 11 11 11 15 15 15 
17 18 16 28 27 29 25 21 24 15 15 15 10 13 10 14 14 14 11 11 11 15 15 15 
11 11 11 13 13 13 11 11 11 13 13 10 11 11 13 17 18 16 34 38 34 35 34 34 
35 34 34 34 34 33 35 34 34 34 34 33 35 34 34 34 34 33 34 34 33 35 34 34 
35 34 34 35 34 34 32 31 32 34 34 33 35 34 34 35 34 34 34 34 33 33 32 33 
35 34 34 35 34 34 35 34 34 35 34 34 35 34 34 35 34 34 35 34 34 34 34 33 
33 32 33 35 34 34 34 34 33 35 34 34 35 34 34 34 34 33 34 34 33 33 32 33 
35 34 34 35 34 34 34 34 33 32 31 32 33 32 33 37 37 38 34 34 33 34 34 33 
34 34 33 35 34 34 34 34 33 35 34 34 34 34 33 35 34 34 35 34 34 34 34 33 
35 34 34 35 34 34 35 34 34 35 34 34 35 34 34 25 21 24 14 14 14 11 11 11 
11 11 11 10 13 10 21 21 18 33 33 31 32 31 32 33 32 33 30 31 30 32 31 32 
33 32 33 30 30 34 30 30 34 30 30 34 28 27 29 25 24 25 25 21 24 25 24 25 
27 26 26 28 27 29 32 31 32 35 34 34 33 33 31 35 34 34 32 31 32 33 32 33 
35 34 34 33 32 33 35 34 34 33 32 33 35 34 34 35 34 34 35 34 34 33 32 33 
37 36 36 33 32 33 35 34 34 33 32 33 33 32 35 33 32 35 31 30 31 35 34 34 
34 34 33 34 34 33 32 31 32 32 31 32 31 30 31 31 30 31 33 32 35 30 30 34 
27 26 26 28 27 29 25 21 24 25 24 25 27 26 26 25 24 25 27 26 26 31 30 31 
34 34 33 33 32 33 33 32 33 32 31 32 33 32 33 32 31 32 22 21 22 15 15 15 
11 11 11 14 14 14 13 13 13 11 11 11 14 14 14 11 9 10 14 14 14 23 23 23 
34 34 33 35 34 34 35 34 34 33 32 33 35 34 34 25 24 25 11 9 10 10 13 10 
11 11 11 10 10 10 11 11 11 11 11 11 9 9 9 11 11 11 11 11 11 10 10 10 
13 13 13 10 10 10 10 10 10 11 11 11 9 9 9 11 11 11 10 10 10 11 11 11 

10 10 10 11 11 11 10 10 10 10 10 10 11 11 11 11 11 11 10 10 10 13 13 13 
11 11 11 10 10 10 11 11 11 10 10 10 11 11 11 11 11 11 10 10 10 13 13 13 
10 10 10 10 10 10 21 21 18 30 31 30 31 30 31 31 30 31 29 29 30 28 27 29 
15 15 15 11 11 11 11 11 11 14 14 14 15 15 15 10 10 10 13 13 13 14 14 14 
15 15 15 17 18 16 29 29 30 27 26 26 14 14 14 13 13 10 11 11 11 11 11 11 
10 10 10 9 9 9 10 10 10 11 11 11 11 11 11 13 13 13 15 15 15 11 11 11 
11 11 11 13 13 13 13 13 13 11 11 11 13 13 13 13 13 13 13 13 13 11 11 11 
14 14 14 14 14 14 15 15 15 15 15 15 14 14 14 14 14 14 11 11 11 13 13 13 
10 10 10 9 9 9 11 11 11 10 10 10 11 11 11 7 7 7 11 11 11 17 18 16 
17 18 16 31 29 26 25 21 24 15 15 15 15 15 15 15 15 15 14 14 14 14 14 14 
13 13 13 13 13 13 13 13 13 13 13 10 14 14 14 17 18 16 34 34 33 35 34 34 
34 34 33 34 34 33 34 34 33 33 33 31 33 32 33 34 34 33 34 34 33 34 34 33 
33 33 31 33 32 33 34 34 33 34 34 33 33 33 31 34 34 33 34 34 33 35 34 34 
33 32 33 33 32 33 34 34 33 35 34 34 35 34 34 34 34 33 35 34 34 34 34 33 
32 31 32 34 34 33 35 34 34 34 34 33 34 34 33 35 34 34 33 32 33 33 33 31 
35 34 34 32 31 32 35 34 34 35 34 34 35 34 34 35 34 34 35 34 34 33 32 33 
34 34 33 35 34 34 35 34 34 33 32 33 35 34 34 34 34 33 33 33 31 32 31 32 
35 34 34 34 34 33 35 34 34 34 34 33 37 36 36 23 18 20 13 13 13 13 13 13 
14 14 14 11 11 11 17 18 16 33 33 31 33 33 31 32 31 32 31 30 31 32 31 32 
31 30 31 27 26 26 31 23 20 31 23 20 34 14 15 31 12 13 34 14 15 31 23 20 
31 23 20 31 23 20 25 24 25 29 29 30 31 30 31 33 32 35 34 34 33 33 32 33 
35 34 34 33 32 33 35 34 34 33 32 33 35 34 34 32 31 32 33 32 33 32 31 32 
35 34 34 33 32 33 33 32 33 35 34 34 35 34 34 33 32 33 33 32 33 33 32 33 
32 31 32 35 34 34 30 31 30 34 34 33 32 31 32 31 30 31 25 24 25 25 21 24 
25 11 17 34 14 15 26 11 11 34 14 15 34 14 15 31 23 20 31 23 20 22 21 22 
27 26 26 30 31 30 33 32 33 33 32 33 32 31 32 33 32 33 23 18 20 15 15 15 
11 11 11 13 13 13 11 11 11 14 14 14 15 15 15 11 11 11 11 11 11 23 23 23 
33 33 31 31 30 31 35 34 34 35 34 34 37 36 36 28 27 29 9 9 9 15 15 15 
9 9 9 10 10 10 11 11 11 11 11 11 11 11 11 13 13 13 11 11 11 9 9 9 
10 10 10 11 11 11 11 11 11 11 11 11 7 7 7 10 10 10 9 9 9 11 11 11 

11 11 11 11 11 11 14 14 14 10 10 10 11 11 11 11 11 11 10 10 10 11 11 11 
11 11 11 9 9 9 11 11 11 10 10 10 11 11 11 10 10 10 10 10 10 9 9 9 
11 11 11 9 9 9 21 21 18 29 29 30 28 27 29 27 26 26 30 31 30 33 32 35 
15 15 15 14 14 14 11 11 11 13 13 13 11 11 11 14 14 14 11 11 11 14 14 14 
11 11 11 21 21 18 27 26 26 27 26 26 13 13 13 13 13 10 13 13 13 10 10 10 
9 9 9 10 10 10 10 10 10 11 11 11 11 11 11 9 9 9 11 11 11 13 13 13 
15 15 15 11 11 11 11 11 11 14 14 14 13 13 13 14 14 14 15 15 15 13 13 13 
13 13 13 13 13 13 13 13 13 15 15 15 11 11 11 15 15 15 13 13 13 14 14 14 
10 10 10 9 9 9 9 9 9 9 9 9 11 11 11 10 10 10 10 10 10 13 13 13 
17 18 16 28 27 29 23 18 20 15 15 15 11 11 11 11 9 10 11 11 11 11 11 11 
13 13 13 13 13 13 15 15 15 11 11 11 13 13 13 13 13 13 25 24 25 33 32 35 
34 34 33 30 30 34 30 30 34 30 30 34 30 30 34 33 32 35 33 32 35 30 30 34 
30 30 34 29 29 30 33 32 35 30 30 34 33 32 35 30 30 34 33 32 35 33 32 35 
30 30 34 33 32 35 30 30 34 33 32 35 33 32 35 33 32 35 30 30 34 30 30 34 
30 30 34 33 32 35 33 32 35 30 30 34 30 30 34 30 30 34 33 32 35 33 32 35 
33 32 35 30 30 34 30 30 34 33 32 35 33 32 35 30 30 34 33 32 35 30 30 34 
33 32 35 35 35 37 33 32 35 30 30 34 30 30 34 33 32 35 30 30 34 30 30 34 
30 30 34 30 30 34 33 32 35 33 32 35 28 27 29 14 14 14 13 13 13 13 13 13 
11 11 11 13 13 10 17 18 16 35 34 34 32 31 32 33 32 33 32 31 32 31 30 31 
25 21 24 34 14 15 34 14 15 34 14 15 34 14 15 31 12 13 34 14 15 34 14 15 
34 14 15 34 14 15 31 12 13 25 21 24 27 26 26 30 30 34 33 32 33 33 32 33 
33 32 33 31 30 31 35 34 34 31 30 31 35 34 34 33 32 33 33 32 33 31 30 31 
33 32 33 35 34 34 35 34 34 32 31 32 32 31 32 32 31 32 32 31 32 35 34 34 
33 32 33 33 32 33 33 32 33 33 32 33 31 30 31 25 21 24 34 14 15 31 12 13 
34 14 15 34 14 15 34 14 15 34 14 15 34 14 15 34 14 15 34 14 15 34 14 15 
25 21 24 25 24 25 30 31 30 34 34 33 33 33 31 35 35 37 23 18 20 13 13 13 
11 11 11 13 13 13 11 11 11 11 11 11 15 15 15 13 13 13 10 13 10 23 23 23 
35 34 34 32 31 32 32 31 32 32 31 32 35 34 34 28 27 29 9 9 9 14 14 14 
10 10 10 11 11 11 10 10 10 11 11 11 11 11 11 9 9 9 10 10 10 11 11 11 
10 10 10 10 10 10 10 10 10 11 11 11 7 7 7 11 11 11 10 10 10 11 11 11 

10 10 10 10 10 10 11 11 11 10 10 10 11 11 11 10 10 10 9 9 9 13 13 13 
11 11 11 9 9 9 10 10 10 11 11 11 11 11 11 11 11 11 9 9 9 9 9 9 
10 10 10 11 11 11 21 21 18 28 27 29 28 27 29 28 27 29 30 31 30 30 30 34 
15 15 15 14 14 14 11 11 11 14 14 14 14 14 14 13 13 13 14 14 14 11 11 11 
10 13 10 17 18 16 28 27 29 27 26 26 14 14 14 10 13 10 13 13 13 11 11 11 
7 7 7 11 11 11 11 11 11 11 11 11 13 13 13 11 11 11 14 14 14 14 14 14 
15 15 15 13 13 13 13 13 13 14 14 14 15 15 15 15 15 15 13 13 13 11 11 11 
15 15 15 13 13 13 10 10 10 14 14 14 15 15 15 14 14 14 11 11 11 11 11 11 
9 9 9 11 11 11 11 11 11 7 7 7 11 11 11 15 15 15 11 11 13 13 13 13 
17 18 16 31 29 26 23 18 20 15 15 15 17 18 16 14 14 14 14 14 14 13 13 13 
13 13 13 11 11 11 14 14 14 13 13 13 14 14 14 14 14 14 14 14 14 14 15 19 
14 15 19 14 15 19 14 15 19 14 15 19 14 15 19 14 15 19 14 15 19 14 15 19 
14 15 19 14 15 19 14 15 19 11 11 13 14 15 19 11 11 13 11 11 13 14 15 19 
14 15 19 14 15 19 14 15 19 14 15 19 14 15 19 14 15 19 14 15 19 11 11 13 
14 15 19 14 15 19 14 15 19 18 18 19 14 15 19 18 18 19 14 15 19 14 15 19 
14 15 19 14 15 19 14 15 19 14 15 19 14 15 19 14 15 19 14 15 19 14 15 19 
14 15 19 14 14 14 14 15 19 14 15 19 14 15 19 11 11 13 14 15 19 14 15 19 
14 15 19 14 15 19 14 15 19 14 15 19 11 11 13 11 11 13 11 11 11 14 14 14 
11 11 11 13 13 10 17 18 16 31 30 31 34 34 33 33 32 33 29 29 30 25 21 24 
34 14 15 34 14 15 31 12 13 34 14 15 38 13 15 34 14 15 31 12 13 34 14 15 
31 12 13 34 14 15 34 14 15 34 14 15 23 18 20 25 24 25 32 31 32 29 29 30 
31 30 31 33 32 33 31 30 31 32 31 32 32 31 32 32 31 32 32 31 32 32 31 32 
31 30 31 32 31 32 33 32 33 33 32 33 33 32 33 31 30 31 35 34 34 33 32 33 
32 31 32 33 32 33 32 31 32 32 31 32 31 23 20 34 14 15 34 14 15 34 14 15 
34 14 15 34 14 15 34 14 15 34 14 15 31 12 13 34 14 15 34 14 15 34 14 15 
34 14 15 31 23 20 27 26 26 29 29 30 32 31 32 35 34 34 18 18 19 14 14 14 
14 14 14 14 14 14 14 14 14 14 14 14 11 11 11 13 13 13 14 14 14 21 21 18 
33 33 31 33 32 33 33 32 33 31 30 31 33 32 33 28 27 29 9 9 9 15 15 15 
10 13 10 9 9 9 11 11 11 11 11 11 11 11 11 10 10 10 11 11 11 10 10 10 
11 11 11 11 11 11 11 11 11 11 11 11 11 11 11 11 11 11 13 13 13 11 11 11 

11 11 11 11 11 11 10 10 10 9 9 9 11 11 11 9 9 9 7 7 7 11 11 11 
10 10 10 9 9 9 11 11 11 9 9 9 11 11 11 11 11 11 10 10 10 11 11 11 
9 9 9 7 7 7 21 21 18 28 27 29 30 30 34 29 29 30 29 29 30 30 30 34 
13 13 13 11 11 11 14 14 14 13 13 13 15 15 15 11 11 11 15 15 15 15 15 15 
10 13 10 17 18 16 32 31 32 25 24 25 15 15 15 10 13 10 13 13 13 13 13 13 
11 11 11 10 10 10 14 14 14 11 11 11 11 11 11 11 11 11 11 11 11 14 14 14 
13 13 13 13 13 13 11 11 11 14 14 14 14 14 14 11 11 11 11 11 11 13 13 13 
13 13 13 13 13 13 11 11 11 14 14 14 14 14 14 14 14 14 11 11 11 11 11 11 
13 13 13 14 14 14 11 11 11 14 14 14 13 13 13 11 11 13 15 15 15 13 13 13 
17 18 16 30 31 30 23 18 20 11 9 10 11 11 13 13 13 13 13 13 13 13 13 13 
11 11 11 13 13 13 10 10 10 14 14 14 13 13 13 13 13 13 13 13 13 14 14 14 
11 11 13 15 15 15 11 11 13 11 11 13 14 14 14 11 11 13 14 14 14 13 13 13 
13 13 13 13 13 13 15 15 15 11 11 13 13 13 13 13 13 13 13 13 13 14 14 14 
14 14 14 13 13 13 13 13 13 11 11 11 14 14 14 13 13 13 14 14 14 15 15 15 
15 15 15 13 13 13 13 13 13 11 11 13 14 14 14 11 11 13 14 14 14 11 11 11 
14 14 14 11 11 11 13 13 13 9 9 9 13 13 13 11 11 11 13 13 13 14 14 14 
13 13 10 10 13 10 13 13 10 11 11 11 14 14 14 11 11 11 15 15 15 11 11 11 
14 14 14 11 11 13 10 13 10 13 13 10 14 14 14 11 11 11 13 13 13 13 13 13 
14 14 14 13 10 11 17 18 16 33 33 31 33 32 33 33 32 33 25 21 24 31 23 20 
34 14 15 34 14 15 34 14 15 34 14 15 34 14 15 34 14 15 31 12 13 34 14 15 
34 14 15 34 14 15 31 12 13 34 14 15 34 14 15 23 18 20 27 26 26 33 32 33 
31 30 31 31 30 31 32 31 32 31 30 31 32 31 32 33 32 33 33 32 33 33 32 33 
31 30 31 33 32 33 33 32 33 33 32 33 31 30 31 32 31 32 31 30 31 31 30 31 
31 30 31 33 32 33 32 31 32 25 21 24 34 14 15 34 14 15 34 14 15 31 12 13 
31 12 13 31 12 13 34 14 15 34 14 15 34 14 15 34 14 15 34 14 15 34 14 15 
34 14 15 34 14 15 31 23 20 27 26 26 33 33 31 33 32 35 18 18 19 13 13 13 
11 11 11 14 14 14 14 14 14 14 14 14 13 13 13 13 10 11 10 13 10 23 23 23 
33 33 31 35 34 34 32 31 32 31 30 31 31 30 31 27 26 26 13 10 11 14 14 14 
11 11 11 11 11 11 11 11 11 9 9 9 10 10 10 10 10 10 11 11 11 10 10 10 
11 11 11 11 11 11 9 9 9 11 11 11 11 11 11 10 10 10 11 11 11 10 10 10 

7 7 7 10 10 10 9 9 9 10 10 10 9 9 9 10 10 10 10 10 10 11 11 11 
11 11 11 10 10 10 13 13 13 11 11 11 10 10 10 10 10 10 11 11 11 11 11 11 
9 9 9 11 11 11 21 21 18 27 26 26 28 27 29 28 27 29 28 27 29 29 29 30 
13 13 13 13 13 13 13 13 13 11 11 11 14 14 14 11 11 11 14 14 14 11 11 11 
11 11 11 17 18 16 30 31 30 25 24 25 15 15 15 13 13 10 11 11 11 14 14 14 
11 11 11 14 14 14 11 11 11 11 11 11 13 13 13 11 11 11 13 13 13 14 14 14 
14 14 14 13 13 13 11 11 11 14 14 14 11 11 11 11 11 11 13 13 13 11 11 11 
15 15 15 14 14 14 13 13 13 11 11 11 15 15 15 14 14 14 13 13 13 13 13 13 
11 11 11 11 11 11 13 13 13 14 14 14 13 13 13 11 11 11 11 11 11 14 14 14 
17 18 16 28 27 29 23 18 20 14 14 14 14 14 14 11 11 11 13 13 13 11 11 11 
14 14 14 13 13 13 11 11 11 11 11 11 14 14 14 13 13 13 11 11 11 13 13 10 
17 18 16 13 13 10 13 13 10 15 15 15 13 13 10 13 13 10 17 18 16 15 15 15 
13 13 10 15 15 15 15 15 15 13 10 11 13 10 11 13 13 10 14 14 14 17 18 16 
13 13 10 14 14 14 14 14 14 14 14 14 15 15 15 17 18 16 13 10 11 13 13 10 
14 14 14 14 14 14 13 13 10 13 13 10 13 13 10 18 14 10 18 14 10 13 13 10 
14 14 14 14 14 14 15 15 15 13 13 10 13 13 10 18 14 10 13 13 10 15 15 15 
15 15 15 13 13 10 13 13 10 18 14 10 14 14 14 13 13 10 14 14 14 14 14 14 
13 13 10 13 13 10 13 10 11 13 13 10 13 10 11 13 13 10 13 13 13 14 14 14 
15 15 15 14 14 14 17 18 16 33 33 31 32 31 32 27 26 26 31 12 13 34 14 15 
31 12 13 34 14 15 31 12 13 34 14 15 34 14 15 31 12 13 31 12 13 31 12 13 
34 14 15 31 12 13 34 14 15 34 14 15 34 14 15 34 14 15 25 21 24 33 32 33 
33 32 33 31 30 31 31 30 31 32 31 32 33 32 33 33 32 33 32 31 32 32 31 32 
32 31 32 32 31 32 32 31 32 33 32 33 35 34 34 33 32 33 31 30 31 33 32 33 
31 30 31 31 30 31 27 26 26 34 14 15 34 14 15 34 14 15 31 12 13 34 14 15 
26 11 11 34 14 15 34 14 15 31 12 13 34 14 15 34 14 15 26 11 11 31 12 13 
31 12 13 34 14 15 34 14 15 25 21 24 28 27 29 33 32 35 18 18 19 13 13 13 
14 14 14 9 9 9 14 14 14 11 11 11 14 14 14 15 15 15 13 13 10 21 21 18 
33 33 31 32 31 32 35 34 34 31 30 31 33 32 33 25 21 24 10 10 10 15 15 15 
10 13 10 9 9 9 10 10 10 9 9 9 10 10 10 10 10 10 11 11 11 7 7 7 
11 11 11 13 13 13 7 7 7 11 11 11 10 10 10 11 11 11 11 11 11 11 11 11 

9 9 9 9 9 9 9 9 9 10 10 10 13 13 13 11 11 11 10 10 10 11 11 11 
11 11 11 11 11 11 11 11 11 11 11 11 9 9 9 14 14 14 11 11 11 11 11 11 
10 10 10 10 10 10 21 21 18 28 27 29 29 29 30 27 26 26 29 29 30 29 29 30 
15 15 15 11 11 11 11 11 11 11 11 11 15 15 15 14 14 14 11 11 11 15 15 15 
15 15 15 21 21 18 28 27 29 25 24 25 14 14 14 13 13 10 10 13 10 13 13 13 
15 15 15 13 13 13 11 11 11 13 13 13 13 13 10 13 13 10 11 11 11 11 11 11 
13 10 11 13 10 11 15 15 15 13 13 13 11 11 11 11 11 11 13 13 13 13 13 13 
14 14 14 13 13 13 13 10 11 13 10 11 11 11 11 14 14 14 14 14 14 14 14 14 
15 15 15 11 11 11 14 14 14 13 13 13 13 13 13 13 13 13 15 15 15 13 13 10 
17 18 16 30 31 30 20 20 21 13 13 13 13 13 13 13 13 13 13 13 13 13 13 13 
13 13 13 11 11 11 11 11 11 13 13 13 13 13 13 11 11 11 18 18 19 22 21 22 
22 21 22 22 21 22 21 21 18 21 21 18 21 21 18 23 23 23 21 21 18 23 23 23 
22 21 22 23 23 23 21 21 18 21 21 18 22 21 22 23 23 23 21 21 18 23 23 23 
21 21 18 21 21 18 23 23 23 21 21 18 23 23 23 25 21 24 21 21 18 21 21 18 
25 24 25 21 21 18 21 21 18 23 23 23 21 21 18 23 23 23 21 21 18 22 21 22 
23 18 20 23 23 23 21 21 18 25 24 25 21 21 18 22 21 22 21 21 18 22 21 22 
22 21 22 21 21 18 21 21 18 21 21 18 23 23 23 22 21 22 23 18 20 21 21 18 
21 21 18 23 23 23 23 23 23 23 23 23 23 18 20 13 10 11 13 10 11 13 13 13 
14 14 14 11 11 11 17 18 16 32 31 32 32 31 32 31 23 20 34 14 15 31 12 13 
34 14 15 31 12 13 34 14 15 34 14 15 34 14 15 31 12 13 31 12 13 34 14 15 
34 14 15 34 14 15 34 14 15 34 14 15 34 14 15 31 12 13 31 23 20 27 26 26 
32 31 32 33 32 33 32 31 32 32 31 32 31 30 31 31 30 31 28 27 29 33 32 33 
31 30 31 32 31 32 31 30 31 32 31 32 32 31 32 31 30 31 32 31 32 31 30 31 
32 31 32 32 31 32 31 23 20 34 14 15 34 14 15 34 14 15 31 12 13 31 12 13 
31 12 13 31 12 13 31 12 13 34 14 15 34 14 15 31 12 13 26 11 11 34 14 15 
34 14 15 34 14 15 34 14 15 31 23 20 27 26 26 32 31 32 18 18 19 11 11 11 
15 15 15 13 13 13 13 13 13 11 11 11 11 11 11 13 10 11 13 13 10 23 23 23 
33 33 31 31 30 31 31 30 31 28 27 29 31 30 31 27 26 26 9 9 9 10 13 10 
10 10 10 11 11 11 13 13 13 10 10 10 11 11 11 11 11 11 11 11 11 11 11 11 
13 13 13 13 13 13 9 9 9 13 13 13 11 11 11 11 11 11 11 11 11 11 11 11 

10 10 10 11 11 11 11 11 11 13 13 13 11 11 11 11 11 11 13 13 13 11 11 11 
11 11 11 11 11 11 10 10 10 10 10 10 11 11 11 9 9 9 11 11 11 10 10 10 
11 11 11 10 10 10 21 21 18 27 26 26 28 27 29 28 27 29 28 27 29 28 27 29 
14 14 14 13 13 13 14 14 14 14 14 14 15 15 15 14 14 14 11 11 11 13 13 13 
13 13 13 21 21 18 30 31 30 31 29 26 22 15 15 22 15 15 18 14 10 22 15 15 
22 15 15 22 15 15 17 18 16 17 18 16 18 14 10 18 14 10 17 18 16 15 15 15 
13 13 13 13 13 13 13 10 11 11 11 11 13 13 13 11 11 11 13 13 13 13 13 13 
11 11 11 11 11 11 14 14 14 13 13 13 13 13 10 15 15 15 17 18 16 17 18 16 
17 18 16 17 18 16 17 18 16 17 18 16 17 18 16 22 15 15 17 18 16 17 18 16 
27 26 26 32 31 32 23 18 20 13 13 13 13 13 13 14 14 14 13 13 13 13 13 13 
13 13 13 14 14 14 13 13 13 14 14 14 14 14 14 15 15 15 20 20 21 22 21 22 
20 20 21 20 20 21 23 18 20 20 20 21 23 18 20 22 21 22 22 21 22 18 18 19 
20 20 21 22 21 22 22 21 22 23 18 20 22 21 22 20 20 21 18 18 19 20 20 21 
23 23 23 21 21 18 21 21 18 17 18 16 21 21 18 23 23 23 23 18 20 23 23 23 
22 21 22 22 21 22 22 21 22 23 18 20 22 21 22 18 18 19 21 21 18 25 21 24 
23 18 20 21 21 18 22 21 22 23 18 20 18 18 19 22 21 22 22 21 22 22 21 22 
20 20 21 23 18 20 18 18 19 22 21 22 23 23 23 22 21 22 21 21 18 22 21 22 
23 18 20 23 18 20 18 18 19 23 23 23 25 24 25 17 18 16 15 15 15 14 14 14 
11 11 11 10 10 10 17 18 16 33 33 31 31 30 31 31 12 13 34 14 15 34 14 15 
34 14 15 34 14 15 34 14 15 34 14 15 34 14 15 31 12 13 26 11 11 31 12 13 
34 14 15 31 12 13 34 14 15 34 14 15 34 14 15 31 12 13 34 14 15 25 24 25 
31 30 31 32 31 32 32 31 32 32 31 32 35 34 34 33 32 33 33 32 33 31 30 31 
32 31 32 35 34 34 31 30 31 35 34 34 31 30 31 32 31 32 32 31 32 31 30 31 
32 31 32 31 30 31 31 23 20 31 12 13 34 14 15 31 12 13 31 12 13 31 12 13 
31 12 13 31 12 13 26 11 11 26 11 11 31 12 13 26 11 11 31 12 13 34 14 15 
34 14 15 34 14 15 34 14 15 34 14 15 27 26 26 33 32 33 23 18 20 11 11 11 
13 13 13 15 15 15 11 11 11 14 14 14 14 14 14 11 11 11 14 14 14 23 23 23 
30 31 30 32 31 32 31 30 31 33 32 33 31 30 31 28 27 29 9 9 9 15 15 15 
10 13 10 10 10 10 11 11 11 11 11 11 10 10 10 11 11 11 10 10 10 9 9 9 
10 10 10 14 14 14 11 11 11 7 7 7 10 10 10 9 9 9 10 10 10 11 11 11 

9 9 9 11 11 11 11 11 11 11 11 11 11 11 11 11 11 11 11 11 11 10 10 10 
11 11 11 11 11 11 11 11 11 11 11 11 11 11 11 10 10 10 10 10 10 10 10 10 
9 9 9 10 10 10 21 21 18 28 27 29 28 27 29 29 29 30 29 29 30 31 30 31 
15 15 15 11 11 11 14 14 14 13 13 13 13 13 13 11 11 11 15 15 15 11 11 11 
14 14 14 17 18 16 29 29 30 30 31 30 28 27 29 27 26 26 27 26 26 31 29 26 
31 29 26 31 29 26 27 26 26 31 29 26 31 29 26 31 29 26 31 29 26 25 24 25 
13 13 13 13 10 11 14 14 14 11 11 11 11 11 11 11 11 11 14 14 14 14 14 14 
11 11 11 13 13 13 13 10 11 14 14 14 21 21 18 31 29 26 33 33 31 31 29 26 
31 29 26 31 29 26 31 29 26 33 33 31 33 33 31 33 33 31 31 29 26 31 29 26 
30 31 30 32 31 32 22 21 22 13 13 13 11 11 11 15 15 15 14 14 14 11 11 11 
13 13 13 15 15 15 15 15 15 14 14 14 11 11 11 15 15 15 22 21 22 22 15 15 
22 15 15 22 15 15 22 15 15 22 15 15 22 15 15 22 10 14 22 15 15 23 18 20 
22 10 14 22 15 15 22 15 15 23 18 20 23 18 20 22 15 15 22 15 15 22 15 15 
25 11 17 22 15 15 22 15 15 22 15 15 23 18 20 22 21 22 22 15 15 23 18 20 
23 23 23 23 23 23 23 23 23 20 20 21 23 23 23 23 18 20 22 10 14 22 15 15 
22 15 15 23 18 20 25 21 24 22 15 15 23 18 20 17 18 16 23 18 20 23 18 20 
23 18 20 22 15 15 22 15 15 22 15 15 22 21 22 23 18 20 22 15 15 23 18 20 
23 18 20 22 15 15 20 20 21 23 23 23 23 23 23 17 18 16 11 11 11 14 14 14 
14 14 14 13 13 13 17 18 16 31 30 31 31 29 26 34 14 15 34 14 15 34 14 15 
31 12 13 34 14 15 34 14 15 34 14 15 34 14 15 31 12 13 31 12 13 34 14 15 
31 12 13 34 14 15 31 12 13 31 12 13 34 14 15 34 14 15 34 14 15 31 23 20 
30 31 30 31 30 31 32 31 32 32 31 32 32 31 32 32 31 32 31 30 31 28 27 29 
31 30 31 31 30 31 32 31 32 32 31 32 32 31 32 31 30 31 33 32 33 31 30 31 
32 31 32 27 26 26 34 14 15 34 14 15 34 14 15 34 14 15 34 14 15 34 14 15 
34 14 15 31 12 13 26 11 11 26 11 11 26 11 11 26 11 11 31 12 13 34 14 15 
34 14 15 34 14 15 34 14 15 31 12 13 31 23 20 32 31 32 23 18 20 13 13 10 
11 11 11 11 11 11 13 13 13 13 13 13 11 11 13 13 10 11 13 13 10 21 21 18 
30 31 30 31 30 31 31 30 31 31 30 31 31 30 31 25 21 24 11 11 11 10 13 10 
7 7 7 11 11 11 11 11 11 10 10 10 11 11 11 11 11 11 11 11 11 9 9 9 
13 13 13 10 10 10 10 10 10 11 11 11 10 10 10 11 11 11 13 13 13 9 9 9 

11 11 11 10 10 10 13 13 13 11 11 11 11 11 11 11 11 11 9 9 9 11 11 11 
10 10 10 11 11 11 11 11 11 11 11 11 11 11 11 11 11 11 10 10 10 10 10 10 
11 11 11 10 10 10 23 23 23 28 27 29 28 27 29 28 27 29 28 27 29 31 30 31 
17 18 16 15 15 15 11 11 11 14 14 14 11 11 11 11 11 11 13 13 13 11 11 11 
14 14 14 14 14 14 27 26 26 28 27 29 29 29 30 29 29 30 28 27 29 31 30 31 
32 31 32 29 29 30 29 29 30 29 29 30 32 31 32 30 31 30 31 30 31 27 26 26 
13 13 13 13 13 10 13 13 10 14 14 14 14 14 14 13 13 13 14 14 14 13 13 13 
9 9 9 13 13 13 13 13 13 13 13 13 21 21 18 31 29 26 32 31 32 30 31 30 
30 30 34 33 32 33 32 31 32 34 34 33 31 30 31 32 31 32 31 30 31 29 29 30 
33 32 33 30 30 34 14 14 14 14 14 14 11 11 11 14 14 14 11 11 11 14 14 14 
14 14 14 11 11 11 11 11 11 11 11 11 11 11 11 15 15 15 22 21 22 17 18 16 
21 21 18 22 15 15 22 15 15 22 15 15 22 10 14 22 15 15 17 18 16 23 18 20 
22 15 15 23 18 20 21 21 18 21 21 18 22 15 15 22 15 15 23 18 20 23 18 20 
22 15 15 22 15 15 21 21 18 21 21 18 23 23 23 20 20 21 22 15 15 23 18 20 
23 23 23 22 21 22 23 18 20 23 18 20 22 21 22 22 21 22 17 18 16 23 18 20 
22 15 15 17 18 16 23 23 23 22 15 15 25 21 24 23 18 20 22 15 15 26 11 11 
22 15 15 22 15 15 22 15 15 22 15 15 23 18 20 23 18 20 22 15 15 23 18 20 
23 18 20 22 15 15 23 18 20 23 23 23 22 21 22 15 15 15 13 13 13 11 11 11 
11 11 11 13 13 13 17 18 16 31 30 31 31 29 26 31 12 13 34 14 15 34 14 15 
31 12 13 31 12 13 34 14 15 34 14 15 31 12 13 31 12 13 26 11 11 34 14 15 
31 12 13 34 14 15 31 12 13 31 12 13 31 12 13 34 14 15 31 12 13 31 23 20 
30 31 30 33 32 33 33 32 33 31 30 31 29 29 30 31 30 31 31 30 31 31 30 31 
31 30 31 31 30 31 28 27 29 32 31 32 31 30 31 32 31 32 32 31 32 31 30 31 
28 27 29 31 29 26 31 12 13 31 12 13 31 12 13 34 14 15 34 14 15 34 14 15 
34 14 15 26 11 11 31 12 13 26 11 11 26 11 11 26 11 11 34 14 15 34 14 15 
34 14 15 34 14 15 31 12 13 31 12 13 31 23 20 31 30 31 23 18 20 13 13 10 
13 13 13 13 13 13 11 11 11 14 14 14 14 14 14 14 14 14 10 13 10 23 23 23 
33 33 31 32 31 32 31 30 31 31 30 31 32 31 32 25 24 25 11 11 11 14 14 14 
9 9 9 13 10 11 11 11 11 10 10 10 10 10 10 11 11 11 10 10 10 7 7 7 
11 11 11 9 9 9 10 10 10 10 10 10 9 9 9 11 11 11 13 13 13 10 10 10 

13 13 13 10 10 10 9 9 9 11 11 11 10 10 10 13 13 13 11 11 11 11 11 11 
9 9 9 11 11 11 11 11 11 11 11 11 7 7 7 11 11 11 10 10 10 11 11 11 
10 10 10 7 7 7 21 21 18 28 27 29 28 27 29 28 27 29 27 26 26 32 31 32 
15 15 15 14 14 14 11 11 11 14 14 14 11 11 11 13 13 13 13 13 13 11 11 11 
15 15 15 10 13 10 14 15 19 20 20 21 22 21 22 20 20 21 20 20 21 18 18 19 
23 23 23 20 20 21 20 20 21 20 20 21 20 20 21 25 24 25 31 30 31 28 27 29 
13 13 13 10 13 10 13 13 10 10 10 10 10 10 10 13 13 13 11 11 11 14 14 14 
14 14 14 13 13 13 10 10 10 11 11 11 21 21 18 29 29 30 28 27 29 22 21 22 
23 23 23 20 20 21 18 18 19 20 20 21 20 20 21 20 20 21 20 20 21 20 20 21 
20 20 21 14 15 19 11 11 13 14 14 14 11 11 11 11 11 11 13 13 13 11 11 11 
11 11 11 13 13 13 13 13 13 14 14 14 14 14 14 15 15 15 22 21 22 23 18 20 
22 15 15 22 15 15 25 11 17 23 18 20 25 11 17 22 15 15 25 11 17 22 15 15 
22 15 15 23 18 20 22 21 22 23 18 20 25 11 17 23 18 20 23 18 20 22 15 15 
26 11 11 23 18 20 21 21 18 21 21 18 23 18 20 23 18 20 18 14 10 23 18 20 
22 21 22 22 21 22 23 23 23 18 18 19 21 21 18 22 15 15 22 15 15 22 15 15 
22 15 15 23 18 20 23 18 20 22 15 15 23 18 20 23 18 20 22 15 15 25 11 17 
26 11 11 23 18 20 17 18 16 22 10 14 23 18 20 22 15 15 22 15 15 23 18 20 
23 18 20 22 15 15 21 21 18 22 21 22 23 23 23 17 18 16 13 13 13 11 11 11 
11 11 11 14 14 14 17 18 16 32 31 32 31 29 26 34 14 15 34 14 15 34 14 15 
34 14 15 31 12 13 34 14 15 31 12 13 26 11 11 31 12 13 31 12 13 26 11 11 
31 12 13 34 14 15 34 14 15 34 14 15 31 12 13 34 14 15 31 12 13 31 23 20 
32 31 32 32 31 32 31 30 31 28 27 29 31 30 31 31 30 31 32 31 32 28 27 29 
28 27 29 31 30 31 31 30 31 31 30 31 31 30 31 31 30 31 31 30 31 33 32 33 
32 31 32 35 30 27 31 12 13 34 14 15 34 14 15 34 14 15 34 14 15 34 14 15 
34 14 15 34 14 15 31 12 13 31 12 13 26 11 11 31 12 13 34 14 15 31 12 13 
34 14 15 34 14 15 34 14 15 31 12 13 31 23 20 32 31 32 23 18 20 11 11 11 
11 11 11 11 11 11 10 10 10 15 15 15 14 14 14 13 10 11 13 13 10 23 23 23 
31 30 31 31 30 31 31 30 31 31 30 31 31 30 31 25 21 24 11 11 11 10 13 10 
10 10 10 11 11 11 10 10 10 11 11 11 9 9 9 11 11 11 13 13 13 11 11 11 
11 11 11 11 11 11 11 11 11 10 10 10 11 11 11 13 13 13 10 10 10 10 10 10 

11 11 11 11 11 11 9 9 9 11 11 11 10 10 10 11 11 11 11 11 11 9 9 9 
13 13 13 11 11 11 9 9 9 11 11 11 10 10 10 11 11 11 11 11 11 11 11 11 
11 11 11 9 9 9 21 21 18 28 27 29 28 27 29 27 26 26 28 27 29 29 29 30 
15 15 15 13 13 13 11 11 11 13 13 13 14 14 14 11 11 11 15 15 15 11 11 11 
15 15 15 14 14 14 13 13 13 15 15 15 11 11 13 11 11 11 11 11 13 11 11 11 
14 14 14 15 15 15 11 11 13 11 11 11 10 13 10 20 20 21 28 27 29 28 27 29 
14 14 14 13 13 13 15 15 15 13 10 11 11 11 11 9 9 9 7 7 7 11 11 11 
11 11 11 15 15 15 11 11 11 10 13 10 21 21 18 30 31 30 25 21 24 13 13 13 
14 14 14 15 15 15 14 14 14 11 11 11 13 13 13 13 13 13 15 15 15 11 11 11 
11 11 11 11 11 11 11 11 11 11 11 11 11 11 11 11 11 11 13 13 13 14 14 14 
13 13 13 11 11 11 13 13 13 13 13 13 13 13 13 14 14 14 22 21 22 22 15 15 
22 15 15 22 15 15 22 15 15 23 18 20 22 10 14 22 15 15 22 15 15 22 15 15 
22 15 15 23 18 20 22 21 22 25 21 24 22 10 14 22 15 15 22 15 15 22 15 15 
18 14 10 22 15 15 22 21 22 23 18 20 23 18 20 22 15 15 22 15 15 22 15 15 
23 18 20 22 21 22 20 20 21 20 20 21 22 21 22 22 10 14 22 15 15 22 15 15 
22 15 15 23 18 20 23 18 20 22 15 15 23 18 20 23 18 20 22 15 15 25 11 17 
22 15 15 23 23 23 22 21 22 26 11 11 26 11 11 22 15 15 22 15 15 23 18 20 
22 15 15 22 15 15 22 15 15 21 21 18 25 24 25 14 15 19 14 14 14 14 14 14 
11 11 11 14 14 14 17 18 16 32 31 32 31 29 26 34 14 15 34 14 15 34 14 15 
34 14 15 34 14 15 31 12 13 31 12 13 26 11 11 31 12 13 31 12 13 26 11 11 
26 11 11 34 14 15 31 12 13 31 12 13 34 14 15 31 12 13 26 11 11 27 26 26 
31 30 31 31 30 31 31 30 31 31 30 31 31 30 31 31 30 31 31 30 31 31 30 31 
31 30 31 31 30 31 31 30 31 32 31 32 32 31 32 31 30 31 32 31 32 32 31 32 
28 27 29 35 34 34 31 12 13 34 14 15 34 14 15 31 12 13 34 14 15 31 12 13 
31 12 13 31 12 13 31 12 13 26 11 11 26 11 11 31 12 13 31 12 13 34 14 15 
34 14 15 31 12 13 34 14 15 31 12 13 27 26 26 31 30 31 22 15 15 11 11 11 
13 13 13 14 14 14 14 14 14 13 13 13 10 13 10 11 11 11 9 9 9 23 23 23 
32 31 32 31 30 31 32 31 32 32 31 32 31 30 31 27 26 26 11 11 11 10 13 10 
10 10 10 13 13 13 11 11 11 11 11 11 10 10 10 11 11 11 9 9 9 13 13 13 
11 11 11 11 11 11 7 7 7 10 10 10 10 10 10 10 10 10 10 10 10 11 11 11 

11 11 11 11 11 11 13 13 13 7 7 7 11 11 11 10 10 10 11 11 11 9 9 9 
11 11 11 10 10 10 11 11 11 10 10 10 11 11 11 11 11 11 11 11 11 11 11 11 
10 10 10 9 9 9 21 21 18 27 26 26 28 27 29 27 26 26 28 27 29 28 27 29 
14 14 14 11 11 11 11 11 11 14 14 14 10 10 10 11 11 11 11 11 11 13 13 13 
11 11 11 13 13 13 11 11 11 11 11 11 13 13 13 13 13 13 11 11 11 13 13 13 
13 13 13 14 14 14 14 14 14 13 13 13 13 13 13 17 18 16 30 31 30 25 24 25 
15 15 15 13 13 13 13 13 13 9 9 9 10 10 10 10 10 10 7 7 7 10 10 10 
10 10 10 11 11 11 11 11 11 10 13 10 17 18 16 30 31 30 25 21 24 11 11 11 
11 11 11 13 13 13 13 13 13 11 11 11 11 11 11 15 15 15 11 11 11 13 13 13 
13 13 13 10 10 10 10 10 10 13 13 13 13 13 13 10 10 10 11 11 11 15 15 15 
15 15 15 13 13 13 13 13 13 14 14 14 14 14 14 17 18 16 23 23 23 22 15 15 
22 10 14 22 15 15 22 15 15 23 18 20 22 15 15 18 14 10 22 15 15 23 18 20 
22 15 15 21 21 18 21 21 18 23 18 20 22 15 15 22 15 15 23 18 20 22 15 15 
22 15 15 22 15 15 22 15 15 22 15 15 23 18 20 26 11 11 22 15 15 22 15 15 
25 21 24 23 18 20 22 21 22 23 23 23 23 23 23 22 15 15 18 14 10 22 10 14 
22 15 15 23 18 20 22 15 15 22 15 15 22 15 15 23 18 20 23 18 20 18 10 13 
22 15 15 21 21 18 18 18 19 22 15 15 22 10 14 22 15 15 22 15 15 22 15 15 
22 15 15 22 10 14 22 15 15 21 21 18 23 23 23 18 18 19 11 11 11 13 13 13 
13 13 13 11 11 11 15 15 15 29 29 30 31 30 31 34 14 15 34 14 15 31 12 13 
34 14 15 34 14 15 31 12 13 26 11 11 26 11 11 31 12 13 31 12 13 26 11 11 
26 11 11 31 12 13 34 14 15 31 12 13 31 12 13 31 12 13 23 18 20 31 29 26 
32 31 32 31 30 31 31 30 31 28 27 29 31 30 31 31 30 31 31 30 31 31 30 31 
31 30 31 31 30 31 32 31 32 28 27 29 31 30 31 31 30 31 31 30 31 31 30 31 
28 27 29 32 31 32 25 11 17 34 14 15 31 12 13 31 12 13 31 12 13 31 12 13 
31 12 13 31 12 13 26 11 11 26 11 11 31 12 13 34 14 15 34 14 15 31 12 13 
34 14 15 34 14 15 34 14 15 31 12 13 27 26 26 33 32 33 23 18 20 14 14 14 
14 14 14 13 13 13 15 15 15 14 14 14 11 11 13 11 11 11 10 10 10 21 21 18 
31 29 26 31 30 31 32 31 32 31 30 31 31 30 31 25 21 24 10 10 10 10 13 10 
10 13 10 11 11 11 13 13 13 13 13 13 13 13 13 11 11 11 11 11 11 11 11 11 
11 11 11 13 13 13 11 11 11 11 11 11 11 11 11 10 10 10 11 11 11 10 10 10 

10 10 10 11 11 11 10 10 10 11 11 11 11 11 11 11 11 11 11 11 11 10 10 10 
10 10 10 11 11 11 10 10 10 11 11 11 11 11 11 11 11 11 9 9 9 7 7 7 
10 10 10 10 10 10 17 18 16 25 24 25 27 26 26 27 26 26 28 27 29 28 27 29 
13 13 13 11 11 11 13 13 13 13 13 13 15 15 15 13 13 13 14 14 14 14 14 14 
13 13 13 11 11 11 15 15 15 11 11 11 13 13 13 15 15 15 11 11 11 14 14 14 
13 13 13 11 11 11 14 14 14 14 14 14 11 11 11 17 18 16 30 31 30 27 26 26 
14 15 19 14 14 14 13 13 13 9 9 9 7 7 7 9 9 9 10 10 10 10 10 10 
11 11 11 14 14 14 14 14 14 10 13 10 17 18 16 23 23 23 25 21 24 11 11 11 
10 10 10 11 11 11 11 11 11 13 13 13 11 11 11 13 13 13 13 13 13 15 15 15 
13 13 13 13 13 13 14 14 14 11 11 11 15 15 15 13 13 13 15 15 15 11 11 11 
13 13 13 14 14 14 13 13 13 10 13 10 11 11 11 15 15 15 21 21 18 23 18 20 
21 21 18 22 21 22 21 21 18 23 23 23 21 21 18 21 21 18 21 21 18 23 23 23 
21 21 18 18 18 19 20 20 21 23 23 23 22 21 22 23 23 23 23 23 23 21 21 18 
21 21 18 21 21 18 22 21 22 21 21 18 21 21 18 21 21 18 23 23 23 23 23 23 
23 23 23 21 21 18 22 21 22 22 21 22 22 21 22 21 21 18 21 21 18 21 21 18 
21 21 18 21 21 18 21 21 18 25 21 24 22 21 22 21 21 18 22 21 22 22 21 22 
21 21 18 21 21 18 22 21 22 22 21 22 18 18 19 21 21 18 21 21 18 21 21 18 
21 21 18 23 18 20 21 21 18 21 21 18 22 21 22 14 15 19 14 14 14 11 11 11 
11 11 11 11 11 11 17 18 16 31 29 26 32 31 32 31 23 20 31 12 13 34 14 15 
31 12 13 31 12 13 31 12 13 26 11 11 26 11 11 31 12 13 31 12 13 31 12 13 
26 11 11 31 12 13 31 12 13 31 12 13 34 14 15 31 12 13 31 23 20 27 26 26 
32 31 32 28 27 29 28 27 29 28 27 29 28 27 29 32 31 32 31 30 31 28 27 29 
28 27 29 28 27 29 31 30 31 31 30 31 31 30 31 28 27 29 32 31 32 31 30 31 
31 30 31 31 30 31 31 29 26 31 12 13 34 14 15 31 12 13 31 12 13 34 14 15 
34 14 15 34 14 15 34 14 15 26 11 11 31 12 13 31 12 13 34 14 15 31 12 13 
31 12 13 31 12 13 31 12 13 31 23 20 31 29 26 29 29 30 18 18 19 11 11 13 
11 11 11 11 11 11 11 11 11 14 14 14 11 11 11 14 14 14 10 13 10 23 23 23 
30 31 30 31 30 31 31 30 31 31 30 31 31 30 31 28 27 29 9 9 9 14 14 14 
9 9 9 13 10 11 11 11 11 11 11 11 11 11 11 10 10 10 11 11 11 9 9 9 
11 11 11 13 13 13 11 11 11 10 10 10 10 10 10 11 11 11 11 11 11 11 11 11 

9 9 9 10 10 10 13 13 13 11 11 11 9 9 9 11 11 11 10 10 10 10 10 10 
9 9 9 10 10 10 10 10 10 11 11 11 10 10 10 11 11 11 10 10 10 11 11 11 
11 11 11 9 9 9 17 18 16 27 26 26 27 26 26 27 26 26 29 29 30 28 27 29 
15 15 15 14 14 14 14 14 14 13 13 13 11 11 11 15 15 15 14 14 14 13 13 13 
14 14 14 15 15 15 15 15 15 11 11 11 11 11 11 13 13 13 11 11 11 11 11 11 
11 11 11 13 13 13 11 11 11 11 11 13 13 13 13 17 18 16 25 24 25 25 21 24 
14 14 14 11 11 13 13 13 13 9 9 9 11 11 11 9 9 9 10 10 10 10 10 10 
9 9 9 11 11 11 14 14 14 13 13 10 21 21 18 27 26 26 25 21 24 13 13 13 
11 11 11 11 11 11 10 10 10 11 11 11 11 11 11 11 11 11 13 13 13 14 14 14 
11 11 11 13 13 13 11 11 11 11 11 11 13 13 13 13 13 13 13 13 13 14 14 14 
13 13 13 13 13 13 13 13 13 11 11 13 14 14 14 13 13 13 17 18 16 20 20 21 
20 20 21 23 23 23 22 21 22 20 20 21 23 23 23 22 21 22 23 23 23 22 21 22 
22 21 22 20 20 21 20 20 21 22 21 22 23 23 23 23 23 23 20 20 21 20 20 21 
23 23 23 18 18 19 23 23 23 20 20 21 22 21 22 20 20 21 20 20 21 18 18 19 
23 23 23 20 20 21 22 21 22 22 21 22 22 21 22 25 24 25 21 21 18 21 21 18 
22 21 22 22 21 22 20 20 21 20 20 21 22 21 22 22 21 22 22 21 22 20 20 21 
20 20 21 18 18 19 25 24 25 23 23 23 20 20 21 22 21 22 23 23 23 23 23 23 
22 21 22 23 23 23 23 23 23 22 21 22 22 21 22 15 15 15 13 13 13 14 14 14 
13 13 13 13 13 13 17 18 16 31 29 26 29 29 30 35 30 27 31 12 13 31 12 13 
34 14 15 34 14 15 31 12 13 34 14 15 31 12 13 34 14 15 31 12 13 31 12 13 
31 12 13 31 12 13 31 12 13 31 12 13 34 14 15 31 23 20 31 29 26 30 31 30 
28 27 29 28 27 29 28 27 29 31 30 31 31 30 31 31 30 31 31 30 31 31 30 31 
31 30 31 28 27 29 31 30 31 31 30 31 31 30 31 31 30 31 28 27 29 31 30 31 
31 30 31 29 29 30 33 32 33 31 12 13 31 12 13 34 14 15 34 14 15 31 12 13 
31 12 13 31 12 13 31 12 13 31 12 13 31 12 13 31 12 13 31 12 13 31 12 13 
31 12 13 31 12 13 31 12 13 30 31 30 30 31 30 27 26 26 18 18 19 10 10 10 
11 11 11 13 13 13 14 14 14 11 11 11 11 11 13 13 10 11 10 13 10 21 21 18 
28 27 29 28 27 29 31 30 31 28 27 29 31 30 31 25 24 25 9 9 9 10 13 10 
11 11 11 11 11 11 11 11 11 11 11 11 9 9 9 13 13 13 10 10 10 9 9 9 
9 9 9 11 11 11 11 11 11 11 11 11 11 11 11 11 11 11 7 7 7 9 9 9 

11 11 11 7 7 7 9 9 9 10 10 10 9 9 9 11 11 11 10 10 10 11 11 11 
9 9 9 9 9 9 10 10 10 10 10 10 11 11 11 10 10 10 11 11 11 13 13 13 
13 13 13 11 11 11 21 21 18 28 27 29 28 27 29 27 26 26 28 27 29 25 24 25 
15 15 15 10 10 10 13 13 13 11 11 11 11 11 11 11 11 11 13 13 13 14 14 14 
11 11 11 13 13 13 14 14 14 13 13 13 11 11 11 13 13 13 10 10 10 13 13 13 
11 11 11 11 11 11 13 13 13 10 13 10 9 9 9 17 18 16 27 26 26 25 21 24 
15 15 15 14 14 14 11 11 11 13 10 11 10 10 10 7 7 7 10 10 10 9 9 9 
11 11 11 15 15 15 13 13 13 13 13 10 17 18 16 27 26 26 23 18 20 11 11 11 
15 15 15 14 14 14 15 15 15 13 13 13 10 10 10 13 13 13 11 11 11 13 13 13 
11 11 11 11 11 11 11 11 11 13 13 13 14 14 14 11 11 11 13 13 13 15 15 15 
13 13 13 11 11 11 13 13 13 11 11 11 13 13 13 11 11 11 14 14 14 14 15 19 
14 15 19 14 15 19 14 14 14 14 15 19 14 15 19 11 11 13 14 15 19 14 15 19 
11 11 13 14 15 19 14 15 19 14 15 19 14 15 19 14 15 19 11 11 13 14 15 19 
14 15 19 14 15 19 11 11 13 11 11 13 14 15 19 14 14 14 11 11 13 11 11 13 
14 15 19 11 11 13 14 15 19 14 15 19 11 11 13 14 15 19 14 15 19 14 15 19 
14 14 14 14 15 19 14 15 19 14 15 19 14 15 19 14 15 19 14 15 19 11 11 13 
14 15 19 14 14 14 14 15 19 11 11 13 14 15 19 14 15 19 14 15 19 11 11 13 
14 14 14 11 11 13 14 15 19 11 11 13 11 11 13 14 14 14 14 14 14 11 11 11 
15 15 15 11 11 11 17 18 16 30 31 30 28 27 29 32 31 32 31 29 26 31 12 13 
31 12 13 31 12 13 34 14 15 31 12 13 31 12 13 31 12 13 31 12 13 31 12 13 
31 12 13 31 12 13 34 14 15 31 12 13 31 12 13 31 23 20 30 31 30 31 29 26 
28 27 29 31 30 31 28 27 29 31 30 31 31 30 31 31 30 31 28 27 29 28 27 29 
31 30 31 28 27 29 31 30 31 31 30 31 31 30 31 31 30 31 28 27 29 28 27 29 
32 31 32 32 31 32 32 31 32 35 30 27 31 12 13 31 12 13 31 12 13 34 14 15 
31 12 13 31 12 13 31 12 13 31 12 13 31 12 13 31 12 13 31 12 13 26 11 11 
31 12 13 31 12 13 31 29 26 31 29 26 27 26 26 31 30 31 18 18 19 11 11 11 
14 14 14 11 11 11 14 14 14 14 14 14 11 11 13 15 15 15 10 13 10 21 21 18 
31 29 26 28 27 29 31 30 31 31 30 31 27 26 26 25 21 24 10 10 10 13 13 10 
10 10 10 9 9 9 10 10 10 10 10 10 10 10 10 11 11 11 11 11 11 9 9 9 
9 9 9 11 11 11 11 11 11 9 9 9 13 13 13 7 7 7 11 11 11 10 10 10 

9 9 9 9 9 9 9 9 9 11 11 11 10 10 10 11 11 11 11 11 11 10 10 10 
10 10 10 10 10 10 11 11 11 11 11 11 11 11 11 13 13 13 11 11 11 9 9 9 
10 10 10 9 9 9 21 21 18 28 27 29 27 26 26 27 26 26 27 26 26 28 27 29 
15 15 15 13 13 13 13 13 13 11 11 11 11 11 11 11 11 11 11 11 11 13 13 13 
13 13 13 11 11 11 11 11 11 11 11 11 13 13 13 13 13 13 11 11 11 11 11 11 
13 13 13 13 13 13 13 13 13 11 11 11 13 13 10 21 21 18 29 29 30 27 26 26 
11 11 13 14 14 14 13 10 11 14 14 14 13 13 13 10 10 10 11 11 11 9 9 9 
14 14 14 11 11 11 11 11 11 10 10 10 21 21 18 27 26 26 22 21 22 11 11 11 
14 14 14 11 11 13 13 13 13 15 15 15 13 13 13 11 11 11 11 11 11 11 11 11 
13 13 13 13 13 13 13 13 13 11 11 11 13 13 13 11 11 11 13 13 13 13 13 13 
13 13 13 11 11 11 14 14 14 13 13 13 14 14 14 13 13 13 13 13 13 13 13 13 
13 13 13 15 15 15 13 13 13 14 14 14 13 13 13 11 11 11 14 14 14 13 13 13 
11 11 13 14 14 14 13 13 13 11 11 13 11 11 11 11 11 11 13 13 13 14 14 14 
11 11 11 11 11 13 13 13 13 13 13 13 11 11 13 13 13 13 13 13 13 13 13 13 
15 15 15 14 14 14 15 15 15 13 13 13 11 11 13 14 14 14 14 14 14 14 14 14 
11 11 11 13 13 13 11 11 13 13 13 13 13 13 13 11 11 13 13 13 13 14 14 14 
13 13 13 14 14 14 11 11 11 13 13 13 11 11 13 13 13 13 15 15 15 11 11 11 
13 13 13 13 13 13 13 13 13 14 14 14 11 11 11 11 11 11 13 13 13 15 15 15 
13 13 13 13 13 10 17 18 16 33 33 31 29 29 30 32 31 32 29 29 30 35 30 27 
22 15 15 31 12 13 34 14 15 31 12 13 31 12 13 31 12 13 34 14 15 31 12 13 
34 14 15 31 12 13 31 12 13 22 15 15 35 30 27 30 31 30 28 27 29 27 26 26 
31 30 31 28 27 29 28 27 29 28 27 29 31 30 31 28 27 29 31 30 31 28 27 29 
31 30 31 28 27 29 28 27 29 28 27 29 28 27 29 28 27 29 31 30 31 28 27 29 
28 27 29 31 30 31 29 29 30 31 29 26 31 29 26 31 12 13 31 12 13 31 12 13 
26 11 11 34 14 15 31 12 13 34 14 15 31 12 13 31 12 13 31 12 13 26 11 11 
22 15 15 31 23 20 31 29 26 30 31 30 31 29 26 31 30 31 18 18 19 13 13 13 
13 13 13 11 11 11 11 11 11 11 11 11 10 13 10 13 13 13 10 13 10 21 21 18 
28 27 29 28 27 29 28 27 29 31 30 31 31 30 31 25 24 25 11 9 10 10 13 10 
9 9 9 13 10 11 10 10 10 9 9 9 11 11 11 11 11 11 11 11 11 11 11 11 
11 11 11 10 10 10 11 11 11 11 11 11 13 13 13 11 11 11 10 10 10 11 11 11 

10 10 10 11 11 11 9 9 9 11 11 11 9 9 9 9 9 9 11 11 11 11 11 11 
11 11 11 11 11 11 11 11 11 11 11 11 10 10 10 11 11 11 11 11 11 11 11 11 
11 11 11 11 11 11 17 18 16 25 24 25 25 24 25 25 24 25 28 27 29 27 26 26 
13 13 13 13 13 13 11 11 11 11 11 11 11 11 11 13 13 13 11 11 11 11 11 11 
15 15 15 14 14 14 15 15 15 13 13 13 11 11 11 13 13 13 14 14 14 14 14 14 
11 11 11 13 13 13 14 14 14 11 11 11 13 13 10 17 18 16 27 26 26 27 26 26 
15 15 15 11 11 13 13 13 13 13 13 13 15 15 15 11 11 11 10 10 10 14 14 14 
13 13 13 13 13 13 11 11 11 11 11 11 21 21 18 27 26 26 18 18 19 11 11 11 
13 13 13 11 11 13 15 15 15 11 11 11 11 11 11 11 11 11 13 13 13 11 11 11 
15 15 15 13 13 13 11 11 11 15 15 15 14 14 14 13 13 13 11 11 11 14 14 14 
11 11 11 14 14 14 11 11 11 15 15 15 14 14 14 11 11 11 11 11 11 14 14 14 
13 13 13 14 14 14 9 9 9 11 11 11 13 13 13 15 15 15 14 14 14 11 11 11 
11 11 11 11 11 11 11 11 11 15 15 15 11 11 11 14 14 14 11 11 11 13 13 13 
11 11 11 13 13 13 11 11 11 13 13 13 14 14 14 13 13 13 14 14 14 10 10 10 
11 11 11 13 13 13 13 13 13 11 11 11 11 11 11 14 14 14 13 13 13 11 11 11 
11 11 11 13 13 13 11 11 11 11 11 11 10 10 10 13 13 13 14 14 14 11 11 11 
11 11 11 13 13 13 15 15 15 13 13 13 15 15 15 13 13 13 13 10 11 13 13 13 
13 13 13 14 14 14 11 11 11 14 14 14 14 14 14 13 13 13 13 13 13 13 13 13 
13 13 13 11 11 11 17 18 16 30 31 30 29 29 30 29 29 30 32 31 32 30 31 30 
31 29 26 23 18 20 31 12 13 31 12 13 31 12 13 34 14 15 34 14 15 31 12 13 
31 12 13 22 15 15 31 23 20 31 29 26 30 31 30 32 31 32 28 27 29 31 30 31 
31 30 31 31 30 31 28 27 29 31 30 31 28 27 29 27 26 26 28 27 29 28 27 29 
28 27 29 31 30 31 28 27 29 28 27 29 31 30 31 31 30 31 28 27 29 31 30 31 
32 31 32 31 30 31 31 30 31 32 31 32 28 27 29 31 29 26 31 23 20 22 15 15 
31 12 13 31 12 13 34 14 15 31 12 13 31 12 13 31 12 13 34 14 15 31 23 20 
31 29 26 31 29 26 31 30 31 28 27 29 30 31 30 32 31 32 18 18 19 11 11 11 
13 13 13 11 11 11 10 10 10 11 11 11 11 11 13 11 11 11 13 13 10 21 21 18 
28 27 29 27 26 26 31 30 31 28 27 29 28 27 29 25 21 24 11 9 10 13 13 10 
7 7 7 9 9 9 11 11 11 11 11 11 11 11 11 10 10 10 11 11 11 11 11 11 
11 11 11 10 10 10 9 9 9 7 7 7 11 11 11 11 11 11 7 7 7 11 11 11 

11 11 11 10 10 10 10 10 10 11 11 11 13 13 13 11 11 11 10 10 10 7 7 7 
10 10 10 11 11 11 13 13 13 11 11 11 10 10 10 11 11 11 10 10 10 10 10 10 
11 11 11 11 11 11 21 21 18 27 26 26 28 27 29 25 24 25 25 24 25 25 24 25 
15 15 15 13 13 13 11 11 11 11 11 11 11 11 11 11 11 11 13 13 13 14 14 14 
11 11 11 11 11 11 14 14 14 11 11 11 11 11 11 11 11 11 13 13 13 14 14 14 
11 11 11 14 14 14 14 14 14 13 13 13 11 11 11 17 18 16 25 24 25 27 26 26 
11 11 13 11 11 13 13 13 13 14 14 14 13 13 13 11 11 11 14 14 14 15 15 15 
13 13 13 11 11 11 10 10 10 13 13 10 21 21 18 27 26 26 23 18 20 10 10 10 
11 11 11 11 11 11 11 11 11 10 10 10 9 9 9 13 13 13 13 13 13 11 11 11 
13 13 13 13 13 13 13 13 13 15 15 15 14 14 14 13 13 13 14 14 14 14 14 14 
13 13 13 14 14 14 11 11 11 10 10 10 14 14 14 15 15 15 15 15 15 14 14 14 
15 15 15 13 10 11 13 13 10 13 13 10 13 13 10 13 10 11 15 15 15 13 13 10 
13 10 11 14 14 14 13 10 11 14 14 14 14 14 14 14 14 14 15 15 15 13 10 11 
13 10 11 14 14 14 13 13 10 13 13 10 15 15 15 13 10 11 13 13 10 15 15 15 
13 10 11 13 10 11 14 14 14 13 13 10 14 14 14 13 13 10 13 13 10 14 14 14 
13 10 11 14 14 14 13 10 11 14 14 14 13 10 11 13 10 11 14 14 14 11 9 10 
13 10 11 15 15 15 15 15 15 14 14 14 13 13 10 14 14 14 15 15 15 13 10 11 
14 14 14 11 9 10 15 15 15 13 13 10 13 13 10 13 13 13 13 13 13 11 11 11 
11 11 11 13 13 10 17 18 16 31 29 26 29 29 30 29 29 30 28 27 29 29 29 30 
31 30 31 31 29 26 31 29 26 31 29 26 31 23 20 31 23 20 23 18 20 31 23 20 
31 23 20 31 29 26 31 29 26 29 29 30 29 29 30 27 26 26 25 24 25 27 26 26 
31 30 31 28 27 29 27 26 26 28 27 29 31 30 31 31 30 31 28 27 29 31 30 31 
32 31 32 31 30 31 31 30 31 31 30 31 31 30 31 28 27 29 28 27 29 31 30 31 
31 30 31 29 29 30 27 26 26 32 31 32 29 29 30 27 26 26 31 29 26 31 29 26 
31 23 20 31 23 20 31 23 20 31 23 20 31 23 20 31 29 26 31 29 26 30 31 30 
30 31 30 30 31 30 28 27 29 28 27 29 28 27 29 32 31 32 23 18 20 15 15 15 
15 15 15 14 14 14 11 11 11 13 13 13 15 15 15 14 14 14 10 13 10 23 23 23 
30 31 30 31 30 31 31 30 31 28 27 29 28 27 29 25 24 25 9 9 9 14 14 14 
10 13 10 13 13 13 11 11 11 11 11 11 10 10 10 11 11 11 11 11 11 13 13 13 
13 13 13 11 11 11 11 11 11 9 9 9 11 11 11 10 10 10 10 10 10 9 9 9 

10 10 10 11 11 11 10 10 10 11 11 11 13 13 13 11 11 11 7 7 7 10 10 10 
13 13 13 10 10 10 7 7 7 10 10 10 11 11 11 9 9 9 13 13 13 10 10 10 
7 7 7 7 7 7 21 21 18 25 24 25 28 27 29 27 26 26 27 26 26 27 26 26 
14 14 14 11 11 13 15 15 15 11 11 11 11 11 11 11 11 11 14 14 14 11 11 11 
13 13 13 11 11 11 13 13 13 11 11 11 11 11 11 11 11 11 13 13 13 14 14 14 
11 11 11 14 14 14 11 11 11 13 13 13 10 10 10 17 18 16 27 26 26 25 24 25 
15 15 15 11 11 11 14 14 14 14 14 14 13 13 13 13 13 13 11 11 11 13 13 13 
11 11 11 15 15 15 11 11 11 13 13 10 25 24 25 27 26 26 25 21 24 13 13 13 
15 15 15 13 13 13 13 13 13 11 11 11 11 11 11 11 11 11 13 13 13 13 13 13 
14 14 14 14 14 14 14 14 14 14 14 14 13 13 13 13 13 13 13 13 13 14 14 14 
11 11 11 13 13 13 15 15 15 13 13 13 11 11 11 14 14 14 17 18 16 23 23 23 
21 21 18 21 21 18 17 18 16 21 21 18 21 21 18 17 18 16 17 18 16 21 21 18 
18 18 19 21 21 18 17 18 16 17 18 16 21 21 18 17 18 16 17 18 16 17 18 16 
21 21 18 18 18 19 21 21 18 21 21 18 17 18 16 21 21 18 21 21 18 21 21 18 
21 21 18 21 21 18 21 21 18 21 21 18 21 21 18 21 21 18 17 18 16 21 21 18 
17 18 16 21 21 18 21 21 18 21 21 18 21 21 18 21 21 18 17 18 16 23 23 23 
21 21 18 21 21 18 17 18 16 18 18 19 21 21 18 21 21 18 21 21 18 17 18 16 
17 18 16 17 18 16 18 18 19 17 18 16 17 18 16 13 13 13 13 13 13 11 11 11 
11 11 11 13 13 10 10 13 10 28 27 29 28 27 29 28 27 29 30 31 30 29 29 30 
29 29 30 29 29 30 27 26 26 27 26 26 27 26 26 30 31 30 31 29 26 27 26 26 
32 31 32 28 27 29 28 27 29 29 29 30 28 27 29 27 26 26 29 29 30 28 27 29 
27 26 26 29 29 30 28 27 29 27 26 26 28 27 29 28 27 29 29 29 30 27 26 26 
28 27 29 28 27 29 27 26 26 31 30 31 31 30 31 28 27 29 31 30 31 29 29 30 
31 30 31 27 26 26 27 26 26 28 27 29 29 29 30 29 29 30 31 30 31 28 27 29 
30 31 30 27 26 26 31 29 26 31 29 26 31 30 31 29 29 30 28 27 29 30 31 30 
28 27 29 32 31 32 29 29 30 27 26 26 30 31 30 31 30 31 18 18 19 13 13 13 
11 11 11 11 11 11 14 14 14 11 11 11 10 10 10 11 11 11 13 13 10 23 23 23 
27 26 26 28 27 29 31 30 31 28 27 29 28 27 29 25 21 24 11 11 11 14 14 14 
10 13 10 13 10 11 10 10 10 11 11 11 11 11 11 11 11 11 10 10 10 11 11 11 
11 11 11 10 10 10 11 11 11 10 10 10 11 11 11 11 11 11 9 9 9 9 9 9 

10 10 10 10 10 10 11 11 11 11 11 11 7 7 7 11 11 11 13 13 13 10 10 10 
11 11 11 11 11 11 11 11 11 11 11 11 11 11 11 11 11 11 10 10 10 10 10 10 
10 10 10 7 7 7 21 21 18 27 26 26 27 26 26 27 26 26 25 24 25 27 26 26 
13 13 13 11 11 11 11 11 11 13 13 13 15 15 15 14 14 14 14 14 14 10 10 10 
14 14 14 14 14 14 11 11 11 15 15 15 14 14 14 14 14 14 13 13 13 11 11 11 
13 13 13 13 13 13 11 11 11 14 14 14 10 13 10 17 18 16 27 26 26 28 27 29 
27 26 26 25 24 25 25 24 25 23 23 23 23 23 23 21 21 18 23 23 23 25 24 25 
25 24 25 25 24 25 21 21 18 25 24 25 31 29 26 31 30 31 22 21 22 11 11 13 
13 13 13 11 11 11 11 11 11 14 14 14 14 14 14 10 10 10 14 14 14 10 10 10 
14 14 14 13 13 13 15 15 15 11 11 11 14 14 14 14 14 14 14 14 14 13 13 13 
13 13 13 11 11 11 14 14 14 13 13 13 14 14 14 13 13 10 18 18 19 22 21 22 
20 20 21 22 21 22 18 18 19 20 20 21 18 18 19 18 18 19 18 18 19 23 23 23 
20 20 21 22 21 22 20 20 21 22 21 22 18 18 19 22 21 22 18 18 19 18 18 19 
18 18 19 22 21 22 18 18 19 22 21 22 18 18 19 20 20 21 18 18 19 20 20 21 
22 21 22 20 20 21 20 20 21 18 18 19 22 21 22 18 18 19 18 18 19 18 18 19 
18 18 19 20 20 21 18 18 19 18 18 19 18 18 19 18 18 19 18 18 19 22 21 22 
18 18 19 18 18 19 20 20 21 18 18 19 22 21 22 18 18 19 20 20 21 20 20 21 
20 20 21 22 21 22 18 18 19 18 18 19 18 18 19 15 15 15 14 14 14 11 11 11 
11 11 11 13 13 13 11 11 13 20 20 21 25 24 25 28 27 29 25 24 25 30 30 34 
28 27 29 28 27 29 28 27 29 28 27 29 28 27 29 28 27 29 25 24 25 27 26 26 
27 26 26 25 24 25 27 26 26 28 27 29 25 24 25 28 27 29 28 27 29 28 27 29 
28 27 29 30 31 30 30 31 30 27 26 26 27 26 26 25 24 25 23 23 23 22 21 22 
22 21 22 20 20 21 25 21 24 27 26 26 28 27 29 27 26 26 27 26 26 27 26 26 
27 26 26 29 29 30 32 31 32 28 27 29 28 27 29 28 27 29 28 27 29 28 27 29 
27 26 26 27 26 26 27 26 26 27 26 26 29 29 30 28 27 29 27 26 26 28 27 29 
28 27 29 28 27 29 25 24 25 28 27 29 28 27 29 25 24 25 11 11 13 11 11 13 
11 11 11 14 14 14 13 13 13 13 13 13 10 13 10 14 14 14 10 13 10 21 21 18 
27 26 26 28 27 29 28 27 29 28 27 29 27 26 26 25 21 24 9 9 9 10 13 10 
10 10 10 13 10 11 11 11 11 9 9 9 11 11 11 10 10 10 11 11 11 10 10 10 
11 11 11 11 11 11 11 11 11 11 11 11 13 13 13 11 11 11 11 11 11 11 11 11 

10 10 10 10 10 10 9 9 9 10 10 10 13 13 13 11 11 11 9 9 9 9 9 9 
9 9 9 11 11 11 10 10 10 10 10 10 11 11 11 11 11 11 11 11 11 10 10 10 
10 10 10 10 10 10 21 21 18 27 26 26 27 26 26 28 27 29 28 27 29 27 26 26 
13 13 13 15 15 15 13 13 13 13 13 13 13 13 13 13 13 13 14 14 14 11 11 11 
11 11 11 10 10 10 13 13 13 14 14 14 11 11 11 11 11 11 11 11 11 11 11 11 
13 13 13 11 11 11 11 11 11 13 10 11 11 11 11 14 14 14 25 24 25 28 27 29 
27 26 26 25 24 25 31 30 31 29 29 30 29 29 30 28 27 29 27 26 26 28 27 29 
29 29 30 28 27 29 28 27 29 29 29 30 28 27 29 29 29 30 14 15 19 13 13 13 
11 11 11 14 14 14 11 11 11 13 13 13 11 11 11 11 11 11 11 11 11 11 11 11 
13 13 13 14 14 14 13 13 13 13 13 13 14 14 14 11 11 11 13 13 13 11 11 11 
11 11 11 14 14 14 14 14 14 11 11 11 11 11 11 14 14 14 22 21 22 18 18 19 
20 20 21 18 18 19 20 20 21 22 21 22 20 20 21 18 18 19 22 21 22 22 21 22 
20 20 21 20 20 21 18 18 19 20 20 21 20 20 21 25 24 25 22 21 22 20 20 21 
20 20 21 20 20 21 20 20 21 18 18 19 20 20 21 23 23 23 18 18 19 18 18 19 
18 18 19 20 20 21 18 18 19 20 20 21 20 20 21 20 20 21 20 20 21 18 18 19 
18 18 19 18 18 19 20 20 21 22 21 22 22 21 22 23 23 23 22 21 22 18 18 19 
18 18 19 22 21 22 18 18 19 20 20 21 22 21 22 18 18 19 18 18 19 18 18 19 
18 18 19 20 20 21 20 20 21 22 21 22 18 18 19 15 15 15 13 10 11 15 15 15 
14 14 14 11 11 13 11 11 13 11 11 13 14 15 19 11 11 13 14 14 14 14 14 14 
14 14 14 11 11 13 11 11 13 11 11 13 11 11 13 11 11 13 14 14 14 11 11 13 
11 11 13 11 11 13 11 11 13 14 14 14 11 11 13 20 20 21 28 27 29 29 29 30 
27 26 26 27 26 26 27 26 26 25 21 24 23 18 20 23 18 20 23 18 20 34 14 15 
25 11 17 26 11 11 25 11 17 23 18 20 23 23 23 23 23 23 27 26 26 29 29 30 
30 31 30 31 30 31 28 27 29 14 15 19 11 11 13 14 15 19 11 11 13 11 11 13 
11 11 13 11 11 13 14 15 19 11 11 13 11 11 13 11 11 13 11 11 13 11 11 13 
11 11 13 14 15 19 11 11 13 11 11 13 14 15 19 11 11 13 11 11 13 9 9 9 
11 11 11 11 11 11 11 11 11 11 11 11 10 13 10 11 9 10 11 11 11 21 21 18 
27 26 26 28 27 29 27 26 26 28 27 29 28 27 29 25 21 24 11 9 10 14 14 14 
10 10 10 11 9 10 10 10 10 11 11 11 11 11 11 9 9 9 10 10 10 11 11 11 
9 9 9 11 11 11 10 10 10 11 11 11 11 11 11 10 10 10 11 11 11 9 9 9 

11 11 11 13 13 13 13 13 13 10 10 10 11 11 11 9 9 9 7 7 7 11 11 11 
10 10 10 11 11 11 9 9 9 9 9 9 13 13 13 11 11 11 11 11 11 9 9 9 
10 10 10 9 9 9 21 21 18 27 26 26 27 26 26 27 26 26 28 27 29 27 26 26 
15 15 15 15 15 15 13 13 13 13 13 13 13 13 13 11 11 11 14 14 14 13 13 13 
13 13 13 13 13 13 14 14 14 11 11 11 11 11 11 11 11 11 11 11 11 15 15 15 
14 14 14 11 11 11 11 11 11 11 11 13 11 11 11 14 14 14 11 11 13 18 18 19 
14 15 19 14 15 19 14 15 19 14 15 19 14 15 19 14 15 19 14 15 19 14 15 19 
14 15 19 14 15 19 14 15 19 18 18 19 14 15 19 14 15 19 11 11 13 14 14 14 
14 14 14 13 13 13 11 11 11 11 11 11 13 13 13 15 15 15 13 13 13 13 13 13 
13 13 13 14 14 14 11 11 11 11 11 11 14 14 14 11 11 11 14 14 14 13 13 13 
13 13 13 15 15 15 11 11 11 13 13 13 11 11 11 14 14 14 22 21 22 18 18 19 
18 18 19 18 18 19 22 21 22 18 18 19 18 18 19 20 20 21 20 20 21 20 20 21 
18 18 19 20 20 21 17 18 16 18 18 19 18 18 19 20 20 21 20 20 21 22 21 22 
18 18 19 20 20 21 18 18 19 18 18 19 18 18 19 18 18 19 23 23 23 18 18 19 
18 18 19 18 18 19 22 21 22 18 18 19 18 18 19 22 21 22 18 18 19 18 18 19 
18 18 19 18 18 19 18 18 19 18 18 19 20 20 21 20 20 21 20 20 21 20 20 21 
18 18 19 22 21 22 22 21 22 18 18 19 22 21 22 20 20 21 20 20 21 18 18 19 
22 21 22 18 18 19 20 20 21 22 21 22 22 21 22 15 15 15 13 13 13 11 11 11 
14 14 14 13 13 10 14 14 14 10 13 10 11 11 13 11 11 13 11 11 11 14 14 14 
15 15 15 11 11 13 11 11 11 11 11 13 11 11 11 14 14 14 13 13 13 14 14 14 
14 14 14 13 13 13 13 13 13 14 14 14 13 13 10 21 21 18 27 26 26 31 29 26 
28 27 29 27 26 26 23 18 20 23 18 20 25 11 17 31 12 13 31 12 13 31 12 13 
31 12 13 31 12 13 31 12 13 31 12 13 31 12 13 22 15 15 23 23 23 27 26 26 
27 26 26 31 30 31 27 26 26 11 11 11 14 14 14 14 14 14 11 11 11 11 11 11 
13 13 13 14 14 14 13 10 11 11 11 11 14 14 14 13 13 13 15 15 15 13 13 13 
14 14 14 13 13 13 15 15 15 11 11 13 11 11 11 13 13 10 10 13 10 11 11 11 
13 13 13 11 11 11 11 11 11 11 11 11 11 11 11 13 10 11 10 13 10 21 21 18 
28 27 29 28 27 29 31 30 31 28 27 29 27 26 26 25 21 24 9 9 9 10 13 10 
10 10 10 11 11 11 10 10 10 11 11 11 11 11 11 9 9 9 11 11 11 11 11 11 
10 10 10 11 11 11 11 11 11 10 10 10 11 11 11 9 9 9 13 13 13 9 9 9 

9 9 9 9 9 9 11 11 11 10 10 10 13 13 13 10 10 10 14 14 14 11 11 11 
9 9 9 11 11 11 9 9 9 11 11 11 11 11 11 11 11 11 11 11 11 10 10 10 
11 11 11 10 10 10 21 21 18 23 23 23 25 24 25 27 26 26 25 24 25 28 27 29 
15 15 15 13 13 13 13 13 13 9 9 9 13 13 13 13 13 13 14 14 14 14 14 14 
13 13 13 13 13 13 11 11 11 11 11 11 13 13 13 11 11 11 11 11 11 14 14 14 
13 13 13 13 13 13 11 11 11 15 15 15 11 11 13 13 13 10 13 13 10 10 13 10 
13 13 10 13 13 13 11 11 11 15 15 15 13 13 13 15 15 15 11 11 13 11 11 13 
11 11 11 11 11 11 11 11 11 11 11 11 11 11 11 11 11 13 11 11 11 14 14 14 
13 13 13 13 13 13 13 13 13 13 13 13 13 13 13 11 11 11 13 13 13 13 13 13 
11 11 11 11 11 11 13 13 13 13 13 13 11 11 11 13 13 13 11 11 11 11 11 11 
10 10 10 13 13 13 11 11 11 11 11 11 9 9 9 14 14 14 20 20 21 18 18 19 
18 18 19 18 18 19 20 20 21 20 20 21 18 18 19 18 18 19 20 20 21 18 18 19 
22 21 22 18 18 19 22 21 22 22 21 22 18 18 19 18 18 19 18 18 19 18 18 19 
20 20 21 18 18 19 20 20 21 18 18 19 18 18 19 18 18 19 18 18 19 22 21 22 
20 20 21 22 21 22 22 21 22 18 18 19 18 18 19 23 23 23 20 20 21 20 20 21 
20 20 21 18 18 19 20 20 21 18 18 19 20 20 21 20 20 21 22 21 22 20 20 21 
18 18 19 18 18 19 18 18 19 18 18 19 18 18 19 18 18 19 18 18 19 22 21 22 
20 20 21 18 18 19 18 18 19 18 18 19 18 18 19 15 15 15 13 10 11 14 14 14 
14 14 14 13 13 13 11 11 13 11 11 11 14 14 14 13 13 13 15 15 15 11 11 11 
11 11 11 13 13 10 11 11 11 11 11 11 13 13 13 10 13 10 11 11 11 11 11 11 
11 11 11 11 11 11 10 10 10 13 13 13 13 13 10 21 21 18 31 29 26 27 26 26 
27 26 26 25 21 24 25 11 17 31 12 13 31 12 13 31 12 13 26 11 11 31 12 13 
31 12 13 31 12 13 31 12 13 31 12 13 31 12 13 31 12 13 23 18 20 23 23 23 
27 26 26 27 26 26 27 26 26 13 13 13 11 11 13 13 10 11 11 11 11 14 14 14 
11 11 13 11 11 11 11 11 13 10 10 10 13 13 13 13 13 13 9 9 9 10 10 10 
11 11 13 11 11 11 13 13 13 13 13 13 11 11 11 11 11 13 13 13 13 11 11 11 
13 13 13 14 14 14 13 13 13 11 11 11 10 13 10 13 13 13 11 11 11 21 21 18 
27 26 26 31 30 31 31 30 31 28 27 29 27 26 26 25 24 25 10 10 10 10 13 10 
10 10 10 9 9 9 9 9 9 11 11 11 10 10 10 13 13 13 11 11 11 11 11 11 
10 10 10 11 11 11 10 10 10 13 13 13 11 11 11 10 10 10 11 11 11 11 11 11 

11 11 11 11 11 11 13 13 13 11 11 11 11 11 11 10 10 10 11 11 11 11 11 11 
11 11 11 11 11 11 9 9 9 11 11 11 11 11 11 13 13 13 10 10 10 10 10 10 
11 11 11 11 11 11 21 21 18 23 23 23 25 24 25 27 26 26 27 26 26 25 24 25 
15 15 15 11 11 13 11 11 11 11 11 11 11 11 11 13 13 13 11 11 11 11 11 11 
11 11 11 13 13 13 14 14 14 11 11 11 11 11 11 13 13 13 11 11 11 14 14 14 
11 11 11 15 15 15 13 13 13 13 13 13 13 13 13 13 13 13 11 11 11 13 13 13 
14 14 14 13 13 13 13 13 13 13 13 13 13 13 13 11 11 11 14 14 14 13 13 13 
14 14 14 11 11 11 14 14 14 11 11 11 13 13 13 11 11 11 13 13 13 14 14 14 
11 11 11 11 11 11 14 14 14 11 11 11 13 13 13 13 13 13 14 14 14 11 11 11 
13 13 13 14 14 14 15 15 15 13 13 13 13 13 13 14 14 14 14 14 14 14 14 14 
11 11 11 11 11 11 11 11 11 13 13 13 10 10 10 15 15 15 18 18 19 22 21 22 
18 18 19 18 18 19 18 18 19 20 20 21 20 20 21 20 20 21 20 20 21 20 20 21 
18 18 19 18 18 19 20 20 21 18 18 19 18 18 19 18 18 19 18 18 19 20 20 21 
20 20 21 18 18 19 18 18 19 18 18 19 18 18 19 22 21 22 20 20 21 18 18 19 
22 21 22 20 20 21 18 18 19 18 18 19 18 18 19 18 18 19 18 18 19 18 18 19 
18 18 19 18 18 19 20 20 21 18 18 19 18 18 19 18 18 19 20 20 21 18 18 19 
18 18 19 18 18 19 18 18 19 18 18 19 18 18 19 18 18 19 18 18 19 20 20 21 
18 18 19 20 20 21 18 18 19 18 18 19 22 21 22 15 15 15 11 11 11 11 11 11 
11 11 11 10 10 10 11 11 11 14 14 14 13 13 13 11 11 11 11 11 11 11 11 11 
11 11 11 11 11 11 13 13 13 11 11 11 13 13 13 13 13 13 13 13 13 14 14 14 
11 11 11 13 13 13 13 13 13 13 13 13 11 11 11 21 21 18 28 27 29 27 26 26 
23 18 20 25 11 17 31 12 13 31 12 13 31 12 13 26 11 11 26 11 11 31 12 13 
31 12 13 31 12 13 31 12 13 26 11 11 31 12 13 34 14 15 31 12 13 23 18 20 
25 21 24 28 27 29 29 29 30 15 15 15 11 11 11 11 11 11 11 11 11 11 11 11 
11 11 11 11 11 11 11 11 11 11 11 11 11 11 11 11 11 11 11 11 11 13 13 13 
13 13 13 15 15 15 13 13 13 13 13 13 11 11 11 13 13 13 11 11 11 10 10 10 
13 13 13 13 13 13 11 11 11 13 13 13 10 13 10 11 11 11 14 14 14 21 21 18 
27 26 26 28 27 29 28 27 29 28 27 29 28 27 29 25 24 25 7 7 7 10 13 10 
11 11 11 10 10 10 10 10 10 9 9 9 11 11 11 11 11 11 10 10 10 11 11 11 
11 11 11 9 9 9 7 7 7 10 10 10 13 13 13 11 11 11 10 10 10 11 11 11 

10 10 10 10 10 10 13 13 13 11 11 11 10 10 10 10 10 10 10 10 10 11 11 11 
11 11 11 10 10 10 11 11 11 11 11 11 7 7 7 11 11 11 10 10 10 9 9 9 
11 11 11 9 9 9 14 14 14 23 23 23 25 24 25 27 26 26 27 26 26 27 26 26 
13 13 13 13 13 13 11 11 11 11 11 11 15 15 15 14 14 14 13 13 13 13 13 13 
13 13 13 11 11 11 13 13 13 13 13 13 13 13 13 15 15 15 11 11 11 11 11 11 
13 13 13 11 11 11 11 11 11 14 14 14 13 13 13 11 11 11 10 10 10 11 11 11 
11 11 11 15 15 15 15 15 15 11 11 11 11 11 11 11 11 11 13 13 13 13 13 13 
11 11 11 11 11 11 14 14 14 13 13 13 13 13 13 13 13 13 13 13 13 13 13 13 
11 11 11 13 13 13 13 13 13 13 13 13 13 13 13 13 13 13 13 13 13 11 11 11 
9 9 9 11 11 11 15 15 15 11 11 11 13 13 13 11 11 11 10 10 10 11 11 11 
13 13 13 11 11 11 10 10 10 11 11 11 11 11 11 10 13 10 18 18 19 18 18 19 
23 23 23 18 18 19 23 18 20 21 21 18 18 18 19 18 18 19 21 21 18 23 18 20 
23 18 20 18 18 19 23 18 20 23 18 20 21 21 18 23 18 20 21 21 18 18 18 19 
20 20 21 21 21 18 23 18 20 21 21 18 21 21 18 23 18 20 21 21 18 23 18 20 
20 20 21 23 18 20 23 18 20 18 18 19 18 18 19 18 18 19 23 18 20 21 21 18 
21 21 18 23 18 20 21 21 18 21 21 18 22 21 22 23 18 20 23 18 20 20 20 21 
18 18 19 18 18 19 22 21 22 18 18 19 18 18 19 18 18 19 21 21 18 23 18 20 
21 21 18 20 20 21 18 18 19 20 20 21 22 21 22 17 18 16 11 11 11 13 13 13 
13 13 13 14 14 14 14 14 14 14 14 14 11 11 11 11 11 11 14 14 14 13 13 13 
13 13 13 13 13 13 11 11 11 14 14 14 14 14 14 11 11 11 13 13 13 11 11 11 
15 15 15 13 13 13 13 13 13 11 11 11 10 10 10 21 21 18 27 26 26 25 24 25 
25 11 17 31 12 13 26 11 11 26 11 11 31 12 13 26 11 11 26 11 11 26 11 11 
31 12 13 26 11 11 26 11 11 26 11 11 31 12 13 31 12 13 31 12 13 26 11 11 
23 18 20 22 21 22 28 27 29 14 14 14 13 13 10 11 11 13 13 13 13 11 11 11 
11 11 11 11 11 11 11 11 11 11 11 11 11 11 11 13 13 13 13 13 13 11 11 11 
11 11 11 14 14 14 11 11 11 13 13 13 14 14 14 11 11 11 11 11 11 11 11 11 
11 11 11 13 13 13 14 14 14 11 11 11 11 11 13 13 13 13 13 13 13 21 21 18 
27 26 26 27 26 26 28 27 29 28 27 29 27 26 26 22 21 22 9 9 9 10 13 10 
10 10 10 11 11 11 13 13 13 11 11 11 11 11 11 13 13 13 10 10 10 10 10 10 
11 11 11 11 11 11 11 11 11 11 11 11 7 7 7 11 11 11 7 7 7 11 11 11 

11 11 11 9 9 9 11 11 11 9 9 9 11 11 11 11 11 11 9 9 9 10 10 10 
11 11 11 10 10 10 10 10 10 10 10 10 11 11 11 10 10 10 9 9 9 11 11 11 
9 9 9 11 11 11 21 21 18 23 23 23 27 26 26 25 24 25 25 24 25 27 26 26 
15 15 15 13 13 13 11 11 11 11 11 11 13 13 13 11 11 11 13 13 13 14 14 14 
13 13 13 14 14 14 14 14 14 14 14 14 11 11 11 11 11 11 11 11 11 15 15 15 
11 11 11 11 11 11 11 11 11 13 13 13 14 14 14 13 13 13 13 13 13 11 11 11 
11 11 11 11 11 11 14 14 14 15 15 15 13 13 13 11 11 11 13 13 13 11 11 11 
13 13 13 11 11 11 11 11 11 11 11 11 11 11 11 13 13 13 11 11 11 11 11 11 
14 14 14 13 13 13 11 11 11 11 11 11 13 13 13 14 14 14 11 11 11 13 13 13 
13 13 13 11 11 11 11 11 11 10 10 10 14 14 14 14 14 14 11 11 11 11 11 11 
11 11 11 11 11 11 14 14 14 13 13 13 13 13 13 15 15 15 18 18 19 18 18 19 
20 20 21 18 18 19 23 23 23 18 18 19 18 18 19 18 18 19 18 18 19 18 18 19 
18 18 19 20 20 21 20 20 21 20 20 21 18 18 19 22 21 22 20 20 21 21 21 18 
18 18 19 22 21 22 20 20 21 23 23 23 20 20 21 18 18 19 20 20 21 20 20 21 
20 20 21 22 21 22 21 21 18 22 21 22 20 20 21 20 20 21 18 18 19 21 21 18 
20 20 21 20 20 21 21 21 18 18 18 19 18 18 19 20 20 21 22 21 22 18 18 19 
18 18 19 18 18 19 20 20 21 18 18 19 18 18 19 18 18 19 21 21 18 22 21 22 
18 18 19 20 20 21 18 18 19 18 18 19 22 21 22 15 15 15 11 11 11 11 11 11 
11 11 11 11 11 11 11 11 11 13 13 13 13 13 13 14 14 14 11 11 11 11 11 11 
11 11 11 11 11 11 13 13 13 15 15 15 14 14 14 11 11 11 13 13 13 11 11 11 
13 13 13 11 11 11 11 11 11 11 11 13 11 11 11 17 18 16 25 24 25 25 21 24 
26 11 11 31 12 13 26 11 11 26 11 11 31 12 13 26 11 11 26 11 11 26 11 11 
31 12 13 31 12 13 26 11 11 26 11 11 31 12 13 31 12 13 31 12 13 31 12 13 
23 18 20 23 23 23 27 26 26 13 13 13 13 13 10 15 15 15 13 13 13 13 13 13 
14 14 14 15 15 15 11 11 11 11 11 11 11 11 11 10 10 10 14 14 14 14 14 14 
11 11 11 10 10 10 13 13 13 14 14 14 11 11 11 11 11 11 11 11 11 11 11 11 
11 11 11 14 14 14 14 14 14 13 13 13 11 11 13 13 13 13 10 13 10 21 21 18 
25 24 25 27 26 26 27 26 26 28 27 29 28 27 29 25 24 25 9 9 9 10 13 10 
9 9 9 10 10 10 11 11 11 11 11 11 13 13 13 11 11 11 11 11 11 9 9 9 
10 10 10 10 10 10 10 10 10 10 10 10 10 10 10 10 10 10 9 9 9 10 10 10 

13 13 13 11 11 11 11 11 11 11 11 11 10 10 10 11 11 11 11 11 11 9 9 9 
11 11 11 11 11 11 13 13 13 9 9 9 11 11 11 9 9 9 11 11 11 10 10 10 
7 7 7 10 13 10 21 21 18 25 24 25 25 24 25 25 24 25 27 26 26 27 26 26 
15 15 15 13 13 13 14 14 14 13 13 13 11 11 11 11 11 11 11 11 11 14 14 14 
11 11 11 11 11 11 10 10 10 13 13 13 11 11 11 10 10 10 11 11 11 13 13 13 
13 13 13 11 11 11 11 11 11 13 13 13 9 9 9 11 11 11 11 11 11 14 14 14 
13 13 13 13 13 13 14 14 14 13 13 13 11 11 11 11 11 11 13 13 13 11 11 11 
14 14 14 14 14 14 14 14 14 14 14 14 13 13 13 14 14 14 9 9 9 11 11 11 
11 11 11 11 11 11 11 11 11 11 11 11 13 13 13 13 13 13 13 13 13 15 15 15 
13 13 13 11 11 11 11 11 11 11 11 11 11 11 11 13 13 13 14 14 14 13 13 13 
10 10 10 13 13 13 14 14 14 14 14 14 11 11 11 11 11 11 18 18 19 18 18 19 
20 20 21 20 20 21 20 20 21 18 18 19 22 21 22 18 18 19 18 18 19 20 20 21 
18 18 19 20 20 21 20 20 21 20 20 21 18 18 19 18 18 19 18 18 19 18 18 19 
20 20 21 20 20 21 20 20 21 22 21 22 20 20 21 18 18 19 18 18 19 20 20 21 
18 18 19 20 20 21 23 23 23 18 18 19 18 18 19 18 18 19 20 20 21 22 21 22 
20 20 21 20 20 21 20 20 21 20 20 21 20 20 21 18 18 19 20 20 21 18 18 19 
20 20 21 20 20 21 18 18 19 20 20 21 20 20 21 20 20 21 20 20 21 20 20 21 
22 21 22 20 20 21 22 21 22 20 20 21 20 20 21 13 13 13 13 13 13 14 14 14 
14 14 14 11 11 11 11 11 11 11 11 11 11 11 11 14 14 14 10 10 10 13 13 13 
13 13 13 11 11 11 13 13 13 14 14 14 10 10 10 11 11 11 11 11 11 13 13 13 
14 14 14 11 11 11 11 11 11 15 15 15 13 10 11 21 21 18 27 26 26 23 18 20 
26 11 11 31 12 13 26 11 11 31 12 13 31 12 13 31 12 13 26 11 11 26 11 11 
31 12 13 26 11 11 26 11 11 26 11 11 31 12 13 31 12 13 31 12 13 31 12 13 
26 11 11 21 21 18 25 21 24 14 14 14 11 11 11 11 11 13 13 13 13 13 13 13 
11 11 11 11 11 11 11 11 11 11 11 11 13 13 13 14 14 14 13 13 13 13 13 13 
13 13 13 13 13 13 14 14 14 11 11 11 11 11 11 11 11 11 11 11 11 13 13 13 
11 11 11 11 11 11 13 13 13 11 11 11 13 13 13 11 11 11 10 13 10 21 21 18 
27 26 26 27 26 26 28 27 29 28 27 29 28 27 29 25 21 24 10 10 10 15 15 15 
10 10 10 11 11 11 11 11 11 11 11 11 11 11 11 11 11 11 10 10 10 11 11 11 
11 11 11 10 10 10 9 9 9 11 11 11 9 9 9 11 11 11 11 11 11 11 11 11 

11 11 11 13 13 13 13 13 13 10 10 10 11 11 11 13 13 13 13 13 13 10 10 10 
13 13 13 11 11 11 9 9 9 13 13 13 10 10 10 11 11 11 9 9 9 10 10 10 
11 11 11 10 13 10 21 21 18 27 26 26 23 23 23 27 26 26 23 23 23 28 27 29 
15 15 15 13 13 13 13 13 13 11 11 11 11 11 11 11 11 11 11 11 11 14 14 14 
13 13 13 11 11 11 10 10 10 10 10 10 13 13 13 11 11 11 13 13 13 11 11 11 
11 11 11 11 11 11 11 11 11 11 11 11 14 14 14 11 11 11 13 13 13 11 11 11 
11 11 11 11 11 11 13 13 13 14 14 14 11 11 11 11 11 11 13 13 13 13 13 13 
13 13 13 11 11 11 14 14 14 15 15 15 13 10 11 11 11 11 11 11 11 13 13 13 
14 14 14 14 14 14 13 13 13 13 13 13 11 11 11 11 11 11 9 9 9 11 11 11 
11 11 11 11 11 11 11 11 11 11 11 11 11 11 11 14 14 14 11 11 11 11 11 11 
11 11 11 11 11 11 11 11 11 11 11 11 13 13 13 13 13 13 11 11 11 11 11 13 
15 15 15 15 15 15 14 14 14 11 11 13 14 14 14 14 14 14 15 15 15 11 11 13 
11 11 13 11 11 13 11 11 13 14 14 14 11 11 11 11 11 13 14 14 14 15 15 15 
14 14 14 15 15 15 14 14 14 11 11 13 15 15 15 11 11 13 13 13 13 15 15 15 
11 11 13 14 14 14 15 15 15 11 11 13 15 15 15 14 14 14 15 15 15 14 14 14 
13 13 13 15 15 15 13 13 13 14 14 14 15 15 15 14 14 14 15 15 15 15 15 15 
14 14 14 11 11 13 14 14 14 13 13 13 14 14 14 14 14 14 15 15 15 13 13 13 
14 14 14 14 14 14 15 15 15 11 11 13 15 15 15 13 13 13 14 14 14 11 11 11 
11 11 11 10 10 10 14 14 14 14 14 14 11 11 11 11 11 11 14 14 14 14 14 14 
13 13 13 11 11 11 13 13 13 14 14 14 13 13 13 11 11 11 13 13 13 13 13 13 
13 13 13 13 13 13 13 13 13 14 14 14 15 15 15 21 21 18 25 24 25 31 12 13 
31 12 13 31 12 13 31 12 13 31 12 13 31 12 13 26 11 11 26 11 11 26 11 11 
25 11 17 26 11 11 26 11 11 26 11 11 26 11 11 31 12 13 26 11 11 31 12 13 
26 11 11 23 18 20 25 24 25 13 13 13 14 14 14 15 15 15 13 13 13 13 13 13 
11 11 11 13 13 13 11 11 11 13 13 13 11 11 11 11 11 11 13 13 13 11 11 11 
11 11 11 13 13 13 14 14 14 11 11 11 13 13 13 11 11 11 10 10 10 11 11 11 
11 11 11 11 11 11 11 11 11 11 11 11 13 13 13 13 10 11 13 13 10 21 21 18 
27 26 26 28 27 29 27 26 26 27 26 26 28 27 29 25 21 24 9 9 9 14 14 14 
11 11 11 11 11 11 11 11 11 11 11 11 10 10 10 11 11 11 10 10 10 11 11 11 
11 11 11 11 11 11 9 9 9 11 11 11 10 10 10 9 9 9 11 11 11 10 10 10 

11 11 11 13 13 13 11 11 11 11 11 11 11 11 11 11 11 11 10 10 10 10 10 10 
13 13 13 11 11 11 10 10 10 10 10 10 11 11 11 13 13 13 11 11 11 13 13 13 
11 11 11 11 11 11 21 21 18 25 24 25 27 26 26 25 24 25 28 27 29 27 26 26 
11 11 13 13 13 13 11 11 11 11 11 11 14 14 14 13 13 13 13 13 13 11 11 11 
11 11 11 11 11 11 13 13 13 13 13 13 13 13 13 14 14 14 14 14 14 11 11 11 
11 11 11 11 11 11 11 11 11 11 11 11 13 13 13 13 13 13 11 11 11 11 11 11 
11 11 11 11 11 11 13 13 13 13 13 13 13 13 13 13 13 13 11 11 11 11 11 11 
14 14 14 10 10 10 13 10 11 14 14 14 11 11 11 11 11 11 11 11 11 11 11 11 
11 11 11 14 14 14 11 11 11 11 11 11 11 11 11 11 11 11 11 11 11 13 13 13 
14 14 14 11 11 11 11 11 11 14 14 14 10 10 10 11 11 11 11 11 11 11 11 11 
11 11 11 13 13 13 11 11 11 13 13 13 11 11 11 11 11 11 13 13 13 11 11 11 
11 11 11 11 11 11 14 14 14 11 11 11 13 13 13 11 11 11 14 14 14 11 11 11 
11 11 11 10 10 10 11 11 11 13 13 13 13 13 13 13 13 13 13 13 13 11 11 11 
15 15 15 13 13 13 11 11 11 15 15 15 14 14 14 13 13 13 14 14 14 11 11 11 
11 11 11 11 11 11 14 14 14 11 11 11 14 14 14 11 11 11 14 14 14 13 10 11 
11 11 11 15 15 15 13 10 11 13 13 13 14 14 14 15 15 15 11 11 11 11 11 11 
11 11 11 11 11 11 15 15 15 14 14 14 14 14 14 11 11 11 10 10 10 11 11 11 
10 10 10 11 11 11 13 13 13 11 11 11 13 13 13 14 14 14 14 14 14 13 13 13 
14 14 14 13 13 13 11 11 11 11 11 11 13 13 13 14 14 14 11 11 11 13 13 13 
11 11 11 11 11 11 11 11 11 11 11 11 11 11 11 11 11 11 13 13 13 11 11 11 
13 13 13 11 11 11 13 13 13 10 13 10 13 10 11 21 21 18 25 24 25 26 11 11 
31 12 13 26 11 11 26 11 11 26 11 11 31 12 13 31 12 13 31 12 13 26 11 11 
22 10 14 26 11 11 26 11 11 26 11 11 26 11 11 26 11 11 26 11 11 31 12 13 
31 12 13 23 18 20 25 21 24 13 13 13 11 11 11 11 11 11 11 11 11 14 14 14 
14 14 14 11 11 11 13 13 13 13 13 13 15 15 15 11 11 11 10 10 10 11 11 11 
13 13 13 14 14 14 11 11 11 11 11 11 10 10 10 10 10 10 11 11 11 13 13 13 
11 11 11 11 11 11 11 11 11 15 15 15 11 11 11 11 11 11 10 10 10 21 21 18 
25 24 25 27 26 26 27 26 26 25 24 25 27 26 26 25 21 24 10 10 10 10 13 10 
10 10 10 10 10 10 11 11 11 10 10 10 11 11 11 7 7 7 11 11 11 11 11 11 
10 10 10 11 11 11 11 11 11 9 9 9 9 9 9 11 11 11 11 11 11 11 11 11 

11 11 11 10 10 10 13 13 13 10 10 10 11 11 11 11 11 11 10 10 10 11 11 11 
10 10 10 9 9 9 11 11 11 11 11 11 9 9 9 11 11 11 11 11 11 11 11 11 
11 11 11 10 10 10 17 18 16 25 24 25 25 24 25 25 24 25 23 23 23 25 24 25 
13 13 13 11 11 13 13 13 13 11 11 11 13 13 13 13 13 13 11 11 11 11 11 11 
11 11 11 14 14 14 11 11 11 13 13 13 11 11 11 13 13 13 10 10 10 11 11 11 
13 13 13 13 13 13 11 11 11 13 13 13 13 13 13 11 11 11 11 11 11 10 10 10 
14 14 14 14 14 14 14 14 14 13 13 13 11 11 11 11 11 11 11 11 11 13 13 13 
13 13 13 11 11 11 11 11 11 15 15 15 11 11 11 11 11 11 14 14 14 11 11 11 
11 11 11 13 13 13 13 13 13 14 14 14 11 11 11 13 13 13 11 11 11 13 13 13 
10 10 10 14 14 14 13 13 13 10 10 10 11 11 11 11 11 11 11 11 11 11 11 11 
13 13 13 13 13 13 13 13 13 13 13 13 14 14 14 11 11 11 13 13 13 13 13 13 
15 15 15 14 14 14 13 13 13 13 10 11 14 14 14 11 11 11 11 11 11 11 11 11 
11 11 11 13 13 13 13 13 13 11 11 11 11 11 11 13 13 13 15 15 15 13 13 13 
14 14 14 14 14 14 15 15 15 11 11 11 10 10 10 13 13 13 11 11 11 10 10 10 
11 11 11 11 11 11 11 11 11 9 9 9 11 11 11 11 11 11 11 11 11 13 10 11 
13 10 11 11 9 10 11 9 10 11 11 11 10 10 10 11 11 11 11 11 11 10 10 10 
11 11 11 11 11 11 13 13 13 11 11 11 11 11 11 11 11 11 14 14 14 13 13 13 
11 11 11 13 13 13 14 14 14 13 13 13 11 11 11 13 13 13 11 11 11 10 10 10 
14 14 14 14 14 14 13 13 13 11 11 11 11 11 11 11 11 11 14 14 14 13 13 13 
11 11 11 11 11 11 11 11 11 14 14 14 11 11 11 11 11 11 11 11 11 11 11 11 
14 14 14 11 11 11 15 15 15 10 13 10 10 10 10 17 18 16 25 24 25 26 11 11 
31 12 13 31 12 13 26 11 11 31 12 13 31 12 13 31 12 13 26 11 11 26 11 11 
25 11 17 26 11 11 26 11 11 26 11 11 26 11 11 26 11 11 31 12 13 31 12 13 
26 11 11 23 18 20 25 24 25 13 10 11 11 11 11 13 13 13 14 14 14 14 14 14 
15 15 15 13 13 13 13 13 13 13 13 13 13 13 13 14 14 14 14 14 14 11 11 11 
13 13 13 11 11 11 13 13 13 14 14 14 13 13 13 13 13 13 13 13 13 11 11 11 
11 11 11 11 11 11 10 10 10 15 15 15 11 11 11 14 14 14 9 9 9 17 18 16 
23 23 23 27 26 26 28 27 29 27 26 26 25 24 25 23 18 20 10 10 10 10 13 10 
9 9 9 11 11 11 10 10 10 13 13 13 10 10 10 11 11 11 11 11 11 11 11 11 
11 11 11 13 13 13 11 11 11 10 10 10 11 11 11 13 13 13 11 11 11 9 9 9 

11 11 11 11 11 11 11 11 11 11 11 11 14 14 14 11 11 11 11 11 11 11 11 11 
11 11 11 10 10 10 11 11 11 11 11 11 11 11 11 11 11 11 9 9 9 9 9 9 
9 9 9 10 10 10 17 18 16 25 24 25 25 24 25 25 24 25 25 24 25 25 24 25 
13 13 13 13 13 13 11 11 11 10 10 10 11 11 11 13 13 13 11 11 11 11 11 11 
10 10 10 13 13 13 11 11 11 11 11 11 11 11 11 11 11 11 10 10 10 13 13 13 
11 11 11 11 11 11 14 14 14 15 15 15 11 11 11 10 10 10 14 14 14 10 10 10 
13 13 13 14 14 14 11 11 11 11 11 11 11 9 10 13 13 13 11 9 10 13 13 13 
11 11 11 14 14 14 11 11 11 10 10 10 11 11 11 13 13 13 11 11 11 11 11 11 
9 9 9 13 13 13 14 14 14 13 13 13 11 11 11 11 11 11 10 10 10 15 15 15 
14 14 14 10 10 10 14 14 14 13 13 13 14 14 14 11 11 11 13 13 13 11 11 11 
11 11 11 13 13 13 11 11 11 13 13 13 13 13 13 14 14 14 13 13 13 14 14 14 
15 15 15 17 18 16 17 18 16 15 15 15 17 18 16 14 14 14 13 13 10 13 13 10 
13 13 10 17 18 16 14 14 14 14 14 14 13 13 10 14 14 14 14 14 14 14 14 14 
15 15 15 15 15 15 13 13 10 15 15 15 14 14 14 15 15 15 15 15 15 14 14 14 
15 15 15 15 15 15 14 14 14 15 15 15 15 15 15 14 14 14 13 13 10 14 14 14 
15 15 15 14 14 14 15 15 15 15 15 15 13 13 13 15 15 15 17 18 16 15 15 15 
14 14 14 15 15 15 11 11 11 17 18 16 15 15 15 15 15 15 13 13 13 18 18 19 
13 13 13 13 13 13 14 14 14 15 15 15 14 14 14 14 14 14 13 13 13 13 13 13 
11 11 11 10 10 10 11 11 11 13 13 13 11 11 11 14 14 14 14 14 14 11 11 11 
11 11 11 7 7 7 14 14 14 14 14 14 11 11 11 13 13 13 13 13 13 14 14 14 
11 11 11 11 11 11 15 15 15 14 14 14 13 10 11 17 18 16 27 26 26 25 11 17 
31 12 13 26 11 11 26 11 11 26 11 11 26 11 11 26 11 11 26 11 11 22 10 14 
26 11 11 26 11 11 26 11 11 26 11 11 31 12 13 26 11 11 26 11 11 26 11 11 
34 14 15 23 18 20 27 26 26 14 14 14 13 13 10 11 11 11 10 10 10 11 11 11 
14 14 14 11 11 11 13 13 13 14 14 14 11 11 11 10 10 10 13 13 13 13 13 13 
11 11 11 11 11 11 11 11 11 13 13 13 11 11 11 15 15 15 14 14 14 11 11 11 
11 11 11 11 11 11 11 11 11 11 11 11 11 11 11 11 11 11 13 13 10 17 18 16 
27 26 26 27 26 26 28 27 29 28 27 29 27 26 26 25 21 24 9 9 9 10 13 10 
11 11 11 11 11 11 7 7 7 11 11 11 10 10 10 9 9 9 11 11 11 10 10 10 
11 11 11 11 11 11 11 11 11 9 9 9 11 11 11 11 11 11 13 13 13 11 11 11 

10 10 10 11 11 11 11 11 11 11 11 11 11 11 11 11 11 11 10 10 10 11 11 11 
11 11 11 11 11 11 11 11 11 11 11 11 11 11 11 11 11 11 11 11 11 10 10 10 
11 11 11 11 11 11 17 18 16 25 24 25 25 24 25 25 24 25 25 24 25 25 21 24 
13 10 11 13 13 13 13 13 13 13 13 13 11 11 11 10 10 10 11 11 11 14 14 14 
15 15 15 11 11 11 13 13 13 14 14 14 11 11 11 11 11 11 11 11 11 11 11 11 
11 11 11 11 11 11 14 14 14 11 11 11 13 13 13 11 11 11 11 11 11 11 11 11 
11 11 11 11 11 11 13 13 13 13 13 13 14 14 14 13 10 11 13 10 11 18 10 13 
18 10 13 18 10 13 13 10 11 11 11 11 13 13 13 13 13 13 11 11 11 14 14 14 
13 13 13 14 14 14 11 11 11 11 11 11 13 13 13 14 14 14 11 11 11 11 11 11 
13 13 13 11 11 11 13 13 13 13 13 13 11 11 11 10 10 10 10 10 10 11 11 11 
11 11 11 11 11 11 14 14 14 11 11 11 15 15 15 14 14 14 18 18 19 18 18 19 
17 18 16 21 21 18 21 21 18 22 21 22 17 18 16 17 18 16 21 21 18 17 18 16 
18 18 19 17 18 16 17 18 16 21 21 18 17 18 16 17 18 16 17 18 16 17 18 16 
21 21 18 17 18 16 15 15 15 17 18 16 15 15 15 18 18 19 17 18 16 18 18 19 
21 21 18 17 18 16 17 18 16 17 18 16 17 18 16 17 18 16 21 21 18 18 18 19 
21 21 18 18 18 19 17 18 16 18 18 19 18 18 19 18 18 19 18 18 19 21 21 18 
21 21 18 18 18 19 18 18 19 18 18 19 18 18 19 18 18 19 18 18 19 18 18 19 
17 18 16 17 18 16 18 18 19 21 21 18 17 18 16 11 11 11 10 10 10 9 9 9 
11 11 11 14 14 14 14 14 14 11 11 11 11 11 11 11 11 11 11 11 11 10 10 10 
11 11 11 11 11 11 13 13 13 11 11 11 14 14 14 11 11 11 11 11 11 13 13 13 
13 13 13 14 14 14 14 14 14 11 9 10 11 11 11 17 18 16 23 23 23 22 15 15 
26 11 11 31 12 13 31 12 13 26 11 11 31 12 13 26 11 11 22 10 14 26 11 11 
26 11 11 26 11 11 22 10 14 26 11 11 26 11 11 31 12 13 26 11 11 31 12 13 
22 15 15 25 24 25 25 24 25 13 10 11 10 13 10 13 13 13 11 11 11 13 13 13 
14 14 14 13 13 13 14 14 14 13 13 13 13 13 13 13 13 13 11 11 11 11 11 11 
11 11 11 11 11 11 11 11 11 14 14 14 14 14 14 11 11 11 13 13 13 14 14 14 
11 11 11 13 13 13 13 13 13 11 11 11 13 13 13 13 13 13 13 13 10 21 21 18 
27 26 26 28 27 29 28 27 29 27 26 26 27 26 26 25 21 24 10 10 10 10 13 10 
11 11 11 11 11 11 10 10 10 11 11 11 9 9 9 10 10 10 9 9 9 10 10 10 
11 11 11 11 11 11 11 11 11 11 11 11 11 11 11 11 11 11 11 11 11 11 11 11 

11 11 11 10 10 10 11 11 11 7 7 7 10 10 10 10 10 10 7 7 7 11 11 11 
13 13 13 13 13 13 10 10 10 10 10 10 10 10 10 10 10 10 11 11 11 9 9 9 
13 13 13 11 11 11 17 18 16 25 24 25 23 23 23 27 26 26 25 24 25 23 23 23 
14 15 19 13 13 13 13 13 13 13 13 13 13 13 13 15 15 15 11 11 11 11 11 11 
11 11 11 13 13 13 11 11 11 11 11 11 11 11 11 13 13 13 13 13 13 14 14 14 
13 13 13 11 11 11 11 11 11 11 11 11 14 14 14 11 11 11 15 15 15 13 13 13 
13 13 13 13 13 13 11 9 10 13 13 13 18 10 13 18 10 13 22 10 14 22 10 14 
22 10 14 22 15 15 13 10 11 11 11 11 11 11 11 13 13 13 11 11 11 14 14 14 
11 11 11 11 11 11 11 11 11 11 11 11 14 14 14 14 14 14 11 11 11 11 11 11 
13 13 13 13 13 13 13 13 13 11 11 11 11 11 11 11 11 11 14 14 14 11 11 11 
14 14 14 11 11 11 14 14 14 11 11 11 15 15 15 15 15 15 20 20 21 15 15 15 
18 18 19 18 18 19 18 18 19 18 18 19 20 20 21 18 18 19 18 18 19 18 18 19 
18 18 19 18 18 19 18 18 19 18 18 19 18 18 19 18 18 19 18 18 19 20 20 21 
18 18 19 18 18 19 18 18 19 18 18 19 20 20 21 18 18 19 18 18 19 18 18 19 
18 18 19 18 18 19 20 20 21 18 18 19 18 18 19 18 18 19 18 18 19 18 18 19 
20 20 21 20 20 21 18 18 19 18 18 19 18 18 19 18 18 19 18 18 19 18 18 19 
17 18 16 18 18 19 22 21 22 18 18 19 20 20 21 18 18 19 20 20 21 18 18 19 
18 18 19 18 18 19 18 18 19 20 20 21 18 18 19 14 14 14 14 14 14 10 10 10 
11 11 11 11 11 11 13 13 13 11 11 11 10 10 10 11 11 11 11 11 11 13 13 13 
13 13 13 13 13 13 11 11 11 11 11 11 11 11 11 10 10 10 14 14 14 15 15 15 
13 13 13 13 13 13 11 11 11 13 13 13 13 13 10 17 18 16 25 24 25 25 21 24 
31 12 13 26 11 11 26 11 11 26 11 11 22 15 15 26 11 11 22 10 14 26 11 11 
26 11 11 26 11 11 26 11 11 26 11 11 26 11 11 22 15 15 26 11 11 26 11 11 
23 18 20 27 26 26 27 26 26 13 13 13 11 11 13 13 13 13 11 11 11 13 13 13 
11 11 11 13 13 13 11 11 11 11 11 11 13 13 13 13 13 13 13 13 13 11 11 11 
11 11 11 11 11 11 13 13 13 11 11 11 13 13 13 11 11 11 13 13 13 14 14 14 
13 13 13 13 13 13 11 11 11 11 11 11 11 11 11 14 14 14 11 11 11 18 18 19 
27 26 26 27 26 26 27 26 26 27 26 26 25 24 25 23 18 20 11 11 11 10 13 10 
10 13 10 11 11 11 10 10 10 10 10 10 11 11 11 11 11 11 13 13 13 11 11 11 
10 10 10 11 11 11 11 11 11 9 9 9 11 11 11 11 11 11 11 11 11 11 11 11 

11 11 11 11 11 11 9 9 9 10 10 10 11 11 11 11 11 11 11 11 11 11 11 11 
11 11 11 10 10 10 11 11 11 11 11 11 10 10 10 9 9 9 10 10 10 10 10 10 
11 11 11 11 11 11 17 18 16 25 24 25 25 24 25 23 23 23 25 24 25 25 24 25 
15 15 15 13 13 13 13 13 13 11 11 11 13 13 13 13 13 13 13 13 13 13 13 13 
11 11 11 10 10 10 13 13 13 11 11 11 11 11 11 13 13 13 13 13 13 11 11 11 
13 13 13 11 11 11 11 11 11 11 11 11 14 14 14 11 11 11 14 14 14 13 13 13 
10 10 10 13 13 13 13 10 11 22 15 15 18 10 13 18 10 13 25 11 17 25 11 17 
25 11 17 22 15 15 13 13 13 13 13 13 11 11 11 11 11 11 13 13 13 11 11 11 
11 11 11 13 13 13 11 11 11 11 11 11 11 11 11 13 13 13 11 11 11 13 13 13 
14 14 14 11 11 11 11 11 11 11 11 11 11 11 11 11 11 11 11 11 11 10 10 10 
11 11 11 10 10 10 11 11 11 11 11 11 14 14 14 15 15 15 20 20 21 17 18 16 
18 18 19 18 18 19 18 18 19 18 18 19 20 20 21 20 20 21 18 18 19 18 18 19 
18 18 19 18 18 19 18 18 19 18 18 19 20 20 21 20 20 21 18 18 19 18 18 19 
18 18 19 20 20 21 18 18 19 18 18 19 18 18 19 18 18 19 18 18 19 18 18 19 
18 18 19 18 18 19 18 18 19 18 18 19 18 18 19 18 18 19 18 18 19 18 18 19 
18 18 19 18 18 19 18 18 19 18 18 19 18 18 19 18 18 19 18 18 19 18 18 19 
18 18 19 18 18 19 20 20 21 17 18 16 18 18 19 18 18 19 18 18 19 18 18 19 
17 18 16 18 18 19 18 18 19 18 18 19 18 18 19 14 14 14 13 10 11 13 13 13 
13 13 13 11 11 11 11 11 11 11 11 11 11 11 11 14 14 14 14 14 14 11 11 11 
11 11 11 11 11 11 13 13 13 11 11 11 13 13 13 10 10 10 11 11 11 13 13 13 
10 10 10 13 13 13 13 13 13 13 10 11 14 14 14 17 18 16 27 26 26 25 24 25 
22 15 15 26 11 11 31 12 13 25 11 17 31 12 13 26 11 11 26 11 11 31 12 13 
26 11 11 26 11 11 26 11 11 26 11 11 26 11 11 31 12 13 26 11 11 22 15 15 
25 24 25 27 26 26 25 24 25 13 13 13 13 13 13 14 14 14 11 11 11 13 13 13 
13 13 13 11 11 11 11 11 11 11 11 11 14 14 14 11 11 11 13 13 13 14 14 14 
11 11 11 14 14 14 10 10 10 14 14 14 11 11 11 11 11 11 13 13 13 14 14 14 
11 11 11 11 11 11 11 11 11 14 14 14 13 13 13 11 11 11 11 11 11 18 18 19 
27 26 26 25 24 25 25 24 25 25 24 25 25 24 25 25 21 24 10 10 10 10 13 10 
9 9 9 10 10 10 11 11 11 11 11 11 11 11 11 10 10 10 11 11 11 10 10 10 
11 11 11 11 11 11 13 13 13 11 11 11 10 10 10 10 10 10 11 11 11 11 11 11 

10 10 10 10 10 10 10 10 10 10 10 10 10 10 10 11 11 11 11 11 11 11 11 11 
11 11 11 11 11 11 11 11 11 11 11 11 11 11 11 9 9 9 11 11 11 11 11 11 
11 11 11 11 11 11 17 18 16 22 21 22 25 24 25 25 24 25 23 23 23 25 24 25 
15 15 15 13 13 13 14 14 14 13 13 13 14 14 14 11 11 11 11 11 11 11 11 11 
11 11 11 13 13 13 11 11 11 11 11 11 11 11 11 11 11 11 13 13 13 11 11 11 
11 11 11 11 11 11 11 11 11 10 10 10 10 10 10 11 11 11 13 13 13 11 11 11 
11 11 11 14 14 14 18 10 13 22 10 14 22 10 14 25 11 17 25 11 17 25 11 17 
25 11 17 18 10 13 15 15 15 11 11 11 11 11 11 11 11 11 11 11 11 11 11 11 
11 11 11 11 11 11 13 13 13 10 10 10 10 10 10 14 14 14 13 13 13 11 11 11 
10 10 10 11 11 11 14 14 14 10 10 10 11 11 11 13 13 13 15 15 15 13 13 13 
11 11 11 11 11 11 11 11 11 13 13 13 11 11 11 13 13 13 18 18 19 18 18 19 
18 18 19 20 20 21 18 18 19 18 18 19 18 18 19 18 18 19 18 18 19 20 20 21 
18 18 19 18 18 19 18 18 19 18 18 19 18 18 19 18 18 19 18 18 19 18 18 19 
18 18 19 18 18 19 18 18 19 18 18 19 18 18 19 18 18 19 20 20 21 20 20 21 
18 18 19 17 18 16 17 18 16 18 18 19 18 18 19 18 18 19 18 18 19 18 18 19 
18 18 19 18 18 19 18 18 19 18 18 19 18 18 19 18 18 19 18 18 19 18 18 19 
18 18 19 22 21 22 20 20 21 18 18 19 18 18 19 17 18 16 18 18 19 17 18 16 
18 18 19 18 18 19 18 18 19 17 18 16 18 18 19 13 10 11 13 13 13 13 13 13 
14 14 14 10 10 10 14 14 14 11 11 11 9 9 9 11 11 11 11 11 11 14 14 14 
13 13 13 11 11 11 11 11 11 11 11 11 11 11 11 14 14 14 11 11 11 13 13 13 
14 14 14 15 15 15 13 13 13 11 11 11 11 11 11 21 21 18 27 26 26 25 24 25 
25 21 24 23 18 20 26 11 11 26 11 11 22 15 15 26 11 11 26 11 11 25 11 17 
26 11 11 31 12 13 22 15 15 26 11 11 26 11 11 26 11 11 22 15 15 31 23 20 
25 24 25 27 26 26 25 21 24 15 15 15 11 11 13 11 11 11 13 13 13 14 14 14 
11 11 11 11 11 11 13 13 13 11 11 11 14 14 14 11 11 11 14 14 14 11 11 11 
11 11 11 13 13 13 11 11 11 11 11 11 11 11 11 11 11 11 11 11 11 11 11 11 
11 11 11 11 11 11 13 13 13 13 13 13 13 13 13 10 10 10 11 11 11 18 18 19 
27 26 26 27 26 26 25 24 25 27 26 26 27 26 26 25 21 24 9 9 9 10 13 10 
10 10 10 10 10 10 11 11 11 11 11 11 11 11 11 11 11 11 11 11 11 13 13 13 
10 10 10 11 11 11 9 9 9 11 11 11 11 11 11 10 10 10 10 10 10 11 11 11 

11 11 11 13 13 13 11 11 11 9 9 9 9 9 9 11 11 11 9 9 9 13 13 13 
13 13 13 10 10 10 11 11 11 11 11 11 11 11 11 11 11 11 11 11 11 11 11 11 
11 11 11 11 11 11 17 18 16 22 21 22 22 21 22 23 23 23 23 23 23 23 23 23 
11 11 13 13 13 13 11 11 11 13 13 13 11 11 11 13 13 13 11 11 11 11 11 11 
14 14 14 11 11 11 11 11 11 11 11 11 13 13 13 13 13 13 11 11 11 11 11 11 
13 13 13 11 11 11 11 11 11 10 10 10 11 11 11 13 13 13 11 11 11 13 10 11 
15 15 15 18 10 13 22 10 14 25 11 17 25 11 17 25 11 17 25 11 17 18 10 13 
15 15 15 14 14 14 13 10 11 10 10 10 11 11 11 11 11 11 11 11 11 13 13 13 
10 10 10 11 11 11 13 13 13 13 13 13 11 11 11 11 11 11 13 13 13 11 11 11 
11 11 11 13 13 13 11 11 11 14 14 14 11 11 11 11 11 11 13 13 13 11 11 11 
11 11 11 11 11 11 13 13 13 14 14 14 14 14 14 14 14 14 18 18 19 18 18 19 
18 18 19 18 18 19 18 18 19 18 18 19 18 18 19 18 18 19 18 18 19 18 18 19 
18 18 19 18 18 19 18 18 19 18 18 19 18 18 19 18 18 19 18 18 19 18 18 19 
18 18 19 18 18 19 18 18 19 17 18 16 18 18 19 18 18 19 18 18 19 18 18 19 
18 18 19 17 18 16 18 18 19 18 18 19 17 18 16 18 18 19 18 18 19 18 18 19 
20 20 21 18 18 19 18 18 19 18 18 19 17 18 16 18 18 19 18 18 19 18 18 19 
18 18 19 18 18 19 20 20 21 20 20 21 18 18 19 20 20 21 18 18 19 18 18 19 
20 20 21 18 18 19 18 18 19 17 18 16 18 18 19 13 10 11 15 15 15 13 13 13 
10 10 10 13 13 13 13 13 13 13 13 13 11 11 11 14 14 14 11 11 11 11 11 11 
15 15 15 13 13 13 15 15 15 11 11 11 13 13 13 13 13 13 11 11 11 14 14 14 
11 11 11 14 14 14 11 11 11 11 11 11 10 10 10 17 18 16 27 26 26 27 26 26 
25 24 25 23 23 23 22 15 15 26 11 11 26 11 11 31 12 13 31 12 13 26 11 11 
26 11 11 26 11 11 26 11 11 31 12 13 26 11 11 22 15 15 31 23 20 23 23 23 
27 26 26 27 26 26 25 21 24 13 13 13 11 11 11 11 11 11 11 11 11 14 14 14 
13 13 13 13 13 13 13 13 13 14 14 14 11 11 11 13 13 13 11 11 11 13 13 13 
11 11 11 11 11 11 14 14 14 14 14 14 11 11 11 13 13 13 14 14 14 11 11 11 
11 11 11 11 11 11 11 11 11 13 13 13 15 15 15 13 13 13 11 11 11 18 18 19 
25 24 25 22 21 22 27 26 26 25 24 25 27 26 26 25 21 24 10 10 10 10 13 10 
10 13 10 10 10 10 9 9 9 9 9 9 13 13 13 11 11 11 11 11 11 11 11 11 
9 9 9 11 11 11 10 10 10 10 10 10 9 9 9 11 11 11 11 11 11 11 11 11 

10 10 10 7 7 7 9 9 9 11 11 11 9 9 9 9 9 9 11 11 11 11 11 11 
9 9 9 11 11 11 11 11 11 13 13 13 10 10 10 11 11 11 11 11 11 11 11 11 
10 10 10 11 11 11 14 14 14 23 23 23 23 23 23 20 20 21 23 23 23 22 21 22 
13 13 13 13 13 13 11 11 11 11 11 11 11 11 11 11 11 11 13 13 13 13 13 13 
13 13 13 13 13 13 14 14 14 14 14 14 11 11 11 13 13 13 11 11 11 11 11 11 
11 11 11 13 13 13 13 13 13 11 11 11 11 11 11 13 13 13 11 11 11 13 13 13 
18 10 13 22 10 14 25 11 17 25 11 17 25 11 17 25 11 17 18 10 13 18 10 13 
11 9 10 11 11 11 14 14 14 13 13 13 11 11 11 11 11 11 13 13 13 14 14 14 
9 9 9 11 11 11 11 11 11 14 14 14 11 11 11 13 13 13 10 10 10 11 11 11 
13 13 13 14 14 14 13 13 13 11 11 13 11 11 13 11 11 13 14 14 14 11 11 11 
13 13 13 11 11 13 11 11 13 11 11 11 11 11 11 15 15 15 18 18 19 18 18 19 
18 18 19 18 18 19 18 18 19 18 18 19 17 18 16 18 18 19 18 18 19 18 18 19 
18 18 19 18 18 19 17 18 16 18 18 19 18 18 19 18 18 19 18 18 19 18 18 19 
20 20 21 18 18 19 18 18 19 18 18 19 21 21 18 20 20 21 18 18 19 18 18 19 
18 18 19 18 18 19 15 15 15 18 18 19 18 18 19 18 18 19 20 20 21 18 18 19 
18 18 19 18 18 19 18 18 19 17 18 16 20 20 21 20 20 21 18 18 19 18 18 19 
18 18 19 18 18 19 18 18 19 20 20 21 18 18 19 20 20 21 18 18 19 18 18 19 
20 20 21 18 18 19 18 18 19 18 18 19 18 18 19 15 15 15 13 10 11 13 13 13 
13 13 13 13 13 13 13 13 13 11 11 11 11 11 11 11 11 11 11 11 11 15 15 15 
9 9 9 11 11 11 11 11 11 11 11 11 13 13 13 11 11 11 11 11 11 11 11 11 
11 11 11 15 15 15 13 13 13 11 11 11 13 13 13 17 18 16 27 26 26 25 24 25 
27 26 26 27 26 26 27 26 26 25 21 24 22 15 15 26 11 11 31 12 13 26 11 11 
26 11 11 26 11 11 26 11 11 26 11 11 23 18 20 25 24 25 28 27 29 27 26 26 
27 26 26 25 24 25 25 24 25 13 13 13 11 11 11 14 14 14 13 13 13 14 14 14 
11 11 11 11 11 11 10 10 10 11 11 11 11 11 11 11 11 11 10 10 10 13 13 13 
10 10 10 11 11 13 14 14 14 13 13 13 10 10 10 11 11 11 10 10 10 13 13 13 
14 14 14 13 13 13 11 11 11 11 11 11 13 13 13 11 11 11 13 13 10 17 18 16 
25 24 25 27 26 26 27 26 26 25 24 25 27 26 26 25 21 24 10 10 10 10 13 10 
10 10 10 10 10 10 7 7 7 9 9 9 10 10 10 11 11 11 13 13 13 10 10 10 
10 10 10 10 10 10 10 10 10 11 11 11 10 10 10 11 11 11 10 10 10 11 11 11 

11 11 11 10 10 10 14 14 14 11 11 11 11 11 11 11 11 11 11 11 11 10 10 10 
10 10 10 11 11 11 9 9 9 10 10 10 11 11 11 10 10 10 7 7 7 14 14 14 
11 11 11 10 10 10 17 18 16 22 21 22 23 18 20 18 18 19 22 21 22 22 21 22 
13 13 13 14 14 14 13 13 10 13 13 10 11 11 11 11 11 11 13 13 10 13 10 11 
13 13 10 13 13 10 13 10 11 15 15 15 11 11 11 13 13 10 13 13 10 14 14 14 
13 10 11 13 10 11 11 11 11 14 14 14 11 11 11 11 11 11 13 10 11 18 10 13 
22 10 14 22 10 14 25 11 17 25 11 17 25 11 17 25 11 17 18 10 13 11 11 11 
11 9 10 11 11 11 13 13 10 11 11 11 11 11 11 11 11 11 11 11 11 13 13 10 
11 9 10 14 14 14 13 13 10 13 10 11 14 14 14 11 11 11 13 10 11 13 13 10 
14 14 14 11 11 11 11 11 11 13 13 10 13 10 11 13 13 10 13 10 11 13 13 13 
11 9 10 13 10 11 13 10 11 11 11 11 11 11 11 14 14 14 17 18 16 18 18 19 
18 18 19 20 20 21 18 18 19 18 18 19 18 18 19 18 18 19 20 20 21 18 18 19 
17 18 16 18 18 19 18 18 19 18 18 19 17 18 16 15 15 15 17 18 16 18 18 19 
18 18 19 17 18 16 18 18 19 18 18 19 18 18 19 21 21 18 18 18 19 18 18 19 
18 18 19 17 18 16 18 18 19 18 18 19 22 21 22 18 18 19 18 18 19 17 18 16 
18 18 19 18 18 19 18 18 19 17 18 16 18 18 19 18 18 19 17 18 16 15 15 15 
18 18 19 18 18 19 18 18 19 18 18 19 17 18 16 17 18 16 15 15 15 15 15 15 
18 18 19 18 18 19 18 18 19 18 18 19 18 18 19 13 13 10 9 9 9 11 11 11 
13 13 10 14 14 14 11 11 11 13 13 10 11 11 11 14 14 14 11 9 10 11 11 11 
13 10 11 13 10 11 15 15 15 14 14 14 11 11 11 11 11 11 11 11 11 13 13 10 
11 11 11 11 11 11 11 11 11 13 10 11 14 14 14 17 18 16 27 26 26 25 24 25 
27 26 26 25 24 25 23 23 23 27 26 26 25 24 25 23 18 20 23 18 20 23 18 20 
22 15 15 23 18 20 31 23 20 23 23 23 27 26 26 25 24 25 25 24 25 25 24 25 
23 23 23 23 23 23 23 23 23 15 15 15 13 10 11 11 11 11 11 11 11 13 10 11 
11 11 11 14 14 14 14 14 14 11 11 11 14 14 14 11 11 11 11 11 11 14 14 14 
11 11 11 13 13 13 15 15 15 9 9 9 13 10 11 13 10 11 13 10 11 10 10 10 
13 10 11 11 11 11 11 11 11 11 11 11 11 11 11 11 9 10 13 13 10 17 18 16 
25 24 25 25 24 25 25 24 25 25 24 25 25 24 25 25 21 24 11 11 11 10 13 10 
11 11 11 10 10 10 9 9 9 13 13 13 11 11 11 11 11 11 10 10 10 11 11 11 
11 11 11 10 10 10 10 10 10 11 11 11 10 10 10 14 14 14 11 11 11 10 10 10 

10 10 10 11 11 11 9 9 9 10 10 10 10 10 10 11 11 11 11 11 11 10 10 10 
9 9 9 10 10 10 9 9 9 11 11 11 10 10 10 10 10 10 11 11 11 9 9 9 
10 10 10 10 10 10 17 18 16 23 18 20 23 18 20 25 11 17 23 18 20 15 15 15 
22 21 22 21 21 18 21 21 18 21 21 18 21 21 18 21 21 18 17 18 16 15 15 15 
21 21 18 21 21 18 21 21 18 17 18 16 17 18 16 17 18 16 21 21 18 21 21 18 
21 21 18 17 18 16 17 18 16 17 18 16 17 18 16 17 18 16 22 15 15 22 10 14 
22 10 14 25 11 17 25 11 17 25 11 17 25 11 17 23 18 20 17 18 16 21 21 18 
17 18 16 21 21 18 21 21 18 21 21 18 21 21 18 17 18 16 21 21 18 21 21 18 
21 21 18 21 21 18 21 21 18 21 21 18 21 21 18 21 21 18 17 18 16 21 21 18 
21 21 18 21 21 18 21 21 18 21 21 18 21 21 18 21 21 18 21 21 18 21 21 18 
21 21 18 17 18 16 21 21 18 21 21 18 21 21 18 23 23 23 22 21 22 23 23 23 
23 23 23 21 21 18 23 23 23 23 23 23 23 23 23 18 18 19 21 21 18 23 23 23 
23 23 23 23 23 23 21 21 18 25 24 25 21 21 18 23 23 23 21 21 18 23 23 23 
23 23 23 21 21 18 23 23 23 25 24 25 23 23 23 23 23 23 23 23 23 21 21 18 
23 23 23 21 21 18 21 21 18 21 21 18 23 23 23 23 23 23 23 23 23 21 21 18 
23 23 23 21 21 18 21 21 18 21 21 18 23 23 23 23 23 23 25 24 25 23 23 23 
23 23 23 22 21 22 23 23 23 23 23 23 23 23 23 23 23 23 23 23 23 23 23 23 
23 23 23 22 21 22 23 23 23 25 24 25 21 21 18 21 21 18 21 21 18 21 21 18 
21 21 18 21 21 18 21 21 18 21 21 18 21 21 18 23 23 23 21 21 18 21 21 18 
21 21 18 21 21 18 23 23 23 21 21 18 21 21 18 21 21 18 21 21 18 21 21 18 
21 21 18 21 21 18 21 21 18 21 21 18 21 21 18 17 18 16 23 23 23 25 21 24 
27 26 26 23 23 23 25 24 25 25 24 25 23 23 23 22 21 22 23 23 23 23 23 23 
27 26 26 27 26 26 23 23 23 23 23 23 25 24 25 25 24 25 27 26 26 25 24 25 
25 24 25 27 26 26 25 24 25 23 23 23 21 21 18 21 21 18 21 21 18 21 21 18 
23 23 23 21 21 18 21 21 18 21 21 18 21 21 18 21 21 18 21 21 18 21 21 18 
17 18 16 21 21 18 21 21 18 21 21 18 23 23 23 21 21 18 21 21 18 21 21 18 
22 21 22 21 21 18 21 21 18 17 18 16 21 21 18 21 21 18 21 21 18 23 23 23 
25 24 25 25 24 25 27 26 26 25 24 25 25 24 25 22 21 22 11 11 11 10 13 10 
11 11 11 11 11 11 10 10 10 10 10 10 10 10 10 10 10 10 11 11 11 11 11 11 
10 10 10 10 10 10 10 10 10 9 9 9 11 11 11 10 10 10 10 10 10 11 11 11 

10 10 10 13 13 13 10 10 10 13 13 13 10 10 10 11 11 11 10 10 10 7 7 7 
11 11 11 10 10 10 10 10 10 11 11 11 13 13 13 13 13 13 11 11 11 11 11 11 
11 11 11 10 10 10 17 18 16 25 21 24 22 10 14 22 10 14 25 11 17 18 10 13 
21 21 18 21 21 18 23 23 23 23 23 23 23 23 23 22 21 22 21 21 18 21 21 18 
23 23 23 23 23 23 25 24 25 25 24 25 23 23 23 23 23 23 23 23 23 23 23 23 
23 23 23 23 23 23 23 23 23 23 23 23 23 23 23 23 18 20 25 11 17 25 11 17 
25 11 17 25 11 17 25 11 17 25 11 17 23 18 20 21 21 18 25 24 25 23 23 23 
21 21 18 22 21 22 23 23 23 25 24 25 22 21 22 22 21 22 25 24 25 21 21 18 
21 21 18 23 23 23 22 21 22 22 21 22 25 24 25 23 23 23 21 21 18 23 23 23 
21 21 18 23 23 23 23 23 23 23 23 23 25 24 25 23 23 23 23 23 23 23 23 23 
22 21 22 23 23 23 23 23 23 25 24 25 23 23 23 25 24 25 23 23 23 22 21 22 
22 21 22 25 24 25 25 24 25 23 23 23 20 20 21 23 23 23 23 23 23 23 23 23 
25 24 25 20 20 21 22 21 22 23 23 23 22 21 22 20 20 21 20 20 21 20 20 21 
25 24 25 25 24 25 22 21 22 25 24 25 22 21 22 23 23 23 25 24 25 27 26 26 
23 23 23 23 23 23 25 24 25 25 24 25 25 24 25 23 23 23 23 23 23 27 26 26 
25 24 25 23 23 23 25 24 25 25 24 25 23 23 23 25 24 25 23 23 23 22 21 22 
23 23 23 25 24 25 23 23 23 25 24 25 23 23 23 25 24 25 23 23 23 23 23 23 
25 24 25 23 23 23 25 24 25 25 24 25 23 23 23 25 24 25 23 23 23 27 26 26 
27 26 26 27 26 26 25 24 25 23 23 23 25 24 25 23 23 23 25 24 25 23 23 23 
27 26 26 25 24 25 25 24 25 23 23 23 23 23 23 27 26 26 25 24 25 25 24 25 
23 23 23 25 24 25 23 23 23 27 26 26 25 24 25 27 26 26 25 24 25 25 24 25 
27 26 26 25 24 25 25 24 25 23 23 23 25 24 25 25 24 25 23 23 23 25 24 25 
25 24 25 25 24 25 23 23 23 23 23 23 25 24 25 27 26 26 25 24 25 27 26 26 
25 24 25 27 26 26 25 24 25 23 23 23 25 24 25 25 24 25 27 26 26 27 26 26 
25 24 25 25 24 25 23 23 23 25 24 25 27 26 26 27 26 26 25 24 25 25 24 25 
25 24 25 22 21 22 25 24 25 27 26 26 25 24 25 23 23 23 25 24 25 25 24 25 
25 24 25 25 24 25 25 24 25 25 24 25 27 26 26 25 24 25 25 24 25 27 26 26 
25 24 25 23 23 23 25 24 25 25 24 25 25 24 25 23 18 20 11 11 11 9 9 9 
11 11 11 11 11 11 9 9 9 7 7 7 11 11 11 11 11 11 10 10 10 11 11 11 
11 11 11 10 10 10 13 13 13 11 11 11 9 9 9 11 11 11 9 9 9 11 11 11 

9 9 9 11 11 11 10 10 10 9 9 9 10 10 10 10 10 10 11 11 11 11 11 11 
11 11 11 11 11 11 11 11 11 13 13 13 9 9 9 11 11 11 11 11 11 11 11 11 
13 13 13 9 9 9 17 18 16 22 21 22 23 18 20 22 10 14 26 11 11 25 11 17 
22 15 15 18 18 19 22 21 22 25 24 25 25 24 25 23 23 23 20 20 21 23 23 23 
20 20 21 23 23 23 20 20 21 22 21 22 22 21 22 22 21 22 25 24 25 22 21 22 
25 24 25 25 24 25 22 21 22 22 21 22 22 21 22 22 15 15 22 10 14 25 11 17 
25 11 17 25 11 17 25 11 17 22 15 15 23 23 23 23 23 23 25 24 25 22 21 22 
22 21 22 23 23 23 22 21 22 25 24 25 25 24 25 25 24 25 25 24 25 20 20 21 
22 21 22 22 21 22 25 24 25 22 21 22 22 21 22 22 21 22 23 23 23 22 21 22 
23 23 23 23 23 23 22 21 22 22 21 22 23 23 23 25 24 25 22 21 22 27 26 26 
25 24 25 25 24 25 25 24 25 23 23 23 22 21 22 23 23 23 25 24 25 25 24 25 
23 23 23 25 24 25 25 24 25 23 23 23 25 24 25 25 24 25 23 23 23 23 23 23 
25 24 25 25 24 25 23 23 23 23 23 23 22 21 22 22 21 22 25 24 25 23 23 23 
25 24 25 23 23 23 25 24 25 22 21 22 23 23 23 23 23 23 25 24 25 25 24 25 
27 26 26 27 26 26 25 24 25 23 23 23 25 24 25 25 24 25 25 24 25 25 24 25 
23 23 23 25 24 25 22 21 22 25 24 25 22 21 22 25 24 25 23 23 23 23 23 23 
22 21 22 25 24 25 23 23 23 27 26 26 25 24 25 22 21 22 25 24 25 22 21 22 
25 24 25 23 23 23 23 23 23 25 24 25 25 24 25 22 21 22 22 21 22 23 23 23 
23 23 23 25 24 25 25 24 25 25 24 25 25 24 25 23 23 23 22 21 22 25 24 25 
25 24 25 25 24 25 27 26 26 23 23 23 23 23 23 25 24 25 25 24 25 25 24 25 
25 24 25 25 24 25 25 24 25 27 26 26 25 24 25 23 23 23 25 24 25 25 24 25 
27 26 26 23 23 23 23 23 23 23 23 23 27 26 26 27 26 26 23 23 23 22 21 22 
22 21 22 25 24 25 25 24 25 25 24 25 25 24 25 25 24 25 23 23 23 23 23 23 
25 24 25 25 24 25 23 23 23 23 23 23 23 23 23 25 24 25 25 24 25 23 23 23 
27 26 26 25 24 25 25 24 25 25 24 25 25 24 25 23 23 23 25 24 25 23 23 23 
25 24 25 25 24 25 25 24 25 23 23 23 25 24 25 25 24 25 25 24 25 25 24 25 
25 24 25 25 24 25 25 24 25 25 24 25 25 24 25 25 24 25 27 26 26 23 23 23 
25 24 25 25 24 25 27 26 26 27 26 26 23 23 23 23 18 20 11 11 11 10 13 10 
10 13 10 11 11 11 9 9 9 10 10 10 7 7 7 11 11 11 13 13 13 13 13 13 
10 10 10 11 11 11 11 11 11 11 11 11 9 9 9 11 11 11 10 10 10 13 13 13 

10 10 10 13 13 13 10 10 10 11 11 11 10 10 10 11 11 11 10 10 10 10 10 10 
7 7 7 10 10 10 13 13 13 11 11 11 11 11 11 11 11 11 10 10 10 10 10 10 
11 11 11 10 10 10 17 18 16 22 21 22 23 18 20 22 15 15 26 11 11 25 11 17 
25 11 17 17 18 16 21 21 18 25 24 25 23 23 23 22 21 22 23 23 23 20 20 21 
22 21 22 23 23 23 22 21 22 22 21 22 23 23 23 22 21 22 20 20 21 25 24 25 
25 24 25 25 24 25 23 23 23 20 20 21 23 18 20 25 11 17 22 10 14 25 11 17 
25 11 17 25 11 17 22 15 15 23 18 20 22 21 22 25 24 25 22 21 22 23 23 23 
25 24 25 18 18 19 22 21 22 23 23 23 25 24 25 25 24 25 25 24 25 22 21 22 
23 23 23 23 23 23 23 23 23 22 21 22 22 21 22 23 23 23 25 24 25 27 26 26 
25 24 25 20 20 21 25 24 25 23 23 23 25 24 25 22 21 22 23 23 23 22 21 22 
25 24 25 25 24 25 22 21 22 18 18 19 22 21 22 22 21 22 23 23 23 23 23 23 
22 21 22 23 23 23 18 18 19 25 24 25 25 24 25 25 24 25 23 23 23 23 23 23 
25 24 25 25 24 25 20 20 21 25 24 25 22 21 22 23 23 23 22 21 22 23 23 23 
25 24 25 23 23 23 23 23 23 20 20 21 25 24 25 23 23 23 23 23 23 25 24 25 
23 23 23 20 20 21 25 24 25 23 23 23 25 24 25 23 23 23 25 24 25 25 24 25 
25 24 25 22 21 22 23 23 23 20 20 21 25 24 25 25 24 25 22 21 22 25 24 25 
25 24 25 25 24 25 25 24 25 25 24 25 25 24 25 23 23 23 25 24 25 22 21 22 
25 24 25 25 24 25 25 24 25 25 24 25 25 24 25 27 26 26 25 24 25 25 24 25 
23 23 23 23 23 23 25 24 25 25 24 25 25 24 25 25 24 25 25 24 25 25 24 25 
23 23 23 22 21 22 25 24 25 25 24 25 23 23 23 23 23 23 25 24 25 25 24 25 
22 21 22 25 24 25 25 24 25 25 24 25 25 24 25 25 24 25 25 24 25 25 24 25 
25 24 25 25 24 25 25 24 25 25 24 25 25 24 25 25 24 25 25 24 25 22 21 22 
25 24 25 27 26 26 25 24 25 25 24 25 25 24 25 27 26 26 23 23 23 25 24 25 
25 24 25 25 24 25 25 24 25 25 24 25 23 23 23 23 23 23 25 24 25 27 26 26 
25 24 25 27 26 26 25 24 25 27 26 26 25 24 25 23 23 23 25 24 25 25 24 25 
25 24 25 25 24 25 25 24 25 25 24 25 25 24 25 25 24 25 25 24 25 27 26 26 
23 23 23 23 23 23 27 26 26 25 24 25 23 23 23 25 24 25 25 24 25 25 24 25 
25 24 25 27 26 26 25 24 25 23 23 23 25 24 25 23 18 20 9 9 9 13 13 10 
9 9 9 10 10 10 9 9 9 7 7 7 9 9 9 11 11 11 10 10 10 9 9 9 
10 10 10 10 10 10 10 10 10 9 9 9 9 9 9 10 10 10 10 10 10 10 10 10 

11 11 11 11 11 11 11 11 11 7 7 7 11 11 11 11 11 11 11 11 11 11 11 11 
11 11 11 9 9 9 10 10 10 10 10 10 10 10 10 11 11 11 11 11 11 10 10 10 
11 11 11 10 10 10 17 18 16 22 21 22 23 18 20 23 18 20 26 11 11 26 11 11 
25 11 17 22 10 14 22 15 15 18 18 19 23 23 23 22 21 22 25 24 25 20 20 21 
18 18 19 20 20 21 23 23 23 20 20 21 18 18 19 22 21 22 23 23 23 25 24 25 
18 18 19 25 24 25 22 21 22 25 21 24 22 15 15 25 11 17 25 11 17 25 11 17 
25 11 17 25 11 17 25 21 24 23 18 20 22 21 22 23 23 23 23 23 23 22 21 22 
22 21 22 20 20 21 22 21 22 25 24 25 23 23 23 25 24 25 25 24 25 23 23 23 
22 21 22 20 20 21 22 21 22 25 24 25 23 23 23 22 21 22 22 21 22 25 24 25 
23 23 23 22 21 22 23 23 23 25 24 25 22 21 22 22 21 22 25 24 25 23 23 23 
25 24 25 22 21 22 23 23 23 22 21 22 23 23 23 23 23 23 23 23 23 25 24 25 
22 21 22 22 21 22 27 26 26 23 23 23 25 24 25 25 24 25 25 24 25 25 24 25 
25 24 25 25 24 25 25 24 25 23 23 23 25 24 25 23 23 23 23 23 23 25 24 25 
20 20 21 22 21 22 22 21 22 25 24 25 23 23 23 25 24 25 25 24 25 23 23 23 
25 24 25 23 23 23 25 24 25 23 23 23 22 21 22 23 23 23 25 24 25 20 20 21 
25 24 25 25 24 25 25 24 25 25 24 25 22 21 22 22 21 22 22 21 22 23 23 23 
23 23 23 22 21 22 18 18 19 25 24 25 25 24 25 25 24 25 23 23 23 25 24 25 
25 24 25 23 23 23 22 21 22 23 23 23 25 24 25 25 24 25 25 24 25 23 23 23 
25 24 25 25 24 25 23 23 23 23 23 23 20 20 21 25 24 25 22 21 22 25 24 25 
23 23 23 25 24 25 23 23 23 25 24 25 25 24 25 22 21 22 25 24 25 25 24 25 
25 24 25 22 21 22 23 23 23 25 24 25 27 26 26 25 24 25 25 24 25 25 24 25 
23 23 23 25 24 25 27 26 26 22 21 22 23 23 23 25 24 25 23 23 23 27 26 26 
25 24 25 25 24 25 25 24 25 22 21 22 25 24 25 25 24 25 27 26 26 25 24 25 
23 18 20 25 24 25 25 24 25 25 24 25 27 26 26 25 24 25 25 24 25 27 26 26 
25 24 25 25 24 25 23 23 23 25 24 25 25 24 25 25 24 25 23 23 23 22 21 22 
25 24 25 22 21 22 25 24 25 25 24 25 27 26 26 25 24 25 25 24 25 23 23 23 
25 24 25 22 21 22 25 24 25 23 23 23 25 24 25 25 24 25 25 24 25 22 21 22 
25 24 25 25 24 25 27 26 26 25 24 25 23 23 23 18 18 19 10 10 10 10 10 10 
11 11 11 10 10 10 11 11 11 10 10 10 13 13 13 11 11 11 7 7 7 7 7 7 
11 11 11 11 11 11 11 11 11 11 11 11 10 10 10 14 14 14 7 7 7 7 7 7 

10 10 10 11 11 11 11 11 11 10 10 10 11 11 11 11 11 11 10 10 10 11 11 11 
10 10 10 9 9 9 9 9 9 11 11 11 10 10 10 11 11 11 13 13 13 13 13 13 
11 11 11 9 9 9 17 18 16 23 23 23 22 21 22 25 21 24 22 15 15 26 11 11 
22 10 14 25 11 17 22 10 14 15 15 15 18 18 19 25 24 25 22 21 22 18 18 19 
22 21 22 23 23 23 23 23 23 20 20 21 22 21 22 20 20 21 23 23 23 20 20 21 
22 21 22 22 21 22 23 18 20 23 18 20 25 11 17 25 11 17 25 11 17 25 11 17 
25 11 17 23 18 20 22 21 22 22 21 22 22 21 22 23 23 23 22 21 22 23 23 23 
20 20 21 23 23 23 22 21 22 20 20 21 25 24 25 25 24 25 23 23 23 22 21 22 
23 23 23 22 21 22 23 23 23 22 21 22 22 21 22 23 23 23 22 21 22 23 23 23 
22 21 22 23 23 23 20 20 21 22 21 22 23 23 23 23 23 23 23 23 23 23 23 23 
22 21 22 20 20 21 22 21 22 18 18 19 25 24 25 25 24 25 22 21 22 25 24 25 
25 24 25 25 24 25 25 24 25 25 24 25 25 24 25 23 23 23 23 23 23 22 21 22 
23 23 23 22 21 22 23 23 23 22 21 22 22 21 22 22 21 22 20 20 21 23 23 23 
23 23 23 23 23 23 22 21 22 25 24 25 25 24 25 23 23 23 23 23 23 25 24 25 
22 21 22 25 24 25 25 24 25 25 24 25 22 21 22 22 21 22 22 21 22 25 24 25 
25 24 25 25 24 25 25 24 25 25 24 25 23 23 23 22 21 22 25 24 25 23 23 23 
22 21 22 25 24 25 27 26 26 23 23 23 22 21 22 23 23 23 25 24 25 23 23 23 
25 24 25 23 23 23 23 23 23 23 23 23 22 21 22 22 21 22 22 21 22 22 21 22 
27 26 26 25 24 25 25 24 25 23 23 23 25 24 25 23 23 23 25 24 25 25 24 25 
25 24 25 25 24 25 25 24 25 25 24 25 23 23 23 25 24 25 25 24 25 25 24 25 
22 21 22 23 23 23 25 24 25 23 23 23 25 24 25 25 24 25 25 24 25 27 26 26 
25 24 25 25 24 25 27 26 26 25 24 25 23 23 23 23 23 23 25 24 25 25 24 25 
25 24 25 27 26 26 23 23 23 25 24 25 23 23 23 25 24 25 23 23 23 25 24 25 
23 18 20 27 26 26 23 23 23 25 24 25 23 23 23 22 21 22 25 24 25 25 24 25 
25 24 25 25 24 25 23 23 23 25 24 25 25 24 25 27 26 26 22 21 22 25 24 25 
23 23 23 23 23 23 22 21 22 25 24 25 25 24 25 25 24 25 20 20 21 22 21 22 
25 24 25 23 23 23 25 24 25 25 24 25 25 24 25 27 26 26 25 24 25 25 24 25 
25 24 25 25 24 25 25 24 25 25 24 25 23 23 23 23 18 20 11 11 11 10 13 10 
9 9 9 11 11 11 11 11 11 10 10 10 11 11 11 11 11 11 11 11 11 10 10 10 
10 10 10 11 11 11 13 13 13 13 13 13 11 11 11 10 10 10 9 9 9 10 10 10 

10 10 10 11 11 11 13 13 13 11 11 11 11 11 11 11 11 11 10 10 10 14 14 14 
10 10 10 11 11 11 10 10 10 9 9 9 11 11 11 13 13 13 10 10 10 10 10 10 
11 11 11 10 10 10 17 18 16 20 20 21 23 23 23 25 21 24 23 18 20 22 10 14 
26 11 11 25 11 17 25 11 17 22 10 14 17 18 16 23 23 23 20 20 21 23 23 23 
22 21 22 25 24 25 22 21 22 20 20 21 20 20 21 20 20 21 25 24 25 23 23 23 
22 21 22 20 20 21 25 21 24 25 11 17 22 10 14 25 11 17 22 10 14 25 11 17 
23 18 20 23 18 20 23 23 23 23 23 23 23 23 23 22 21 22 20 20 21 18 18 19 
18 18 19 18 18 19 18 18 19 23 23 23 23 23 23 20 20 21 20 20 21 23 23 23 
23 23 23 20 20 21 22 21 22 22 21 22 22 21 22 22 21 22 23 23 23 23 23 23 
20 20 21 22 21 22 18 18 19 23 23 23 22 21 22 22 21 22 20 20 21 23 23 23 
23 23 23 22 21 22 23 23 23 18 18 19 20 20 21 25 24 25 23 23 23 25 24 25 
23 23 23 25 24 25 22 21 22 23 23 23 23 23 23 23 23 23 23 23 23 25 24 25 
25 24 25 20 20 21 25 24 25 23 23 23 27 26 26 22 21 22 25 24 25 20 20 21 
25 24 25 22 21 22 25 24 25 23 23 23 23 23 23 25 24 25 22 21 22 25 24 25 
25 24 25 23 23 23 23 23 23 23 23 23 20 20 21 25 24 25 22 21 22 22 21 22 
18 18 19 23 23 23 22 21 22 23 23 23 20 20 21 25 24 25 22 21 22 22 21 22 
23 23 23 22 21 22 23 23 23 25 24 25 22 21 22 23 23 23 27 26 26 23 23 23 
25 24 25 25 24 25 23 23 23 23 23 23 25 24 25 23 23 23 22 21 22 22 21 22 
23 23 23 22 21 22 25 24 25 25 24 25 22 21 22 25 24 25 23 23 23 23 23 23 
23 23 23 23 23 23 25 24 25 25 24 25 23 23 23 22 21 22 25 24 25 25 24 25 
25 24 25 25 24 25 23 23 23 23 23 23 22 21 22 22 21 22 23 23 23 23 23 23 
22 21 22 25 24 25 23 23 23 25 24 25 25 24 25 22 21 22 25 24 25 25 24 25 
25 24 25 25 24 25 27 26 26 27 26 26 22 21 22 23 23 23 25 24 25 25 24 25 
22 21 22 23 23 23 25 24 25 22 21 22 25 24 25 22 21 22 22 21 22 20 20 21 
23 23 23 23 23 23 23 23 23 22 21 22 23 23 23 25 24 25 25 24 25 25 24 25 
25 24 25 23 23 23 25 24 25 22 21 22 27 26 26 25 24 25 22 21 22 23 23 23 
25 24 25 23 23 23 23 18 20 22 21 22 23 23 23 23 23 23 20 20 21 23 23 23 
23 23 23 22 21 22 25 24 25 23 23 23 23 23 23 23 18 20 9 9 9 10 10 10 
9 9 9 11 11 11 11 11 11 11 11 11 10 10 10 7 7 7 9 9 9 11 11 11 
11 11 11 11 11 11 11 11 11 10 10 10 11 11 11 11 11 11 11 11 11 11 11 11 

11 11 11 11 11 11 11 11 11 11 11 11 11 11 11 11 11 11 11 11 11 9 9 9 
11 11 11 11 11 11 10 10 10 11 11 11 11 11 11 11 11 11 11 11 11 10 10 10 
11 11 11 11 11 11 15 15 15 23 23 23 20 20 21 22 21 22 23 18 20 22 15 15 
22 10 14 22 10 14 25 11 17 25 11 17 18 10 13 18 18 19 21 21 18 18 18 19 
20 20 21 22 21 22 22 21 22 23 23 23 20 20 21 20 20 21 22 21 22 23 23 23 
22 21 22 23 18 20 22 15 15 25 11 17 25 11 17 25 11 17 25 11 17 22 15 15 
23 18 20 21 21 18 20 20 21 22 21 22 23 18 20 18 18 19 22 15 15 18 10 13 
18 10 13 18 10 13 15 15 15 18 18 19 20 20 21 23 23 23 25 24 25 20 20 21 
23 23 23 22 21 22 22 21 22 18 18 19 22 21 22 22 21 22 22 21 22 25 24 25 
23 23 23 22 21 22 23 23 23 22 21 22 22 21 22 20 20 21 22 21 22 22 21 22 
23 23 23 23 23 23 22 21 22 25 24 25 23 23 23 23 23 23 20 20 21 20 20 21 
22 21 22 23 23 23 25 24 25 22 21 22 23 23 23 25 24 25 20 20 21 18 18 19 
25 24 25 23 23 23 23 23 23 22 21 22 23 23 23 22 21 22 22 21 22 25 24 25 
23 23 23 20 20 21 25 24 25 23 23 23 25 24 25 20 20 21 23 23 23 25 24 25 
23 23 23 23 23 23 20 20 21 23 23 23 25 24 25 22 21 22 25 24 25 23 23 23 
23 23 23 25 24 25 23 23 23 21 21 18 18 18 19 20 20 21 18 18 19 22 15 15 
18 18 19 15 15 15 18 18 19 18 18 19 18 18 19 20 20 21 22 21 22 22 21 22 
22 21 22 22 21 22 20 20 21 25 24 25 25 24 25 22 21 22 22 21 22 23 23 23 
25 24 25 22 21 22 22 21 22 22 21 22 25 24 25 23 23 23 25 24 25 25 24 25 
25 24 25 25 24 25 25 24 25 23 23 23 22 21 22 25 24 25 23 23 23 23 23 23 
23 23 23 22 21 22 22 21 22 23 23 23 25 24 25 23 23 23 23 23 23 23 23 23 
23 23 23 23 23 23 23 18 20 25 24 25 23 23 23 25 24 25 23 23 23 23 23 23 
25 24 25 23 23 23 25 24 25 25 24 25 25 24 25 25 24 25 25 24 25 25 24 25 
23 23 23 25 24 25 23 23 23 23 23 23 22 21 22 23 23 23 25 24 25 25 24 25 
25 24 25 23 23 23 23 23 23 23 18 20 25 24 25 25 24 25 25 24 25 23 23 23 
27 26 26 22 21 22 22 21 22 25 24 25 25 24 25 25 24 25 23 23 23 22 21 22 
23 23 23 23 23 23 25 24 25 23 23 23 23 23 23 25 24 25 25 24 25 25 24 25 
23 23 23 25 24 25 22 21 22 25 24 25 23 23 23 23 18 20 10 10 10 13 13 10 
11 11 11 11 9 10 11 11 11 11 11 11 10 10 10 11 11 11 9 9 9 11 11 11 
10 10 10 7 7 7 9 9 9 10 10 10 10 10 10 11 11 11 11 11 11 9 9 9 

11 11 11 9 9 9 10 10 10 11 11 11 10 10 10 11 11 11 11 11 11 9 9 9 
11 11 11 7 7 7 11 11 11 11 11 11 11 11 11 11 11 11 9 9 9 11 11 11 
11 11 11 10 10 10 15 15 15 20 20 21 22 21 22 20 20 21 21 21 18 23 18 20 
22 15 15 22 10 14 25 11 17 25 11 17 22 10 14 22 15 15 18 18 19 20 20 21 
18 18 19 18 18 19 22 21 22 20 20 21 22 21 22 22 21 22 20 20 21 18 18 19 
21 21 18 23 18 20 22 10 14 22 10 14 25 11 17 25 11 17 25 11 17 23 18 20 
22 21 22 23 23 23 23 23 23 23 18 20 22 15 15 25 11 17 22 10 14 25 11 17 
22 10 14 25 11 17 22 15 15 18 10 13 17 18 16 18 18 19 22 21 22 18 18 19 
23 18 20 23 18 20 23 18 20 18 10 13 15 15 15 18 18 19 22 21 22 18 18 19 
18 18 19 22 21 22 25 24 25 25 24 25 23 23 23 21 21 18 20 20 21 20 20 21 
18 18 19 22 21 22 23 23 23 25 24 25 22 21 22 22 21 22 23 23 23 23 23 23 
23 23 23 20 20 21 23 23 23 18 18 19 23 23 23 22 21 22 18 18 19 22 21 22 
23 23 23 25 24 25 23 23 23 22 21 22 23 23 23 20 20 21 22 21 22 22 21 22 
27 26 26 25 24 25 25 24 25 20 20 21 23 23 23 23 23 23 25 24 25 18 18 19 
25 24 25 23 23 23 23 23 23 25 24 25 20 20 21 22 21 22 25 24 25 25 24 25 
25 24 25 20 20 21 23 23 23 18 18 19 22 21 22 23 18 20 18 10 13 22 10 14 
18 10 13 22 10 14 22 10 14 18 10 13 18 10 13 18 10 13 22 15 15 18 18 19 
18 18 19 22 21 22 22 21 22 23 23 23 23 23 23 25 24 25 22 21 22 22 21 22 
22 21 22 25 24 25 25 24 25 23 23 23 22 21 22 23 23 23 27 26 26 25 24 25 
25 24 25 22 21 22 23 23 23 23 23 23 23 23 23 22 21 22 23 23 23 23 23 23 
25 24 25 22 21 22 22 21 22 23 23 23 25 24 25 23 23 23 22 21 22 25 24 25 
25 24 25 22 21 22 25 24 25 23 23 23 23 23 23 25 24 25 25 24 25 23 23 23 
25 24 25 22 21 22 25 24 25 23 23 23 25 24 25 23 23 23 25 24 25 23 23 23 
22 21 22 23 23 23 23 23 23 22 21 22 22 21 22 23 23 23 25 24 25 22 21 22 
25 24 25 18 18 19 23 23 23 22 21 22 25 24 25 25 24 25 25 24 25 23 23 23 
27 26 26 25 24 25 22 21 22 25 24 25 25 24 25 25 24 25 25 24 25 23 23 23 
25 24 25 20 20 21 25 24 25 25 24 25 25 24 25 23 23 23 25 24 25 22 21 22 
22 21 22 25 24 25 25 24 25 23 23 23 23 23 23 23 18 20 9 9 9 10 13 10 
11 11 11 11 11 11 11 11 11 14 14 14 11 11 11 11 11 11 7 7 7 9 9 9 
7 7 7 11 11 11 11 11 11 10 10 10 7 7 7 11 11 11 11 11 11 10 10 10 

10 10 10 9 9 9 10 10 10 11 11 11 10 10 10 9 9 9 13 13 13 10 10 10 
11 11 11 11 11 11 10 10 10 13 13 13 11 11 11 10 10 10 9 9 9 11 11 11 
11 11 11 10 10 10 17 18 16 21 21 18 22 21 22 20 20 21 18 18 19 23 18 20 
22 15 15 22 15 15 22 10 14 25 11 17 22 10 14 25 11 17 15 15 15 20 20 21 
22 21 22 23 23 23 20 20 21 22 21 22 20 20 21 22 21 22 22 21 22 20 20 21 
23 18 20 25 11 17 25 11 17 22 10 14 25 11 17 25 11 17 22 15 15 23 18 20 
23 18 20 22 21 22 21 21 18 23 18 20 22 10 14 22 10 14 25 11 17 25 11 17 
25 11 17 25 11 17 22 10 14 25 11 17 18 10 13 17 18 16 18 18 19 22 21 22 
18 18 19 22 15 15 22 10 14 25 11 17 25 11 17 18 10 13 21 21 18 23 23 23 
23 23 23 22 21 22 23 23 23 21 21 18 22 21 22 23 18 20 18 18 19 18 10 13 
15 15 15 18 18 19 22 21 22 22 21 22 18 18 19 20 20 21 20 20 21 20 20 21 
25 24 25 20 20 21 22 21 22 22 21 22 20 20 21 23 23 23 22 21 22 23 23 23 
22 21 22 23 23 23 23 23 23 22 21 22 22 21 22 20 20 21 22 21 22 20 20 21 
20 20 21 22 21 22 22 21 22 20 20 21 23 23 23 23 23 23 23 23 23 22 21 22 
23 23 23 23 23 23 18 18 19 22 21 22 25 24 25 23 23 23 23 23 23 23 23 23 
25 24 25 23 23 23 22 21 22 18 18 19 22 15 15 22 10 14 22 10 14 25 11 17 
25 11 17 25 11 17 25 11 17 25 11 17 25 11 17 25 11 17 25 11 17 22 10 14 
18 10 13 15 15 15 17 18 16 25 24 25 23 23 23 22 21 22 23 23 23 23 23 23 
23 23 23 18 18 19 22 21 22 22 21 22 22 21 22 22 21 22 22 21 22 23 18 20 
23 18 20 23 23 23 23 23 23 22 21 22 22 21 22 23 23 23 25 24 25 23 23 23 
23 23 23 23 18 20 25 24 25 25 24 25 25 24 25 23 23 23 22 21 22 25 24 25 
25 24 25 22 21 22 23 23 23 22 21 22 22 21 22 23 23 23 23 23 23 25 24 25 
21 21 18 23 23 23 23 23 23 22 21 22 25 24 25 25 24 25 22 21 22 25 24 25 
22 21 22 25 24 25 23 23 23 20 20 21 23 23 23 25 24 25 22 21 22 22 21 22 
22 21 22 25 24 25 23 23 23 22 21 22 22 21 22 23 23 23 23 18 20 25 24 25 
23 23 23 23 23 23 23 18 20 22 21 22 23 23 23 22 21 22 25 24 25 23 23 23 
25 24 25 23 23 23 20 20 21 25 24 25 25 24 25 23 23 23 25 24 25 23 23 23 
23 23 23 23 23 23 23 23 23 23 23 23 23 18 20 18 18 19 9 9 9 10 13 10 
10 10 10 10 10 10 11 11 11 11 11 11 10 10 10 11 11 11 11 11 11 11 11 11 
11 11 11 9 9 9 10 10 10 10 10 10 13 13 13 9 9 9 10 10 10 9 9 9 

10 10 10 11 11 11 11 11 11 11 11 11 11 11 11 9 9 9 11 11 11 10 10 10 
11 11 11 11 11 11 11 11 11 11 11 11 10 10 10 9 9 9 11 11 11 10 10 10 
10 10 10 11 11 11 17 18 16 20 20 21 23 23 23 21 21 18 25 24 25 23 23 23 
22 21 22 23 18 20 22 10 14 25 11 17 25 11 17 25 11 17 22 10 14 22 15 15 
20 20 21 18 18 19 18 18 19 18 18 19 22 21 22 18 18 19 20 20 21 21 21 18 
23 18 20 25 11 17 25 11 17 25 11 17 25 11 17 22 10 14 22 15 15 23 18 20 
20 20 21 25 24 25 23 18 20 22 15 15 22 10 14 22 10 14 25 11 17 25 11 17 
22 10 14 22 10 14 25 11 17 22 10 14 25 11 17 22 10 14 15 15 15 17 18 16 
18 10 13 22 15 15 22 10 14 22 10 14 25 11 17 22 10 14 22 15 15 18 18 19 
20 20 21 23 23 23 22 21 22 18 18 19 23 18 20 22 15 15 25 11 17 25 11 17 
22 10 14 18 10 13 18 18 19 20 20 21 22 21 22 22 21 22 22 21 22 22 21 22 
22 21 22 18 18 19 23 18 20 22 15 15 15 15 15 21 21 18 18 18 19 23 23 23 
20 20 21 23 23 23 20 20 21 20 20 21 20 20 21 22 21 22 23 23 23 22 21 22 
23 23 23 23 23 23 22 21 22 23 23 23 20 20 21 23 23 23 20 20 21 25 24 25 
22 21 22 22 21 22 22 21 22 25 24 25 22 21 22 22 21 22 20 20 21 22 21 22 
25 24 25 23 18 20 23 18 20 22 10 14 22 10 14 25 11 17 25 11 17 22 10 14 
25 11 17 25 11 17 25 11 17 25 11 17 25 11 17 25 11 17 25 11 17 25 11 17 
22 10 14 22 15 15 18 10 13 15 15 15 18 18 19 23 23 23 25 24 25 23 23 23 
20 20 21 25 24 25 20 20 21 23 23 23 22 21 22 20 20 21 22 21 22 25 24 25 
23 23 23 22 21 22 23 23 23 22 21 22 22 21 22 23 23 23 23 23 23 23 18 20 
23 23 23 23 18 20 22 21 22 22 21 22 22 21 22 23 18 20 22 21 22 23 18 20 
23 23 23 25 24 25 23 23 23 22 21 22 23 23 23 25 24 25 25 24 25 22 21 22 
25 24 25 25 24 25 25 24 25 22 21 22 25 24 25 23 23 23 23 23 23 25 24 25 
23 23 23 22 21 22 25 24 25 22 21 22 22 21 22 23 23 23 23 23 23 27 26 26 
23 23 23 20 20 21 23 23 23 22 21 22 22 21 22 25 24 25 23 23 23 23 23 23 
23 23 23 23 23 23 23 18 20 23 23 23 23 18 20 22 21 22 22 21 22 22 21 22 
23 23 23 23 23 23 23 23 23 22 21 22 22 21 22 22 21 22 23 23 23 23 23 23 
25 24 25 25 24 25 22 21 22 23 23 23 25 24 25 23 18 20 11 11 11 10 13 10 
10 13 10 11 11 11 7 7 7 11 11 11 11 11 11 9 9 9 9 9 9 9 9 9 
10 10 10 11 11 11 9 9 9 11 11 11 11 11 11 11 11 11 11 11 11 10 10 10 

13 13 13 11 11 11 11 11 11 7 7 7 11 11 11 9 9 9 13 13 13 11 11 11 
11 11 11 10 10 10 10 10 10 9 9 9 10 10 10 9 9 9 13 13 13 11 11 11 
11 11 11 10 10 10 14 14 14 18 18 19 22 21 22 22 21 22 18 18 19 18 18 19 
22 21 22 23 18 20 22 15 15 22 10 14 25 11 17 25 11 17 25 11 17 18 10 13 
17 18 16 18 18 19 23 23 23 22 21 22 23 23 23 20 20 21 22 21 22 23 18 20 
22 15 15 22 10 14 25 11 17 22 10 14 25 11 17 23 18 20 23 18 20 23 23 23 
20 20 21 18 18 19 22 21 22 23 18 20 22 10 14 22 10 14 25 11 17 22 10 14 
22 10 14 22 10 14 22 10 14 22 10 14 25 11 17 22 10 14 25 11 17 22 15 15 
22 15 15 22 15 15 22 10 14 25 11 17 25 11 17 25 11 17 25 11 17 18 10 13 
18 18 19 18 18 19 18 18 19 20 20 21 23 18 20 22 10 14 22 10 14 25 11 17 
22 10 14 18 10 13 18 10 13 18 18 19 20 20 21 23 23 23 23 23 23 23 18 20 
23 18 20 18 10 13 18 10 13 18 10 13 18 10 13 18 10 13 17 18 16 18 18 19 
18 18 19 23 23 23 23 23 23 22 21 22 23 23 23 22 21 22 22 21 22 22 21 22 
25 24 25 22 21 22 23 23 23 25 24 25 22 21 22 22 21 22 20 20 21 22 21 22 
23 23 23 23 23 23 22 21 22 20 20 21 18 18 19 20 20 21 22 21 22 23 23 23 
23 23 23 23 18 20 22 15 15 22 10 14 25 11 17 25 11 17 25 11 17 25 11 17 
25 11 17 22 10 14 22 10 14 22 10 14 22 10 14 25 11 17 25 11 17 25 11 17 
25 11 17 25 11 17 25 11 17 18 10 13 18 10 13 17 18 16 22 21 22 22 21 22 
23 23 23 20 20 21 25 24 25 23 23 23 23 23 23 25 24 25 23 23 23 23 23 23 
23 23 23 25 24 25 23 23 23 23 23 23 23 23 23 23 23 23 23 23 23 22 21 22 
23 18 20 23 18 20 23 23 23 23 23 23 23 23 23 23 23 23 22 21 22 22 21 22 
22 21 22 23 23 23 25 24 25 22 21 22 25 24 25 23 23 23 25 24 25 22 21 22 
22 21 22 22 21 22 25 24 25 25 24 25 22 21 22 22 21 22 23 18 20 21 21 18 
23 23 23 25 24 25 25 24 25 22 21 22 25 24 25 23 23 23 20 20 21 25 24 25 
20 20 21 25 24 25 23 23 23 22 21 22 25 24 25 22 21 22 22 21 22 23 23 23 
22 21 22 22 21 22 22 21 22 22 21 22 22 21 22 25 24 25 22 21 22 22 21 22 
22 21 22 23 23 23 23 23 23 25 24 25 22 21 22 23 23 23 25 24 25 25 24 25 
23 23 23 22 21 22 21 21 18 23 23 23 23 18 20 18 18 19 7 7 7 13 13 10 
9 9 9 11 11 11 11 11 11 10 10 10 11 11 11 10 10 10 11 11 11 11 11 11 
11 11 11 11 11 11 11 11 11 10 10 10 9 9 9 11 11 11 11 11 11 11 11 11 

13 13 13 13 13 13 11 11 11 11 11 11 11 11 11 9 9 9 13 13 13 11 11 11 
13 13 13 11 11 11 11 11 11 11 11 11 13 13 13 11 11 11 11 11 11 11 11 11 
11 11 11 11 11 11 17 18 16 20 20 21 20 20 21 22 21 22 22 21 22 18 18 19 
18 18 19 21 21 18 23 18 20 18 10 13 22 10 14 22 10 14 25 11 17 25 11 17 
22 10 14 17 18 16 22 21 22 22 21 22 22 21 22 22 21 22 21 21 18 23 18 20 
22 15 15 25 11 17 22 10 14 25 11 17 22 15 15 23 18 20 21 21 18 22 21 22 
22 21 22 23 23 23 21 21 18 23 18 20 22 15 15 22 10 14 25 11 17 25 11 17 
22 10 14 25 11 17 22 10 14 22 10 14 22 10 14 22 10 14 22 10 14 25 11 17 
22 10 14 18 10 13 22 10 14 22 10 14 25 11 17 22 10 14 22 10 14 18 10 13 
18 10 13 22 15 15 17 18 16 18 18 19 18 18 19 22 15 15 26 11 11 22 10 14 
25 11 17 25 11 17 25 11 17 22 15 15 18 18 19 20 20 21 23 18 20 23 18 20 
22 10 14 25 11 17 25 11 17 25 11 17 25 11 17 22 10 14 18 10 13 15 15 15 
18 18 19 20 20 21 22 21 22 20 20 21 20 20 21 20 20 21 22 21 22 22 21 22 
25 24 25 21 21 18 20 20 21 22 21 22 22 21 22 22 21 22 20 20 21 18 18 19 
22 21 22 22 21 22 23 23 23 23 23 23 18 18 19 18 18 19 22 21 22 22 21 22 
22 21 22 25 21 24 25 11 17 25 11 17 25 11 17 25 11 17 25 11 17 25 11 17 
22 15 15 22 15 15 22 10 14 25 11 17 22 10 14 22 10 14 22 10 14 22 10 14 
22 10 14 22 10 14 25 11 17 22 10 14 22 10 14 18 10 13 15 15 15 18 18 19 
20 20 21 22 21 22 22 21 22 22 21 22 23 23 23 22 21 22 20 20 21 22 21 22 
22 21 22 23 23 23 22 21 22 22 21 22 23 23 23 20 20 21 23 23 23 23 23 23 
22 21 22 25 24 25 22 21 22 23 23 23 23 23 23 22 21 22 22 21 22 23 23 23 
18 18 19 23 23 23 25 24 25 20 20 21 20 20 21 22 21 22 23 23 23 22 21 22 
23 23 23 20 20 21 23 23 23 23 23 23 22 21 22 23 23 23 22 21 22 23 23 23 
22 21 22 22 21 22 23 23 23 23 23 23 25 24 25 20 20 21 23 23 23 22 21 22 
23 23 23 23 23 23 20 20 21 23 23 23 23 23 23 25 24 25 20 20 21 23 23 23 
22 21 22 25 24 25 23 23 23 22 21 22 23 23 23 23 23 23 25 24 25 23 23 23 
23 23 23 25 24 25 23 23 23 25 24 25 20 20 21 22 21 22 25 24 25 22 21 22 
23 23 23 23 23 23 23 23 23 22 21 22 22 21 22 20 20 21 10 10 10 10 13 10 
11 11 11 11 11 13 7 7 7 11 11 11 10 10 10 10 10 10 9 9 9 7 7 7 
11 11 11 11 11 11 10 10 10 10 10 10 10 10 10 11 11 11 11 11 11 11 11 11 

11 11 11 11 11 11 11 11 11 9 9 9 11 11 11 10 10 10 11 11 11 10 10 10 
9 9 9 11 11 11 11 11 11 11 11 11 11 11 11 13 13 13 11 11 11 10 10 10 
11 11 11 11 11 11 15 15 15 18 18 19 18 18 19 22 21 22 20 20 21 22 21 22 
18 18 19 22 21 22 23 18 20 22 15 15 22 10 14 26 11 11 22 10 14 25 11 17 
25 11 17 22 15 15 18 18 19 18 18 19 22 21 22 20 20 21 23 18 20 22 15 15 
22 10 14 25 11 17 25 11 17 22 10 14 22 15 15 22 21 22 22 21 22 20 20 21 
20 20 21 18 18 19 22 21 22 22 21 22 23 18 20 22 10 14 26 11 11 22 10 14 
25 11 17 25 11 17 22 10 14 25 11 17 22 10 14 18 10 13 22 10 14 25 11 17 
25 11 17 22 10 14 18 10 13 22 10 14 25 11 17 22 10 14 25 11 17 25 11 17 
25 11 17 25 11 17 22 15 15 22 15 15 18 10 13 22 15 15 18 10 13 22 10 14 
25 11 17 25 11 17 25 11 17 25 11 17 15 15 15 15 15 15 23 18 20 22 15 15 
25 11 17 22 10 14 25 11 17 22 10 14 25 11 17 25 11 17 22 10 14 22 10 14 
18 10 13 15 15 15 18 18 19 22 21 22 20 20 21 23 23 23 22 21 22 23 18 20 
23 18 20 21 21 18 21 21 18 22 21 22 21 21 18 23 18 20 23 18 20 22 21 22 
22 21 22 23 18 20 23 18 20 23 18 20 23 23 23 23 18 20 23 23 23 23 23 23 
23 18 20 22 15 15 22 10 14 25 11 17 25 11 17 25 11 17 25 11 17 22 15 15 
23 18 20 23 18 20 18 18 19 23 18 20 23 18 20 22 15 15 22 10 14 22 10 14 
22 10 14 25 11 17 25 11 17 25 11 17 25 11 17 25 11 17 25 11 17 18 10 13 
15 15 15 21 21 18 22 21 22 25 24 25 18 18 19 21 21 18 23 23 23 22 21 22 
23 18 20 23 18 20 25 24 25 25 24 25 23 18 20 22 21 22 23 18 20 22 21 22 
22 21 22 23 23 23 23 23 23 23 23 23 22 21 22 22 21 22 22 21 22 23 23 23 
22 21 22 23 18 20 25 24 25 21 21 18 22 21 22 22 21 22 23 18 20 23 23 23 
22 21 22 22 21 22 25 24 25 23 18 20 22 21 22 23 23 23 25 24 25 23 23 23 
22 21 22 23 23 23 23 23 23 23 23 23 22 21 22 22 21 22 23 23 23 22 21 22 
25 24 25 22 21 22 22 21 22 23 18 20 23 18 20 25 24 25 23 18 20 23 23 23 
22 21 22 23 23 23 23 23 23 23 23 23 23 23 23 22 21 22 23 18 20 22 21 22 
23 23 23 23 18 20 22 21 22 23 18 20 25 24 25 22 21 22 22 21 22 22 21 22 
21 21 18 23 23 23 22 21 22 23 18 20 22 21 22 15 15 15 11 11 11 10 10 10 
11 11 11 10 10 10 11 11 11 13 13 13 10 10 10 14 14 14 11 11 11 10 10 10 
11 11 11 9 9 9 11 11 11 13 13 13 11 11 11 9 9 9 11 11 11 11 11 11 

10 10 10 7 7 7 11 11 11 11 11 11 10 10 10 9 9 9 9 9 9 9 9 9 
13 13 13 11 11 11 10 10 10 7 7 7 9 9 9 9 9 9 10 10 10 11 11 11 
10 10 10 11 11 11 11 11 11 17 18 16 20 20 21 22 21 22 20 20 21 22 21 22 
23 23 23 18 18 19 18 18 19 18 18 19 22 15 15 22 10 14 22 10 14 25 11 17 
25 11 17 22 10 14 18 10 13 18 18 19 18 18 19 23 18 20 23 18 20 22 10 14 
22 10 14 25 11 17 22 10 14 22 15 15 18 18 19 20 20 21 22 21 22 20 20 21 
18 18 19 22 21 22 18 18 19 22 21 22 21 21 18 22 10 14 22 10 14 25 11 17 
25 11 17 25 11 17 22 10 14 22 10 14 25 11 17 22 10 14 22 10 14 22 10 14 
25 11 17 22 10 14 22 10 14 22 10 14 22 10 14 25 11 17 25 11 17 22 10 14 
22 10 14 22 10 14 25 11 17 22 10 14 22 15 15 22 15 15 18 10 13 22 10 14 
22 10 14 25 11 17 25 11 17 22 10 14 25 11 17 22 15 15 18 18 19 18 10 13 
22 10 14 25 11 17 25 11 17 22 10 14 22 10 14 22 10 14 25 11 17 25 11 17 
25 11 17 18 10 13 18 18 19 18 18 19 22 21 22 22 21 22 22 21 22 23 23 23 
23 23 23 25 24 25 25 24 25 22 21 22 22 21 22 22 21 22 22 21 22 22 21 22 
23 23 23 22 21 22 22 21 22 20 20 21 25 24 25 23 23 23 20 20 21 25 24 25 
20 20 21 22 15 15 22 10 14 25 11 17 25 11 17 25 11 17 22 10 14 23 18 20 
22 21 22 21 21 18 21 21 18 21 21 18 20 20 21 21 21 18 23 18 20 22 15 15 
22 15 15 22 10 14 22 10 14 22 10 14 25 11 17 25 11 17 25 11 17 22 10 14 
18 10 13 17 18 16 18 18 19 18 18 19 23 23 23 25 24 25 23 23 23 22 21 22 
20 20 21 22 21 22 22 21 22 25 24 25 25 24 25 22 21 22 22 21 22 22 21 22 
22 21 22 23 23 23 22 21 22 23 23 23 20 20 21 22 21 22 22 21 22 22 21 22 
22 21 22 22 21 22 22 21 22 20 20 21 20 20 21 22 21 22 22 21 22 23 23 23 
23 23 23 20 20 21 23 23 23 22 21 22 22 21 22 22 21 22 22 21 22 22 21 22 
22 21 22 22 21 22 22 21 22 20 20 21 22 21 22 20 20 21 22 21 22 23 23 23 
22 21 22 22 21 22 22 21 22 23 23 23 20 20 21 22 21 22 22 21 22 22 21 22 
22 21 22 23 23 23 20 20 21 23 23 23 23 23 23 22 21 22 20 20 21 22 21 22 
22 21 22 25 24 25 23 23 23 23 23 23 22 21 22 23 23 23 22 21 22 22 21 22 
22 21 22 22 21 22 22 21 22 23 23 23 18 18 19 10 10 10 11 11 11 13 13 10 
9 9 9 11 11 11 9 9 9 9 9 9 11 11 11 7 7 7 11 11 11 11 11 11 
11 11 11 11 11 11 10 10 10 11 11 11 11 11 11 10 10 10 11 11 11 9 9 9 

9 9 9 11 11 11 13 13 13 11 11 11 11 11 11 11 11 11 11 11 11 11 11 11 
10 10 10 10 10 10 10 10 10 7 7 7 9 9 9 10 10 10 7 7 7 10 10 10 
9 9 9 13 10 11 11 11 11 11 11 11 13 13 13 14 14 14 14 15 19 20 20 21 
14 15 19 14 15 19 14 15 19 14 15 19 15 15 15 18 10 13 18 10 13 22 10 14 
18 10 13 25 11 17 18 10 13 18 10 13 15 15 15 18 18 19 22 15 15 22 15 15 
25 11 17 25 11 17 22 10 14 18 18 19 15 15 15 14 15 19 20 20 21 14 15 19 
18 18 19 18 18 19 14 15 19 14 15 19 18 18 19 18 18 19 18 10 13 22 10 14 
22 10 14 25 11 17 22 10 14 22 10 14 22 10 14 22 10 14 25 11 17 22 10 14 
18 10 13 22 10 14 22 10 14 25 11 17 26 11 11 25 11 17 25 11 17 22 10 14 
22 10 14 22 10 14 22 10 14 22 10 14 25 11 17 22 10 14 18 10 13 18 10 13 
25 11 17 22 10 14 25 11 17 25 11 17 25 11 17 22 10 14 25 11 17 22 10 14 
22 10 14 25 11 17 25 11 17 25 11 17 22 10 14 22 10 14 22 10 14 22 10 14 
25 11 17 22 10 14 25 11 17 18 10 13 18 18 19 20 20 21 18 18 19 14 15 19 
18 18 19 18 18 19 20 20 21 18 18 19 18 18 19 18 18 19 14 14 14 14 15 19 
20 20 21 20 20 21 14 15 19 14 15 19 18 18 19 18 18 19 18 18 19 20 20 21 
18 18 19 18 10 13 22 10 14 25 11 17 25 11 17 25 11 17 18 10 13 18 18 19 
20 20 21 18 18 19 18 18 19 20 20 21 18 18 19 18 18 19 15 15 15 14 15 19 
15 15 15 15 15 15 22 15 15 22 10 14 22 10 14 25 11 17 25 11 17 25 11 17 
22 10 14 22 10 14 18 10 13 15 15 15 18 18 19 14 15 19 18 18 19 14 15 19 
18 18 19 18 18 19 14 15 19 18 18 19 14 15 19 18 18 19 20 20 21 18 18 19 
14 15 19 18 18 19 18 18 19 20 20 21 18 18 19 18 18 19 14 15 19 18 18 19 
20 20 21 18 18 19 14 15 19 14 15 19 14 15 19 18 18 19 20 20 21 18 18 19 
18 18 19 18 18 19 18 18 19 18 18 19 18 18 19 14 15 19 14 15 19 20 20 21 
18 18 19 18 18 19 18 18 19 18 18 19 14 15 19 18 18 19 18 18 19 14 15 19 
18 18 19 20 20 21 20 20 21 18 18 19 18 18 19 18 18 19 14 15 19 20 20 21 
18 18 19 18 18 19 18 18 19 18 18 19 18 18 19 20 20 21 18 18 19 18 18 19 
18 18 19 18 18 19 18 18 19 20 20 21 14 15 19 18 18 19 14 15 19 14 15 19 
14 15 19 18 18 19 18 18 19 18 18 19 10 10 10 10 10 10 11 11 11 11 11 11 
11 11 13 10 10 10 11 11 11 13 13 13 11 11 11 11 11 11 10 10 10 13 13 13 
10 10 10 11 11 11 10 10 10 10 10 10 10 10 10 11 11 11 11 11 11 10 10 10 

10 10 10 11 11 11 10 10 10 11 11 11 10 10 10 7 7 7 10 10 10 11 11 11 
11 11 11 9 9 9 10 10 10 10 10 10 11 11 11 10 10 10 9 9 9 9 9 9 
9 9 9 9 9 9 11 11 11 10 10 10 13 13 13 13 10 11 10 10 10 11 11 11 
13 10 11 13 10 11 11 11 11 11 9 10 13 10 11 18 10 13 18 10 13 22 10 14 
22 10 14 25 11 17 25 11 17 22 10 14 18 10 13 18 10 13 22 10 14 22 10 14 
25 11 17 25 11 17 18 10 13 13 13 13 9 9 9 11 9 10 11 11 11 11 11 11 
11 11 11 11 11 11 11 9 10 11 9 10 11 9 10 9 9 9 13 10 11 18 10 13 
22 10 14 22 10 14 22 10 14 22 10 14 22 10 14 22 10 14 22 10 14 22 10 14 
22 10 14 18 10 13 18 10 13 18 10 13 22 10 14 22 10 14 25 11 17 25 11 17 
25 11 17 22 10 14 22 10 14 18 10 13 25 11 17 22 10 14 22 10 14 22 10 14 
22 10 14 25 11 17 25 11 17 25 11 17 22 10 14 25 11 17 25 11 17 22 10 14 
22 10 14 22 10 14 22 10 14 25 11 17 22 10 14 18 10 13 18 10 13 22 10 14 
22 10 14 25 11 17 25 11 17 18 10 13 13 10 11 10 10 10 11 11 11 11 9 10 
10 10 10 9 9 9 11 11 11 7 7 7 10 10 10 10 10 10 9 9 9 11 11 13 
10 10 10 10 10 10 11 11 11 11 11 11 11 11 11 9 9 9 9 9 9 7 7 7 
11 11 11 18 10 13 22 10 14 22 10 14 25 11 17 25 11 17 18 10 13 13 10 11 
11 9 10 11 11 13 9 9 9 10 10 10 11 11 11 11 11 11 11 9 10 11 11 11 
9 9 9 11 9 10 13 10 11 18 10 13 18 10 13 22 10 14 22 10 14 25 11 17 
25 11 17 22 10 14 18 10 13 18 10 13 11 9 10 11 11 11 11 11 11 11 11 13 
11 11 11 11 9 10 11 11 11 9 9 9 9 9 9 9 9 9 9 9 9 11 11 13 
11 11 11 9 9 9 11 11 11 10 10 10 10 10 10 7 7 7 11 11 11 10 10 10 
10 10 10 11 11 11 11 11 11 10 10 10 7 7 7 10 10 10 11 11 13 10 10 10 
9 9 9 7 7 7 11 11 11 11 11 11 7 7 7 9 9 9 11 11 11 10 10 10 
13 13 13 10 10 10 9 9 9 9 9 9 11 9 10 11 11 11 11 11 11 11 11 11 
11 9 10 13 13 13 10 10 10 11 11 11 11 9 10 13 13 13 11 9 10 11 11 11 
11 9 10 11 11 13 7 7 7 10 10 10 9 9 9 10 10 10 9 9 9 11 11 11 
9 9 9 11 11 11 9 9 9 9 9 9 11 11 13 11 9 10 11 11 11 9 9 9 
11 11 11 11 11 13 9 9 9 11 11 11 10 10 10 11 11 11 10 10 10 10 10 10 
9 9 9 10 10 10 13 13 13 10 10 10 10 10 10 10 10 10 9 9 9 13 13 13 
11 11 11 11 11 11 10 10 10 13 13 13 11 11 11 13 13 13 7 7 7 9 9 9 

10 10 10 11 11 11 11 11 11 10 10 10 10 10 10 11 11 11 9 9 9 10 10 10 
11 11 11 11 11 11 9 9 9 13 13 13 7 7 7 10 10 10 11 11 11 11 11 11 
11 11 11 9 9 9 11 11 11 10 10 10 14 14 14 11 11 11 11 11 11 13 10 11 
18 10 13 18 10 13 18 10 13 18 10 13 18 10 13 18 10 13 18 10 13 18 10 13 
18 10 13 22 10 14 25 11 17 25 11 17 18 10 13 18 10 13 18 10 13 25 11 17 
22 10 14 22 15 15 18 10 13 13 13 13 11 9 10 13 10 11 11 9 10 11 9 10 
11 9 10 11 11 11 11 11 11 11 11 11 13 13 13 11 11 11 13 13 13 18 10 13 
18 10 13 22 15 15 25 11 17 22 10 14 22 10 14 22 10 14 22 10 14 26 11 11 
22 10 14 22 10 14 18 10 13 15 15 15 13 10 11 22 10 14 22 10 14 25 11 17 
25 11 17 22 10 14 18 10 13 18 10 13 18 10 13 18 10 13 22 10 14 22 10 14 
22 10 14 22 10 14 22 10 14 22 10 14 22 10 14 22 15 15 18 10 13 25 11 17 
18 10 13 22 10 14 18 10 13 25 11 17 25 11 17 18 10 13 18 10 13 18 10 13 
22 10 14 25 11 17 25 11 17 25 11 17 18 10 13 15 15 15 13 13 13 13 10 11 
13 13 13 11 11 11 13 13 13 11 11 11 11 11 11 11 11 11 11 11 11 11 11 11 
10 10 10 11 11 11 11 11 11 11 11 11 11 11 11 13 13 13 13 13 13 11 11 11 
13 13 13 18 10 13 22 10 14 22 10 14 25 11 17 22 10 14 18 10 13 13 10 11 
13 13 13 13 10 11 13 13 13 10 10 10 11 11 11 11 11 11 11 9 10 11 11 11 
11 11 11 13 13 13 11 9 10 15 15 15 13 13 13 18 10 13 22 10 14 22 10 14 
25 11 17 25 11 17 22 10 14 25 11 17 18 10 13 14 14 14 13 13 13 11 11 11 
10 10 10 13 10 11 11 11 11 11 11 11 13 13 13 13 13 13 13 10 11 18 10 13 
13 10 11 13 10 11 11 9 10 13 10 11 11 11 11 13 10 11 13 10 11 13 13 13 
11 11 11 10 10 10 10 10 10 11 9 10 13 10 11 11 11 11 11 11 11 11 11 11 
10 10 10 9 9 9 11 11 11 13 10 11 10 10 10 9 9 9 11 11 11 11 11 11 
13 13 13 11 11 11 13 13 13 11 9 10 13 13 13 13 10 11 13 10 11 13 13 13 
11 9 10 13 10 11 13 13 13 11 11 11 10 10 10 13 13 13 13 10 11 13 10 11 
9 9 9 13 13 13 11 9 10 11 11 11 11 11 11 11 11 11 10 10 10 11 11 11 
11 11 11 11 11 11 14 14 14 11 11 11 13 13 13 11 9 10 11 11 11 9 9 9 
11 11 11 10 10 10 11 11 11 11 11 11 11 11 11 11 11 11 13 13 13 11 11 11 
13 13 13 10 10 10 10 10 10 14 14 14 11 11 11 10 10 10 10 10 10 11 11 11 
11 11 11 10 10 10 11 11 11 11 11 11 11 11 11 10 10 10 11 11 11 7 7 7 

11 11 11 11 11 11 11 11 11 11 11 11 9 9 9 10 10 10 7 7 7 11 11 11 
11 11 11 11 11 11 10 10 10 11 11 11 7 7 7 10 10 10 9 9 9 13 13 13 
10 10 10 9 9 9 10 10 10 9 9 9 11 11 11 11 11 11 13 10 11 18 10 13 
22 10 14 25 11 17 22 10 14 25 11 17 22 10 14 22 10 14 22 10 14 22 10 14 
22 10 14 22 10 14 22 10 14 25 11 17 25 11 17 18 10 13 22 10 14 22 10 14 
22 15 15 18 10 13 11 11 11 11 9 10 13 10 11 11 9 10 11 11 11 11 11 11 
11 11 11 11 11 11 9 9 9 11 11 11 11 11 11 14 14 14 11 11 11 13 13 13 
18 10 13 18 10 13 18 10 13 25 11 17 22 10 14 25 11 17 22 10 14 22 10 14 
22 10 14 22 10 14 18 10 13 15 15 15 14 14 14 18 10 13 22 10 14 25 11 17 
25 11 17 22 10 14 22 15 15 22 15 15 18 10 13 18 10 13 22 10 14 22 10 14 
22 10 14 22 10 14 25 11 17 25 11 17 22 10 14 22 15 15 18 10 13 22 15 15 
18 10 13 22 10 14 22 10 14 22 10 14 25 11 17 22 10 14 18 10 13 18 10 13 
18 10 13 22 10 14 25 11 17 25 11 17 25 11 17 18 10 13 11 9 10 11 11 11 
10 10 10 11 11 11 11 11 11 11 11 11 11 11 11 11 11 11 11 11 11 10 10 10 
10 10 10 11 11 11 10 10 10 11 11 11 11 11 11 10 10 10 11 11 11 11 11 11 
11 11 11 13 10 11 22 10 14 25 11 17 22 10 14 25 11 17 18 10 13 18 10 13 
11 11 11 13 13 13 11 11 11 10 10 10 11 11 11 11 11 11 11 11 11 10 10 10 
9 9 9 10 10 10 11 11 11 11 11 11 11 11 11 13 10 11 11 9 10 18 10 13 
22 10 14 22 10 14 25 11 17 22 10 14 18 10 13 18 10 13 18 10 13 9 9 9 
11 11 11 11 11 11 13 13 13 11 11 11 11 11 11 13 13 13 18 10 13 18 10 13 
22 10 14 18 10 13 13 10 11 13 13 13 13 10 11 18 10 13 13 10 11 15 15 15 
11 9 10 9 9 9 11 11 11 11 11 11 11 9 10 11 9 10 13 13 13 13 10 11 
13 13 13 11 11 11 11 11 11 11 11 11 10 10 10 9 9 9 13 13 13 11 11 11 
11 11 11 11 11 11 13 10 11 11 9 10 13 10 11 13 13 13 13 13 13 11 11 11 
13 13 13 13 13 13 11 11 11 11 11 11 13 13 13 10 10 10 11 11 11 11 9 10 
11 9 10 13 10 11 13 10 11 10 10 10 10 10 10 11 11 11 11 11 11 11 11 11 
11 11 11 10 10 10 10 10 10 11 11 11 14 14 14 11 11 11 9 9 9 9 9 9 
11 11 11 11 11 11 11 11 11 10 10 10 11 11 11 11 11 11 10 10 10 11 11 11 
11 11 11 9 9 9 11 11 11 10 10 10 11 11 11 10 10 10 10 10 10 13 13 13 
10 10 10 10 10 10 9 9 9 10 10 10 10 10 10 11 11 11 11 11 11 11 11 11 

11 11 11 9 9 9 7 7 7 10 10 10 11 11 11 11 11 11 11 11 11 10 10 10 
11 11 11 7 7 7 10 10 10 9 9 9 9 9 9 11 11 11 10 10 10 11 11 11 
11 11 11 11 11 11 10 10 10 9 9 9 11 11 11 11 11 11 11 11 11 11 11 11 
13 10 11 18 10 13 18 10 13 18 10 13 18 10 13 22 10 14 22 10 14 22 10 14 
22 10 14 22 10 14 22 10 14 22 10 14 22 10 14 22 10 14 22 10 14 18 10 13 
18 10 13 13 13 13 11 11 11 11 11 11 11 9 10 13 10 11 11 11 11 9 9 9 
10 10 10 10 10 10 11 11 11 14 14 14 11 11 11 11 11 11 11 9 10 13 10 11 
11 9 10 18 10 13 18 10 13 22 10 14 25 11 17 25 11 17 22 10 14 22 10 14 
22 10 14 22 10 14 18 10 13 13 13 13 14 14 14 13 13 13 18 10 13 22 10 14 
22 10 14 22 10 14 22 10 14 18 10 13 13 13 13 13 10 11 18 10 13 18 10 13 
18 10 13 22 10 14 22 10 14 25 11 17 18 10 13 15 15 15 13 10 11 13 10 11 
15 15 15 13 10 11 18 10 13 18 10 13 25 11 17 18 10 13 18 10 13 18 10 13 
18 10 13 18 10 13 22 10 14 25 11 17 22 10 14 18 10 13 13 13 13 10 10 10 
13 10 11 11 11 11 10 10 10 10 10 10 10 10 10 10 10 10 11 11 11 11 11 11 
11 11 11 10 10 10 11 11 11 11 11 11 11 11 11 9 9 9 10 10 10 13 13 13 
11 11 11 13 10 11 22 15 15 22 10 14 22 10 14 22 10 14 18 10 13 22 15 15 
14 14 14 11 9 10 9 9 9 11 11 11 10 10 10 11 11 11 11 11 11 11 11 11 
11 11 11 10 10 10 10 10 10 10 10 10 9 9 9 13 10 11 11 11 11 13 10 11 
18 14 10 22 10 14 22 10 14 22 10 14 25 11 17 22 15 15 22 15 15 18 10 13 
11 11 11 13 13 13 10 10 10 10 10 10 11 11 11 18 10 13 22 10 14 22 10 14 
25 11 17 22 10 14 22 10 14 22 15 15 18 10 13 18 10 13 22 10 14 22 10 14 
18 10 13 13 10 11 11 11 11 11 11 11 10 10 10 18 10 13 18 10 13 18 10 13 
18 10 13 13 13 13 13 13 13 11 11 11 11 11 11 11 11 11 10 10 10 11 11 11 
10 10 10 13 10 11 7 7 7 13 13 13 11 11 11 11 9 10 13 10 11 11 9 10 
11 9 10 11 9 10 11 9 10 11 11 11 11 11 11 10 10 10 9 9 9 9 9 9 
13 10 11 11 11 11 11 11 11 11 11 11 11 11 11 9 9 9 11 11 11 9 9 9 
11 11 11 11 11 11 10 10 10 9 9 9 11 11 11 10 10 10 11 11 11 10 10 10 
7 7 7 11 11 11 10 10 10 7 7 7 11 11 11 11 11 11 11 11 11 9 9 9 
10 10 10 11 11 11 10 10 10 11 11 11 10 10 10 11 11 11 9 9 9 11 11 11 
11 11 11 11 11 11 11 11 11 7 7 7 10 10 10 9 9 9 10 10 10 10 10 10 

10 10 10 11 11 11 11 11 11 11 11 11 10 10 10 13 13 13 11 11 11 9 9 9 
11 11 11 10 10 10 13 13 13 10 10 10 11 11 11 10 10 10 9 9 9 10 10 10 
11 11 11 11 11 11 11 11 11 11 11 11 10 10 10 11 11 11 11 11 11 11 11 11 
13 10 11 13 10 11 13 10 11 18 10 13 18 10 13 22 10 14 18 10 13 18 10 13 
22 10 14 22 10 14 22 10 14 25 11 17 22 10 14 25 11 17 25 11 17 22 10 14 
18 10 13 13 13 13 13 13 13 11 9 10 11 9 10 11 11 11 11 9 10 11 9 10 
10 10 10 11 11 11 9 9 9 11 11 11 11 11 11 9 9 9 11 11 11 11 11 11 
11 11 11 13 10 11 13 10 11 18 10 13 22 10 14 22 10 14 22 10 14 22 10 14 
22 10 14 22 10 14 18 10 13 13 10 11 11 9 10 11 9 10 15 15 15 18 10 13 
22 10 14 25 11 17 18 10 13 18 10 13 18 10 13 13 13 13 13 10 11 18 14 10 
22 10 14 18 10 13 25 11 17 22 10 14 18 10 13 13 13 13 11 9 10 11 11 11 
11 11 11 11 9 10 18 10 13 22 10 14 18 10 13 25 11 17 22 10 14 22 10 14 
22 15 15 18 10 13 18 10 13 22 10 14 22 10 14 18 10 13 18 10 13 11 11 11 
9 9 9 11 11 11 9 9 9 7 7 7 11 11 11 7 7 7 10 10 10 7 7 7 
11 11 11 9 9 9 11 11 11 10 10 10 11 11 11 13 13 13 11 11 11 11 11 11 
10 10 10 11 9 10 18 10 13 22 10 14 25 11 17 22 10 14 22 10 14 22 10 14 
13 13 13 11 11 11 13 10 11 13 13 13 11 11 11 11 11 11 10 10 10 10 10 10 
9 9 9 11 11 11 10 10 10 11 11 11 11 11 11 11 9 10 11 11 11 10 10 10 
13 10 11 13 10 11 13 10 11 25 11 17 22 10 14 25 11 17 18 10 13 18 10 13 
13 10 11 9 9 9 11 11 11 7 7 7 11 11 11 18 10 13 22 10 14 22 10 14 
22 10 14 22 10 14 25 11 17 22 10 14 22 10 14 22 10 14 22 10 14 25 11 17 
18 10 13 18 10 13 15 15 15 11 11 11 11 11 11 18 10 13 22 10 14 22 10 14 
18 10 13 18 10 13 18 10 13 11 11 11 11 9 10 10 10 10 10 13 10 11 11 11 
9 9 9 13 10 11 9 9 9 13 13 13 13 10 11 18 10 13 15 15 15 13 10 11 
11 11 11 11 11 11 13 13 13 11 11 11 10 10 10 10 10 10 13 13 13 13 10 11 
13 10 11 13 10 11 13 10 11 11 11 11 11 11 11 10 10 10 11 11 11 10 10 10 
11 11 11 11 11 11 13 13 13 10 10 10 10 10 10 11 11 11 10 10 10 11 11 11 
11 11 11 11 11 11 11 11 11 13 13 13 11 11 11 10 10 10 9 9 9 11 11 11 
11 11 11 10 10 10 11 11 11 11 11 11 11 11 11 10 10 10 11 11 11 10 10 10 
10 10 10 10 10 10 11 11 11 7 7 7 11 11 11 11 11 11 7 7 7 10 10 10 

11 11 11 10 10 10 10 10 10 11 11 11 7 7 7 11 11 11 10 10 10 11 11 11 
10 10 10 11 11 11 10 10 10 11 11 11 13 13 13 11 11 11 11 11 11 13 13 13 
11 11 11 11 11 11 13 13 13 10 10 10 11 11 11 11 11 11 9 9 9 9 9 9 
11 11 11 9 9 9 13 10 11 13 10 11 11 9 10 14 14 14 13 10 11 18 10 13 
18 10 13 22 10 14 22 10 14 22 10 14 22 10 14 18 10 13 25 11 17 22 10 14 
22 10 14 22 15 15 18 10 13 13 10 11 13 10 11 11 9 10 13 10 11 11 11 11 
10 10 10 11 11 11 11 11 11 10 10 10 13 13 13 7 7 7 10 10 10 11 11 11 
11 11 11 11 11 11 11 9 10 13 10 11 13 10 11 18 14 10 22 10 14 18 10 13 
18 10 13 18 10 13 22 15 15 13 10 11 9 9 9 9 9 9 13 10 11 18 10 13 
18 10 13 22 10 14 22 10 14 22 10 14 18 10 13 13 10 11 11 11 11 15 15 15 
22 10 14 22 15 15 22 10 14 18 10 13 18 10 13 11 11 11 13 10 11 11 11 11 
9 9 9 11 11 11 13 13 13 18 10 13 18 10 13 22 10 14 22 10 14 22 10 14 
18 10 13 22 15 15 18 10 13 18 10 13 22 10 14 22 15 15 18 10 13 11 11 11 
11 11 11 10 10 10 11 11 11 10 10 10 10 10 10 11 11 11 11 11 11 10 10 10 
11 11 11 11 11 11 11 11 11 9 9 9 11 11 11 9 9 9 13 13 13 14 14 14 
13 13 13 11 11 11 18 10 13 22 10 14 22 10 14 22 10 14 22 10 14 22 10 14 
15 15 15 13 10 11 11 11 11 11 11 11 11 11 11 10 10 10 11 11 11 9 9 9 
10 10 10 10 10 10 10 10 10 10 10 10 11 11 11 11 11 11 11 11 11 10 10 10 
11 11 11 11 11 11 13 10 11 22 10 14 25 11 17 25 11 17 18 10 13 18 10 13 
18 10 13 14 14 14 13 10 11 10 10 10 13 10 11 15 15 15 18 10 13 22 10 14 
25 11 17 25 11 17 22 10 14 22 10 14 22 10 14 22 10 14 22 10 14 25 11 17 
22 10 14 25 11 17 18 10 13 13 13 13 13 13 13 18 10 13 22 10 14 22 10 14 
22 10 14 22 15 15 18 10 13 13 13 13 10 10 10 11 11 11 9 9 9 11 11 11 
11 11 11 11 11 11 13 10 11 18 10 13 22 10 14 18 10 13 22 10 14 18 10 13 
13 13 13 13 10 11 11 11 11 9 9 9 11 11 11 11 9 10 13 13 13 18 10 13 
13 10 11 18 10 13 15 15 15 13 10 11 11 9 10 11 11 11 13 13 13 11 11 11 
11 11 11 11 11 11 10 10 10 13 13 13 9 9 9 10 10 10 11 11 11 11 11 11 
11 11 11 11 11 11 11 11 11 9 9 9 13 13 13 11 11 11 13 13 13 11 11 11 
11 11 11 10 10 10 13 13 13 9 9 9 13 13 13 11 11 11 11 11 11 11 11 11 
9 9 9 10 10 10 11 11 11 11 11 11 11 11 11 10 10 10 10 10 10 10 10 10 

10 10 10 9 9 9 11 11 11 10 10 10 9 9 9 10 10 10 11 11 11 11 11 11 
10 10 10 11 11 11 11 11 11 10 10 10 11 11 11 11 11 11 9 9 9 7 7 7 
11 11 11 11 11 11 11 11 11 9 9 9 13 13 13 14 14 14 11 11 11 11 11 11 
11 11 11 11 9 10 11 11 11 7 7 7 10 10 10 11 9 10 13 10 11 13 10 11 
13 13 13 13 10 11 18 10 13 18 10 13 22 10 14 25 11 17 18 10 13 22 10 14 
25 11 17 25 11 17 22 10 14 22 10 14 18 10 13 18 10 13 18 10 13 13 10 11 
10 10 10 10 10 10 11 11 11 13 13 13 11 11 11 9 9 9 11 11 11 11 11 11 
10 10 10 11 11 11 11 11 11 13 10 11 11 9 10 13 10 11 18 10 13 13 10 11 
18 10 13 18 10 13 13 10 11 11 11 11 10 10 10 11 11 11 9 9 9 13 10 11 
18 10 13 22 10 14 22 10 14 22 10 14 22 10 14 18 10 13 13 10 11 18 10 13 
18 10 13 22 10 14 22 10 14 22 10 14 18 10 13 13 10 11 11 9 10 10 10 10 
11 11 11 11 11 11 13 10 11 18 10 13 18 10 13 18 10 13 22 10 14 22 10 14 
22 10 14 18 10 13 18 10 13 22 10 14 22 10 14 18 10 13 13 10 11 11 11 11 
11 11 11 11 11 11 9 9 9 11 11 11 11 11 11 10 10 10 11 11 11 13 13 13 
11 11 11 11 11 11 11 11 11 10 10 10 11 11 11 11 11 11 9 9 9 11 11 11 
10 10 10 9 9 9 13 13 13 18 10 13 22 10 14 25 11 17 22 10 14 22 10 14 
18 10 13 13 10 11 11 11 11 7 7 7 9 9 9 10 10 10 9 9 9 9 9 9 
9 9 9 11 11 11 13 13 13 11 11 11 11 11 11 10 10 10 11 9 10 10 10 10 
11 11 11 9 9 9 13 13 13 15 15 15 18 10 13 22 10 14 22 10 14 22 10 14 
22 15 15 18 10 13 13 10 11 10 10 10 10 10 10 14 14 14 18 10 13 22 15 15 
18 10 13 22 10 14 25 11 17 22 10 14 22 15 15 22 10 14 22 10 14 22 10 14 
22 10 14 25 11 17 22 10 14 18 10 13 15 15 15 18 10 13 22 10 14 22 10 14 
25 11 17 22 10 14 22 10 14 18 10 13 11 9 10 13 10 11 18 10 13 13 10 11 
13 10 11 13 10 11 13 13 13 18 10 13 22 10 14 22 10 14 25 11 17 22 15 15 
18 10 13 13 10 11 11 11 11 11 11 11 11 9 10 15 15 15 18 10 13 22 10 14 
18 10 13 22 10 14 22 10 14 18 10 13 13 10 11 13 10 11 11 11 11 11 11 11 
9 9 9 11 11 11 11 11 11 13 10 11 13 10 11 13 10 11 13 10 11 13 13 13 
13 13 13 10 10 10 11 11 11 7 7 7 10 10 10 9 9 9 11 11 11 10 10 10 
11 11 11 11 11 11 10 10 10 10 10 10 10 10 10 9 9 9 10 10 10 10 10 10 
11 11 11 11 11 11 10 10 10 11 11 11 9 9 9 11 11 11 13 13 13 11 11 11 

10 10 10 11 11 11 11 11 11 10 10 10 11 11 11 11 11 11 11 11 11 11 11 11 
11 11 11 14 14 14 10 10 10 10 10 10 9 9 9 11 11 11 11 11 11 9 9 9 
11 11 11 11 11 11 11 11 11 10 10 10 11 11 11 10 10 10 11 11 11 11 11 11 
13 13 13 11 11 11 13 13 13 11 11 11 13 13 13 13 13 13 11 11 11 13 13 13 
11 11 11 11 11 11 13 10 11 18 10 13 22 10 14 22 10 14 22 10 14 22 10 14 
22 10 14 22 10 14 22 10 14 22 10 14 22 10 14 18 10 13 18 10 13 18 10 13 
13 10 11 11 11 11 13 13 13 13 10 11 11 11 11 10 10 10 11 11 11 11 11 11 
11 11 11 11 11 11 10 10 10 10 10 10 11 11 11 10 10 10 11 11 11 13 10 11 
13 10 11 13 10 11 13 10 11 10 10 10 10 10 10 11 11 11 7 7 7 11 11 11 
13 10 11 18 10 13 22 10 14 22 10 14 18 10 13 18 10 13 18 10 13 13 10 11 
18 10 13 18 10 13 18 10 13 22 10 14 22 15 15 18 10 13 11 11 11 7 7 7 
7 7 7 10 10 10 11 11 11 13 10 11 13 10 11 13 10 11 13 10 11 18 10 13 
22 10 14 25 11 17 22 10 14 22 10 14 18 10 13 22 15 15 13 10 11 11 11 11 
11 11 11 11 11 11 9 9 9 7 7 7 10 10 10 11 11 11 11 11 11 10 10 10 
10 10 10 9 9 9 9 9 9 9 9 9 10 10 10 11 11 11 11 11 11 9 9 9 
10 10 10 10 10 10 13 10 11 13 10 11 18 10 13 22 10 14 25 11 17 25 11 17 
22 10 14 18 10 13 13 13 13 13 10 11 10 10 10 13 13 13 11 11 11 10 10 10 
9 9 9 11 11 11 9 9 9 13 10 11 13 13 13 13 10 11 13 10 11 11 11 11 
11 9 10 11 9 10 11 9 10 14 14 14 13 10 11 22 15 15 22 10 14 25 11 17 
18 10 13 22 15 15 18 10 13 13 13 13 13 13 13 11 11 11 15 15 15 18 10 13 
22 10 14 22 10 14 22 10 14 22 10 14 22 10 14 18 10 13 18 10 13 25 11 17 
22 10 14 22 10 14 22 10 14 25 11 17 18 10 13 18 10 13 18 10 13 22 10 14 
22 10 14 25 11 17 18 10 13 18 10 13 18 10 13 18 10 13 22 15 15 18 10 13 
18 10 13 15 15 15 13 10 11 18 10 13 22 10 14 22 10 14 22 10 14 22 10 14 
18 10 13 13 10 11 13 13 13 11 9 10 14 14 14 18 10 13 22 10 14 22 10 14 
25 11 17 22 10 14 22 10 14 22 10 14 18 10 13 18 10 13 13 10 11 11 9 10 
10 10 10 11 11 11 13 10 11 13 10 11 13 10 11 13 10 11 18 10 13 18 10 13 
18 10 13 13 10 11 9 9 9 11 11 11 10 10 10 13 13 13 11 11 11 11 11 11 
11 11 11 10 10 10 11 11 11 9 9 9 10 10 10 9 9 9 9 9 9 11 11 11 
10 10 10 11 11 11 9 9 9 11 11 11 10 10 10 9 9 9 7 7 7 9 9 9 

